render-worker/luts/investor.cube
# Generated by render-worker/scripts/generate-luts.mjs
# Do not hand-edit — re-run the script and let math win.
TITLE "EstateMotion Investor — Desaturated film stock"
LUT_3D_SIZE 5
DOMAIN_MIN 0.0 0.0 0.0
DOMAIN_MAX 1.0 1.0 1.0
0.005548 0.011679 0.015562
0.217452 0.017283 0.021074
0.442801 0.022836 0.026530
0.670211 0.028381 0.031975
0.886873 0.033928 0.037429
0.025871 0.242598 0.034545
0.239843 0.248851 0.040124
0.466103 0.255037 0.045647
0.693097 0.261203 0.051159
0.908128 0.267362 0.056679
0.046121 0.486827 0.053377
0.262029 0.493327 0.059022
0.489060 0.499746 0.064609
0.715520 0.506132 0.070186
0.928846 0.512499 0.075770
0.066443 0.730277 0.072286
0.284177 0.736574 0.077994
0.511850 0.742781 0.083644
0.737655 0.748946 0.089283
0.949193 0.755081 0.094930
0.086821 0.957511 0.091341
0.306273 0.963216 0.097111
0.534461 0.968830 0.102822
0.759495 0.974396 0.108522
0.969160 0.979926 0.114230
0.007621 0.013648 0.231101
0.219742 0.019260 0.237229
0.445191 0.024820 0.243284
0.672563 0.030371 0.249320
0.889063 0.035926 0.255353
0.027971 0.244797 0.252161
0.242150 0.251054 0.258329
0.468496 0.257244 0.264423
0.695441 0.263414 0.270497
0.910298 0.269577 0.276569
0.048246 0.489114 0.272939
0.264351 0.495614 0.279143
0.491455 0.502033 0.285274
0.717852 0.508419 0.291383
0.930995 0.514786 0.297490
0.068591 0.732494 0.293682
0.286512 0.738787 0.299920
0.514245 0.744990 0.306084
0.739975 0.751151 0.312227
0.951319 0.757282 0.318366
0.088991 0.959521 0.314464
0.308619 0.965218 0.320734
0.536855 0.970825 0.326929
0.761801 0.976384 0.333102
0.971263 0.981907 0.339272
0.009654 0.015572 0.457502
0.221985 0.021191 0.463898
0.447529 0.026758 0.470208
0.674865 0.032316 0.476485
0.891204 0.037877 0.482749
0.030029 0.246944 0.479435
0.244408 0.253205 0.485834
0.470838 0.259399 0.492146
0.697732 0.265573 0.498426
0.912419 0.271739 0.504692
0.050327 0.491346 0.500948
0.266624 0.497846 0.507346
0.493798 0.504265 0.513658
0.720133 0.510651 0.519937
0.933095 0.517017 0.526202
0.070695 0.734656 0.522297
0.288797 0.740945 0.528693
0.516588 0.747144 0.535001
0.742243 0.753301 0.541277
0.953397 0.759428 0.547539
0.091115 0.961479 0.543560
0.310915 0.967170 0.549951
0.539196 0.972770 0.556254
0.764054 0.978322 0.562524
0.973317 0.983838 0.568779
0.011670 0.017479 0.684439
0.224208 0.023105 0.690714
0.449845 0.028679 0.696893
0.677142 0.034244 0.703031
0.893323 0.039812 0.709145
0.032069 0.249071 0.705912
0.246647 0.255336 0.712152
0.473157 0.261534 0.718297
0.700000 0.267712 0.724400
0.914517 0.273882 0.730480
0.052391 0.493555 0.726848
0.268875 0.500056 0.733051
0.496118 0.506474 0.739160
0.722389 0.512860 0.745226
0.935172 0.519227 0.751270
0.072780 0.736795 0.747504
0.291060 0.743080 0.753669
0.518907 0.749276 0.759739
0.744486 0.755429 0.765767
0.955451 0.761552 0.771772
0.093220 0.963416 0.767959
0.313188 0.969100 0.774083
0.541512 0.974693 0.780113
0.766282 0.980238 0.786102
0.975347 0.985748 0.792066
0.013671 0.019377 0.899573
0.226414 0.025010 0.905375
0.452142 0.030590 0.911079
0.679400 0.036162 0.916734
0.895421 0.041737 0.922360
0.034095 0.251186 0.919388
0.248867 0.257455 0.925124
0.475456 0.263657 0.930764
0.702247 0.269839 0.936355
0.916595 0.276012 0.941917
0.054438 0.495751 0.938595
0.271108 0.502252 0.944266
0.498418 0.508670 0.949841
0.724624 0.515056 0.955369
0.937227 0.521422 0.960867
0.074848 0.738920 0.957441
0.293304 0.745202 0.963047
0.521205 0.751393 0.968556
0.746707 0.757542 0.974020
0.957483 0.763661 0.979454
0.095307 0.965339 0.976007
0.315441 0.971016 0.981545
0.543807 0.976602 0.986989
0.768488 0.982141 0.992387
0.977355 0.987644 0.997756
