render-worker/luts/investor.cube
# Generated by render-worker/scripts/generate-luts.mjs
# Do not hand-edit — re-run the script and let math win.
TITLE "EstateMotion Investor — Desaturated film stock"
LUT_3D_SIZE 17
DOMAIN_MIN 0.0 0.0 0.0
DOMAIN_MAX 1.0 1.0 1.0
0.005548 0.011679 0.015562
0.056948 0.013093 0.016954
0.109361 0.014495 0.018333
0.162892 0.015891 0.019705
0.217452 0.017283 0.021074
0.272899 0.018673 0.022440
0.329065 0.020062 0.023804
0.385764 0.021449 0.025167
0.442801 0.022836 0.026530
0.499972 0.024223 0.027891
0.557068 0.025609 0.029252
0.613882 0.026995 0.030614
0.670211 0.028381 0.031975
0.725856 0.029767 0.033337
0.780630 0.031154 0.034700
0.834356 0.032541 0.036064
0.886873 0.033928 0.037429
0.010678 0.067841 0.020366
0.062235 0.069305 0.021763
0.114790 0.070755 0.023146
0.168448 0.072200 0.024523
0.223117 0.073640 0.025896
0.278654 0.075079 0.027266
0.334892 0.076515 0.028635
0.391642 0.077950 0.030002
0.448709 0.079385 0.031368
0.505888 0.080818 0.032734
0.562972 0.082252 0.034100
0.619752 0.083685 0.035465
0.676026 0.085117 0.036831
0.731596 0.086550 0.038198
0.786277 0.087984 0.039565
0.839893 0.089417 0.040933
0.892283 0.090851 0.042302
0.015754 0.124955 0.025110
0.067464 0.126463 0.026511
0.120157 0.127957 0.027898
0.173938 0.129444 0.029279
0.228713 0.130928 0.030657
0.284338 0.132409 0.032031
0.340643 0.133888 0.033404
0.397442 0.135365 0.034776
0.454537 0.136842 0.036146
0.511722 0.138318 0.037516
0.568791 0.139793 0.038886
0.625535 0.141267 0.040256
0.681753 0.142742 0.041626
0.737249 0.144216 0.042996
0.791836 0.145690 0.044368
0.845342 0.147165 0.045740
0.897606 0.148640 0.047113
0.020815 0.183239 0.029833
0.072675 0.184786 0.031238
0.125505 0.186318 0.032629
0.179406 0.187843 0.034014
0.234284 0.189364 0.035396
0.289994 0.190883 0.036775
0.346366 0.192399 0.038152
0.403211 0.193913 0.039527
0.460331 0.195426 0.040902
0.517520 0.196938 0.042276
0.574572 0.198450 0.043650
0.631279 0.199960 0.045024
0.687440 0.201471 0.046398
0.742859 0.202981 0.047773
0.797351 0.204491 0.049148
0.850746 0.206001 0.050524
0.902884 0.207511 0.051901
0.025871 0.242598 0.034545
0.077881 0.244177 0.035954
0.130844 0.245741 0.037349
0.184863 0.247298 0.038739
0.239843 0.248851 0.040124
0.295636 0.250401 0.041507
0.352072 0.251948 0.042888
0.408960 0.253493 0.044268
0.466103 0.255037 0.045647
0.523295 0.256580 0.047025
0.580328 0.258122 0.048403
0.636996 0.259663 0.049781
0.693097 0.261203 0.051159
0.748438 0.262743 0.052538
0.802835 0.264283 0.053918
0.856117 0.265822 0.055298
0.908128 0.267362 0.056679
0.030928 0.302857 0.039252
0.083085 0.304463 0.040665
0.136180 0.306053 0.042065
0.190316 0.307636 0.043458
0.245395 0.309214 0.044848
0.301269 0.310788 0.046235
0.357766 0.312360 0.047620
0.414696 0.313930 0.049004
0.471860 0.315499 0.050387
0.529052 0.317066 0.051769
0.586064 0.318631 0.053151
0.642691 0.320196 0.054533
0.698732 0.321760 0.055916
0.753993 0.323324 0.057298
0.808293 0.324887 0.058682
0.861461 0.326450 0.060066
0.913345 0.328012 0.061452
0.035988 0.363807 0.043958
0.088291 0.365432 0.045376
0.141516 0.367041 0.046779
0.195766 0.368642 0.048177
0.250942 0.370239 0.049571
0.306895 0.371832 0.050962
0.363452 0.373422 0.052351
0.420421 0.375010 0.053739
0.477604 0.376597 0.055125
0.534794 0.378181 0.056512
0.591784 0.379764 0.057898
0.648368 0.381346 0.059284
0.704346 0.382928 0.060670
0.759526 0.384508 0.062057
0.813727 0.386088 0.063445
0.866781 0.387667 0.064833
0.918535 0.389245 0.066223
0.041052 0.425213 0.048666
0.093499 0.426850 0.050088
0.146853 0.428471 0.051495
0.201215 0.430085 0.052897
0.256487 0.431693 0.054295
0.312517 0.433298 0.055690
0.369131 0.434899 0.057083
0.426138 0.436498 0.058475
0.483337 0.438095 0.059866
0.540523 0.439690 0.061256
0.597488 0.441284 0.062646
0.654028 0.442877 0.064036
0.709942 0.444468 0.065427
0.765039 0.446058 0.066817
0.819141 0.447648 0.068209
0.872079 0.449236 0.069601
0.923702 0.450824 0.070995
0.046121 0.486827 0.053377
0.098710 0.488470 0.054803
0.152191 0.490096 0.056215
0.206664 0.491714 0.057620
0.262029 0.493327 0.059022
0.318134 0.494936 0.060421
0.374804 0.496542 0.061818
0.431846 0.498145 0.063214
0.489060 0.499746 0.064609
0.546240 0.501345 0.066003
0.603179 0.502942 0.067397
0.659672 0.504538 0.068792
0.715520 0.506132 0.070186
0.770533 0.507725 0.071581
0.824533 0.509317 0.072976
0.877354 0.510909 0.074373
0.928846 0.512499 0.075770
0.051195 0.548395 0.058094
0.103925 0.550036 0.059524
0.157531 0.551660 0.060939
0.212113 0.553276 0.062349
0.267569 0.554886 0.063755
0.323747 0.556492 0.065158
0.380470 0.558095 0.066559
0.437546 0.559695 0.067958
0.494773 0.561293 0.069357
0.551945 0.562888 0.070756
0.608855 0.564482 0.072154
0.665300 0.566074 0.073552
0.721080 0.567664 0.074950
0.776008 0.569254 0.076349
0.829904 0.570841 0.077748
0.882607 0.572428 0.079149
0.933968 0.574014 0.080550
0.056273 0.609660 0.062817
0.109143 0.611292 0.064250
0.162873 0.612906 0.065670
0.217562 0.614513 0.067084
0.273108 0.616114 0.068493
0.329357 0.617710 0.069900
0.386131 0.619303 0.071305
0.443238 0.620893 0.072709
0.500475 0.622481 0.074112
0.557638 0.624066 0.075514
0.614518 0.625649 0.076916
0.670912 0.627230 0.078318
0.726623 0.628810 0.079720
0.781463 0.630388 0.081123
0.835256 0.631965 0.082526
0.887839 0.633540 0.083931
0.939066 0.635114 0.085336
0.061356 0.670369 0.067547
0.114363 0.671984 0.068985
0.168215 0.673583 0.070408
0.223010 0.675173 0.071826
0.278644 0.676757 0.073240
0.334962 0.678338 0.074650
0.391786 0.679914 0.076059
0.448922 0.681487 0.077467
0.506168 0.683058 0.078874
0.563318 0.684626 0.080280
0.620166 0.686191 0.081686
0.676508 0.687755 0.083091
0.732148 0.689317 0.084498
0.786899 0.690878 0.085904
0.840586 0.692436 0.087312
0.893048 0.693994 0.088720
0.944141 0.695550 0.090129
0.066443 0.730277 0.072286
0.119587 0.731869 0.073727
0.173559 0.733445 0.075155
0.228458 0.735012 0.076577
0.284177 0.736574 0.077994
0.340562 0.738131 0.079409
0.397433 0.739684 0.080822
0.454597 0.741234 0.082233
0.511850 0.742781 0.083644
0.568986 0.744326 0.085054
0.625800 0.745868 0.086463
0.682088 0.747408 0.087873
0.737655 0.748946 0.089283
0.792316 0.750482 0.090694
0.845896 0.752017 0.092105
0.898236 0.753550 0.093517
0.949193 0.755081 0.094930
0.071534 0.789151 0.077034
0.124812 0.790715 0.078480
0.178903 0.792262 0.079911
0.233904 0.793800 0.081337
0.289707 0.795332 0.082758
0.346157 0.796860 0.084176
0.403074 0.798384 0.085593
0.460263 0.799905 0.087009
0.517520 0.801422 0.088423
0.574641 0.802937 0.089837
0.631418 0.804450 0.091250
0.687651 0.805960 0.092664
0.743144 0.807468 0.094078
0.797712 0.808974 0.095492
0.851184 0.810479 0.096907
0.903401 0.811981 0.098323
0.954221 0.813482 0.099740
0.076627 0.846776 0.081792
0.130039 0.848305 0.083242
0.184247 0.849817 0.084677
0.239348 0.851321 0.086106
0.295234 0.852818 0.087532
0.351747 0.854311 0.088954
0.408707 0.855800 0.090375
0.465919 0.857286 0.091794
0.523180 0.858769 0.093212
0.580282 0.860249 0.094630
0.637022 0.861726 0.096047
0.693197 0.863201 0.097464
0.748614 0.864673 0.098882
0.803088 0.866144 0.100300
0.856450 0.867613 0.101719
0.908542 0.869080 0.103139
0.959226 0.870545 0.104559
0.081723 0.902955 0.086561
0.135267 0.904443 0.088014
0.189590 0.905915 0.089454
0.244790 0.907379 0.090887
0.300756 0.908837 0.092316
0.357331 0.910290 0.093742
0.414332 0.911740 0.095166
0.471566 0.913185 0.096589
0.528827 0.914628 0.098011
0.585910 0.916068 0.099433
0.642610 0.917505 0.100854
0.698725 0.918940 0.102275
0.754064 0.920372 0.103697
0.808444 0.921802 0.105119
0.861694 0.923231 0.106541
0.913661 0.924657 0.107965
0.964205 0.926081 0.109389
0.086821 0.957511 0.091341
0.140495 0.958955 0.092798
0.194932 0.960383 0.094242
0.250228 0.961802 0.095678
0.306273 0.963216 0.097111
0.362908 0.964625 0.098541
0.419949 0.966030 0.099969
0.477201 0.967431 0.101396
0.534461 0.968830 0.102822
0.591523 0.970225 0.104247
0.648181 0.971618 0.105672
0.704236 0.973008 0.107097
0.759495 0.974396 0.108522
0.813778 0.975781 0.109948
0.866916 0.977165 0.111374
0.918755 0.978546 0.112802
0.969160 0.979926 0.114230
0.006076 0.012181 0.068353
0.057492 0.013596 0.069792
0.109920 0.014998 0.071217
0.163464 0.016394 0.072635
0.218036 0.017787 0.074049
0.273492 0.019178 0.075460
0.329665 0.020567 0.076870
0.386370 0.021955 0.078277
0.443410 0.023342 0.079684
0.500582 0.024729 0.081090
0.557677 0.026116 0.082496
0.614487 0.027502 0.083901
0.670810 0.028889 0.085307
0.726448 0.030275 0.086713
0.781212 0.031662 0.088119
0.834927 0.033050 0.089527
0.887431 0.034438 0.090935
0.011208 0.068361 0.073318
0.062781 0.069826 0.074760
0.115350 0.071276 0.076189
0.169021 0.072721 0.077611
0.223701 0.074162 0.079029
0.279248 0.075601 0.080444
0.335493 0.077038 0.081857
0.392249 0.078473 0.083269
0.449319 0.079908 0.084680
0.506498 0.081342 0.086090
0.563580 0.082776 0.087499
0.620357 0.084209 0.088909
0.676625 0.085642 0.090318
0.732188 0.087076 0.091728
0.786859 0.088509 0.093139
0.840463 0.089943 0.094550
0.892840 0.091378 0.095962
0.016286 0.125490 0.078218
0.068011 0.126999 0.079664
0.120719 0.128493 0.081097
0.174512 0.129981 0.082523
0.229298 0.131465 0.083945
0.284933 0.132946 0.085364
0.341245 0.134426 0.086781
0.398049 0.135904 0.088196
0.455146 0.137381 0.089611
0.512332 0.138857 0.091025
0.569399 0.140332 0.092438
0.626140 0.141807 0.093851
0.682352 0.143282 0.095265
0.737840 0.144757 0.096678
0.792417 0.146231 0.098093
0.845911 0.147706 0.099507
0.898162 0.149181 0.100923
0.021348 0.183789 0.083094
0.073225 0.185336 0.084545
0.126068 0.186868 0.085981
0.179982 0.188394 0.087411
0.234871 0.189915 0.088836
0.290590 0.191434 0.090259
0.346968 0.192950 0.091680
0.403818 0.194465 0.093099
0.460940 0.195978 0.094517
0.518130 0.197491 0.095935
0.575180 0.199002 0.097352
0.631883 0.200513 0.098769
0.688038 0.202024 0.100186
0.743449 0.203535 0.101604
0.797931 0.205045 0.103022
0.851314 0.206555 0.104440
0.903439 0.208065 0.105860
0.026406 0.243159 0.087958
0.078431 0.244739 0.089412
0.131409 0.246303 0.090852
0.185440 0.247860 0.092286
0.240431 0.249413 0.093715
0.296233 0.250963 0.095142
0.352675 0.252511 0.096566
0.409568 0.254056 0.097989
0.466713 0.255600 0.099411
0.523905 0.257143 0.100832
0.580936 0.258685 0.102253
0.637600 0.260227 0.103674
0.693695 0.261767 0.105095
0.749027 0.263308 0.106516
0.803414 0.264848 0.107938
0.856684 0.266387 0.109360
0.908682 0.267927 0.110784
0.031464 0.303428 0.092815
0.083637 0.305034 0.094273
0.136746 0.306624 0.095717
0.190894 0.308207 0.097154
0.245983 0.309785 0.098588
0.301866 0.311360 0.100018
0.358370 0.312932 0.101446
0.415304 0.314502 0.102873
0.472470 0.316071 0.104298
0.529662 0.317638 0.105723
0.586672 0.319204 0.107148
0.643294 0.320769 0.108572
0.699329 0.322333 0.109997
0.754581 0.323897 0.111422
0.808871 0.325460 0.112847
0.862027 0.327023 0.114273
0.913896 0.328585 0.115700
0.036526 0.364384 0.097670
0.088844 0.366009 0.099132
0.142083 0.367619 0.100579
0.196346 0.369220 0.102020
0.251532 0.370817 0.103457
0.307493 0.372410 0.104891
0.364056 0.374001 0.106323
0.421030 0.375589 0.107753
0.478214 0.377175 0.109183
0.535404 0.378760 0.110611
0.592391 0.380343 0.112039
0.648971 0.381925 0.113467
0.704942 0.383507 0.114896
0.760114 0.385087 0.116324
0.814304 0.386667 0.117753
0.867346 0.388246 0.119183
0.919086 0.389825 0.120613
0.041592 0.425794 0.102525
0.094054 0.427432 0.103990
0.147422 0.429053 0.105441
0.201796 0.430667 0.106886
0.257077 0.432275 0.108327
0.313116 0.433880 0.109764
0.369736 0.435481 0.111200
0.426746 0.437080 0.112634
0.483948 0.438678 0.114066
0.541133 0.440273 0.115499
0.598095 0.441867 0.116930
0.654630 0.443459 0.118362
0.710537 0.445050 0.119794
0.765626 0.446641 0.121226
0.819716 0.448230 0.122659
0.872642 0.449819 0.124092
0.924252 0.451407 0.125526
0.046662 0.487411 0.107381
0.099266 0.489053 0.108851
0.152761 0.490680 0.110305
0.207246 0.492298 0.111754
0.262621 0.493911 0.113198
0.318734 0.495520 0.114639
0.375409 0.497125 0.116078
0.432455 0.498729 0.117516
0.489670 0.500329 0.118952
0.546850 0.501928 0.120388
0.603786 0.503526 0.121823
0.660273 0.505121 0.123258
0.716114 0.506716 0.124694
0.771119 0.508309 0.126129
0.825107 0.509901 0.127566
0.877916 0.511492 0.129003
0.929394 0.513083 0.130440
0.051738 0.548978 0.112241
0.104483 0.550619 0.113714
0.158102 0.552243 0.115173
0.212696 0.553858 0.116625
0.268162 0.555469 0.118072
0.324348 0.557075 0.119517
0.381076 0.558678 0.120960
0.438155 0.560278 0.122401
0.495383 0.561875 0.123841
0.552554 0.563471 0.125280
0.609462 0.565064 0.126719
0.665901 0.566656 0.128158
0.721674 0.568247 0.129597
0.776592 0.569836 0.131036
0.830478 0.571424 0.132476
0.883168 0.573010 0.133916
0.934514 0.574596 0.135358
0.056818 0.610240 0.117106
0.109702 0.611871 0.118583
0.163445 0.613486 0.120045
0.218146 0.615092 0.121500
0.273701 0.616693 0.122952
0.329958 0.618289 0.124400
0.386737 0.619882 0.125846
0.443847 0.621472 0.127291
0.501086 0.623059 0.128734
0.558247 0.624644 0.130177
0.615124 0.626227 0.131620
0.671512 0.627809 0.133062
0.727216 0.629388 0.134504
0.782047 0.630966 0.135947
0.835828 0.632542 0.137391
0.888398 0.634118 0.138834
0.939611 0.635692 0.140279
0.061902 0.670943 0.121977
0.114924 0.672558 0.123458
0.168789 0.674156 0.124923
0.223595 0.675747 0.126382
0.279238 0.677331 0.127837
0.335563 0.678911 0.129289
0.392392 0.680487 0.130738
0.449531 0.682060 0.132187
0.506779 0.683630 0.133634
0.563927 0.685198 0.135080
0.620772 0.686764 0.136526
0.677108 0.688327 0.137972
0.732740 0.689889 0.139418
0.787482 0.691449 0.140864
0.841157 0.693008 0.142311
0.893607 0.694565 0.143758
0.944685 0.696121 0.145206
0.066991 0.730843 0.126855
0.120149 0.732435 0.128339
0.174134 0.734011 0.129808
0.229044 0.735578 0.131271
0.284772 0.737139 0.132729
0.341164 0.738696 0.134184
0.398041 0.740249 0.135637
0.455207 0.741798 0.137089
0.512460 0.743345 0.138540
0.569595 0.744889 0.139989
0.626405 0.746431 0.141439
0.682687 0.747971 0.142888
0.738247 0.749509 0.144338
0.792897 0.751045 0.145787
0.846466 0.752579 0.147237
0.898793 0.754112 0.148688
0.949735 0.755643 0.150140
0.072082 0.789707 0.131741
0.125375 0.791270 0.133228
0.179479 0.792817 0.134701
0.234490 0.794355 0.136167
0.290303 0.795887 0.137629
0.346760 0.797414 0.139087
0.403682 0.798938 0.140544
0.460873 0.800458 0.141999
0.518131 0.801975 0.143453
0.575250 0.803490 0.144906
0.632023 0.805002 0.146359
0.688250 0.806512 0.147812
0.743735 0.808020 0.149265
0.798293 0.809526 0.150718
0.851753 0.811030 0.152172
0.903956 0.812532 0.153626
0.954762 0.814033 0.155081
0.077177 0.847319 0.136635
0.130603 0.848848 0.138126
0.184824 0.850359 0.139602
0.239935 0.851863 0.141072
0.295830 0.853360 0.142537
0.352350 0.854853 0.143999
0.409315 0.856342 0.145459
0.466529 0.857827 0.146918
0.523790 0.859309 0.148375
0.580891 0.860789 0.149832
0.637626 0.862265 0.151288
0.693795 0.863740 0.152744
0.749204 0.865212 0.154200
0.803668 0.866683 0.155657
0.857018 0.868151 0.157114
0.909097 0.869618 0.158572
0.959765 0.871082 0.160030
0.082274 0.903484 0.141539
0.135832 0.904972 0.143033
0.190168 0.906444 0.144513
0.245378 0.907907 0.145985
0.301353 0.909365 0.147454
0.357934 0.910817 0.148920
0.414941 0.912266 0.150383
0.472176 0.913712 0.151845
0.529437 0.915154 0.153306
0.586518 0.916593 0.154766
0.643213 0.918030 0.156225
0.699323 0.919464 0.157685
0.754653 0.920896 0.159145
0.809022 0.922326 0.160605
0.862261 0.923754 0.162065
0.914213 0.925180 0.163526
0.964743 0.926604 0.164988
0.087374 0.958024 0.146452
0.141062 0.959468 0.147950
0.195512 0.960895 0.149433
0.250818 0.962314 0.150909
0.306871 0.963727 0.152381
0.363512 0.965136 0.153850
0.420558 0.966540 0.155317
0.477812 0.967941 0.156782
0.535072 0.969339 0.158246
0.592131 0.970734 0.159709
0.648784 0.972126 0.161172
0.704832 0.973516 0.162635
0.760083 0.974903 0.164098
0.814355 0.976288 0.165561
0.867481 0.977672 0.167025
0.919307 0.979053 0.168490
0.969696 0.980432 0.169955
0.006595 0.012674 0.121715
0.058027 0.014090 0.123195
0.110469 0.015492 0.124661
0.164026 0.016889 0.126120
0.218609 0.018282 0.127574
0.274074 0.019673 0.129026
0.330254 0.021063 0.130475
0.386965 0.022451 0.131923
0.444008 0.023839 0.133369
0.501180 0.025226 0.134815
0.558274 0.026613 0.136260
0.615082 0.028000 0.137705
0.671399 0.029387 0.139150
0.727029 0.030774 0.140595
0.781784 0.032162 0.142040
0.835488 0.033549 0.143486
0.887979 0.034938 0.144933
0.011729 0.068871 0.126822
0.063317 0.070336 0.128306
0.115901 0.071787 0.129775
0.169584 0.073232 0.131237
0.224275 0.074674 0.132696
0.279831 0.076113 0.134151
0.336083 0.077550 0.135604
0.392844 0.078986 0.137055
0.449917 0.080421 0.138505
0.507097 0.081856 0.139954
0.564177 0.083290 0.141402
0.620951 0.084724 0.142851
0.677213 0.086158 0.144299
0.732768 0.087591 0.145747
0.787430 0.089025 0.147196
0.841023 0.090460 0.148646
0.893387 0.091894 0.150096
0.016808 0.126016 0.131862
0.068549 0.127525 0.133349
0.121271 0.129019 0.134822
0.175077 0.130508 0.136287
0.229873 0.131992 0.137749
0.285517 0.133474 0.139208
0.341836 0.134954 0.140664
0.398645 0.136432 0.142118
0.455745 0.137909 0.143572
0.512931 0.139385 0.145024
0.569996 0.140861 0.146476
0.626733 0.142337 0.147928
0.682940 0.143812 0.149380
0.738419 0.145287 0.150831
0.792987 0.146762 0.152284
0.846469 0.148237 0.153736
0.898708 0.149713 0.155190
0.021872 0.184328 0.136875
0.073764 0.185875 0.138366
0.126621 0.187408 0.139842
0.180547 0.188933 0.141311
0.235447 0.190455 0.142776
0.291175 0.191974 0.144238
0.347560 0.193491 0.145697
0.404414 0.195006 0.147155
0.461539 0.196520 0.148612
0.518729 0.198032 0.150068
0.575777 0.199544 0.151523
0.632476 0.201056 0.152978
0.688625 0.202567 0.154433
0.744028 0.204078 0.155888
0.798500 0.205588 0.157344
0.851871 0.207099 0.158800
0.903983 0.208609 0.160257
0.026931 0.243709 0.141873
0.078972 0.245289 0.143368
0.131963 0.246854 0.144847
0.186007 0.248411 0.146320
0.241008 0.249965 0.147788
0.296819 0.251515 0.149253
0.353267 0.253063 0.150716
0.410164 0.254609 0.152177
0.467312 0.256153 0.153637
0.524504 0.257696 0.155097
0.581533 0.259238 0.156555
0.638192 0.260780 0.158013
0.694281 0.262321 0.159472
0.749606 0.263861 0.160930
0.803982 0.265402 0.162389
0.857240 0.266941 0.163848
0.909225 0.268481 0.165309
0.031991 0.303987 0.146864
0.084179 0.305593 0.148361
0.137302 0.307184 0.149844
0.191462 0.308767 0.151320
0.246562 0.310345 0.152792
0.302453 0.311920 0.154260
0.358962 0.313493 0.155726
0.415901 0.315063 0.157191
0.473069 0.316632 0.158654
0.530261 0.318199 0.160117
0.587268 0.319765 0.161578
0.643887 0.321331 0.163040
0.699914 0.322895 0.164501
0.755159 0.324459 0.165963
0.809438 0.326022 0.167425
0.862582 0.327585 0.168888
0.914438 0.329148 0.170351
0.037054 0.364951 0.151850
0.089388 0.366576 0.153351
0.142641 0.368185 0.154837
0.196915 0.369787 0.156316
0.252111 0.371384 0.157791
0.308081 0.372977 0.159262
0.364650 0.374568 0.160732
0.421627 0.376156 0.162200
0.478813 0.377742 0.163666
0.536003 0.379327 0.165132
0.592988 0.380911 0.166597
0.649562 0.382493 0.168062
0.705527 0.384074 0.169526
0.760690 0.385655 0.170991
0.814870 0.387235 0.172457
0.867900 0.388814 0.173922
0.919626 0.390393 0.175389
0.042122 0.426365 0.156834
0.094599 0.428003 0.158338
0.147980 0.429624 0.159827
0.202366 0.431238 0.161310
0.257657 0.432846 0.162788
0.313704 0.434451 0.164263
0.370330 0.436052 0.165735
0.427344 0.437652 0.167206
0.484547 0.439249 0.168676
0.541732 0.440844 0.170145
0.598692 0.442438 0.171613
0.655221 0.444031 0.173081
0.711122 0.445622 0.174549
0.766201 0.447212 0.176017
0.820281 0.448802 0.177486
0.873195 0.450391 0.178955
0.924791 0.451979 0.180424
0.047194 0.487983 0.161818
0.099813 0.489626 0.163326
0.153321 0.491252 0.164818
0.207817 0.492870 0.166304
0.263202 0.494483 0.167785
0.319322 0.496092 0.169263
0.376003 0.497698 0.170739
0.433053 0.499301 0.172213
0.490270 0.500902 0.173686
0.547448 0.502501 0.175158
0.604381 0.504098 0.176629
0.660864 0.505694 0.178100
0.716698 0.507288 0.179571
0.771693 0.508881 0.181043
0.825671 0.510473 0.182514
0.878467 0.512065 0.183986
0.929932 0.513655 0.185459
0.052271 0.549550 0.166804
0.105030 0.551190 0.168315
0.158663 0.552814 0.169811
0.213268 0.554430 0.171300
0.268744 0.556040 0.172784
0.324937 0.557646 0.174265
0.381671 0.559249 0.175744
0.438753 0.560849 0.177221
0.495983 0.562447 0.178697
0.553153 0.564042 0.180172
0.610057 0.565636 0.181647
0.666491 0.567227 0.183121
0.722257 0.568818 0.184595
0.777166 0.570407 0.186070
0.831041 0.571994 0.187544
0.883718 0.573581 0.189020
0.935050 0.575167 0.190496
0.057352 0.610808 0.171794
0.110251 0.612440 0.173308
0.164007 0.614054 0.174807
0.218719 0.615660 0.176298
0.274284 0.617261 0.177786
0.330548 0.618857 0.179270
0.387333 0.620450 0.180752
0.444446 0.622040 0.182233
0.501686 0.623627 0.183712
0.558845 0.625212 0.185190
0.615719 0.626795 0.186668
0.672102 0.628376 0.188145
0.727798 0.629955 0.189622
0.782620 0.631533 0.191100
0.836390 0.633109 0.192577
0.888947 0.634684 0.194056
0.940146 0.636258 0.195535
0.062438 0.671506 0.176788
0.115474 0.673121 0.178305
0.169352 0.674719 0.179807
0.224169 0.676309 0.181302
0.279822 0.677893 0.182792
0.336154 0.679473 0.184280
0.392988 0.681049 0.185765
0.450130 0.682621 0.187248
0.507378 0.684191 0.188730
0.564526 0.685759 0.190212
0.621366 0.687325 0.191692
0.677697 0.688888 0.193173
0.733322 0.690450 0.194653
0.788054 0.692010 0.196133
0.841718 0.693568 0.197614
0.894154 0.695125 0.199096
0.945218 0.696681 0.200578
0.067528 0.731398 0.181787
0.120700 0.732990 0.183307
0.174698 0.734565 0.184812
0.229619 0.736132 0.186310
0.285356 0.737693 0.187804
0.341756 0.739249 0.189294
0.398637 0.740802 0.190782
0.455806 0.742352 0.192269
0.513060 0.743898 0.193754
0.570193 0.745442 0.195238
0.626999 0.746984 0.196722
0.683276 0.748523 0.198205
0.738827 0.750061 0.199689
0.793468 0.751596 0.201172
0.847025 0.753131 0.202656
0.899339 0.754663 0.204140
0.950267 0.756194 0.205625
0.072621 0.790252 0.186792
0.125928 0.791815 0.188315
0.180045 0.793361 0.189823
0.235067 0.794899 0.191324
0.290888 0.796430 0.192821
0.347352 0.797958 0.194315
0.404278 0.799481 0.195806
0.461472 0.801001 0.197295
0.518730 0.802518 0.198783
0.575847 0.804032 0.200271
0.632617 0.805544 0.201757
0.688838 0.807054 0.203244
0.744314 0.808561 0.204730
0.798863 0.810067 0.206216
0.852311 0.811570 0.207703
0.904501 0.813072 0.209191
0.955293 0.814573 0.210679
0.077717 0.847852 0.191804
0.131157 0.849380 0.193331
0.185391 0.850891 0.194842
0.240513 0.852394 0.196346
0.296416 0.853891 0.197845
0.352943 0.855384 0.199342
0.409912 0.856872 0.200836
0.467129 0.858357 0.202328
0.524389 0.859839 0.203820
0.581488 0.861318 0.205310
0.638219 0.862795 0.206799
0.694382 0.864269 0.208289
0.749782 0.865741 0.209778
0.804237 0.867211 0.211267
0.857575 0.868679 0.212757
0.909640 0.870145 0.214247
0.960294 0.871609 0.215738
0.082816 0.904002 0.196824
0.136388 0.905490 0.198353
0.190736 0.906961 0.199867
0.245956 0.908425 0.201374
0.301939 0.909882 0.202877
0.358527 0.911334 0.204376
0.415538 0.912783 0.205874
0.472775 0.914227 0.207369
0.530036 0.915669 0.208863
0.587115 0.917108 0.210356
0.643806 0.918544 0.211849
0.699909 0.919978 0.213341
0.755231 0.921410 0.214833
0.809590 0.922839 0.216325
0.862816 0.924267 0.217818
0.914756 0.925692 0.219311
0.965271 0.927116 0.220805
0.087917 0.958528 0.201852
0.141618 0.959970 0.203384
0.196080 0.961397 0.204901
0.251397 0.962816 0.206411
0.307458 0.964229 0.207917
0.364105 0.965637 0.209419
0.421155 0.967041 0.210919
0.478411 0.968441 0.212417
0.535671 0.969839 0.213914
0.592727 0.971233 0.215410
0.649376 0.972625 0.216906
0.705418 0.974014 0.218401
0.760660 0.975401 0.219896
0.814922 0.976786 0.221391
0.868036 0.978168 0.222886
0.919848 0.979549 0.224382
0.970223 0.980928 0.225879
0.007109 0.013163 0.175974
0.058557 0.014579 0.177491
0.111013 0.015981 0.178993
0.164584 0.017379 0.180488
0.219177 0.018772 0.181978
0.274651 0.020164 0.183465
0.330839 0.021554 0.184950
0.387555 0.022943 0.186433
0.444601 0.024331 0.187914
0.501774 0.025719 0.189394
0.558867 0.027106 0.190874
0.615671 0.028493 0.192353
0.671983 0.029881 0.193832
