render-worker/luts/investor.cube
# Generated by render-worker/scripts/generate-luts.mjs
# Do not hand-edit — re-run the script and let math win.
TITLE "EstateMotion Investor — Desaturated film stock"
LUT_3D_SIZE 9
DOMAIN_MIN 0.0 0.0 0.0
DOMAIN_MAX 1.0 1.0 1.0
0.005548 0.011679 0.015562
0.109361 0.014495 0.018333
0.217452 0.017283 0.021074
0.329065 0.020062 0.023804
0.442801 0.022836 0.026530
0.557068 0.025609 0.029252
0.670211 0.028381 0.031975
0.780630 0.031154 0.034700
0.886873 0.033928 0.037429
0.015754 0.124955 0.025110
0.120157 0.127957 0.027898
0.228713 0.130928 0.030657
0.340643 0.133888 0.033404
0.454537 0.136842 0.036146
0.568791 0.139793 0.038886
0.681753 0.142742 0.041626
0.791836 0.145690 0.044368
0.897606 0.148640 0.047113
0.025871 0.242598 0.034545
0.130844 0.245741 0.037349
0.239843 0.248851 0.040124
0.352072 0.251948 0.042888
0.466103 0.255037 0.045647
0.580328 0.258122 0.048403
0.693097 0.261203 0.051159
0.802835 0.264283 0.053918
0.908128 0.267362 0.056679
0.035988 0.363807 0.043958
0.141516 0.367041 0.046779
0.250942 0.370239 0.049571
0.363452 0.373422 0.052351
0.477604 0.376597 0.055125
0.591784 0.379764 0.057898
0.704346 0.382928 0.060670
0.813727 0.386088 0.063445
0.918535 0.389245 0.066223
0.046121 0.486827 0.053377
0.152191 0.490096 0.056215
0.262029 0.493327 0.059022
0.374804 0.496542 0.061818
0.489060 0.499746 0.064609
0.603179 0.502942 0.067397
0.715520 0.506132 0.070186
0.824533 0.509317 0.072976
0.928846 0.512499 0.075770
0.056273 0.609660 0.062817
0.162873 0.612906 0.065670
0.273108 0.616114 0.068493
0.386131 0.619303 0.071305
0.500475 0.622481 0.074112
0.614518 0.625649 0.076916
0.726623 0.628810 0.079720
0.835256 0.631965 0.082526
0.939066 0.635114 0.085336
0.066443 0.730277 0.072286
0.173559 0.733445 0.075155
0.284177 0.736574 0.077994
0.397433 0.739684 0.080822
0.511850 0.742781 0.083644
0.625800 0.745868 0.086463
0.737655 0.748946 0.089283
0.845896 0.752017 0.092105
0.949193 0.755081 0.094930
0.076627 0.846776 0.081792
0.184247 0.849817 0.084677
0.295234 0.852818 0.087532
0.408707 0.855800 0.090375
0.523180 0.858769 0.093212
0.637022 0.861726 0.096047
0.748614 0.864673 0.098882
0.856450 0.867613 0.101719
0.959226 0.870545 0.104559
0.086821 0.957511 0.091341
0.194932 0.960383 0.094242
0.306273 0.963216 0.097111
0.419949 0.966030 0.099969
0.534461 0.968830 0.102822
0.648181 0.971618 0.105672
0.759495 0.974396 0.108522
0.866916 0.977165 0.111374
0.969160 0.979926 0.114230
0.006595 0.012674 0.121715
0.110469 0.015492 0.124661
0.218609 0.018282 0.127574
0.330254 0.021063 0.130475
0.444008 0.023839 0.133369
0.558274 0.026613 0.136260
0.671399 0.029387 0.139150
0.781784 0.032162 0.142040
0.887979 0.034938 0.144933
0.016808 0.126016 0.131862
0.121271 0.129019 0.134822
0.229873 0.131992 0.137749
0.341836 0.134954 0.140664
0.455745 0.137909 0.143572
0.569996 0.140861 0.146476
0.682940 0.143812 0.149380
0.792987 0.146762 0.152284
0.898708 0.149713 0.155190
0.026931 0.243709 0.141873
0.131963 0.246854 0.144847
0.241008 0.249965 0.147788
0.353267 0.253063 0.150716
0.467312 0.256153 0.153637
0.581533 0.259238 0.156555
0.694281 0.262321 0.159472
0.803982 0.265402 0.162389
0.909225 0.268481 0.165309
0.037054 0.364951 0.151850
0.142641 0.368185 0.154837
0.252111 0.371384 0.157791
0.364650 0.374568 0.160732
0.478813 0.377742 0.163666
0.592988 0.380911 0.166597
0.705527 0.384074 0.169526
0.814870 0.387235 0.172457
0.919626 0.390393 0.175389
0.047194 0.487983 0.161818
0.153321 0.491252 0.164818
0.263202 0.494483 0.167785
0.376003 0.497698 0.170739
0.490270 0.500902 0.173686
0.604381 0.504098 0.176629
0.716698 0.507288 0.179571
0.825671 0.510473 0.182514
0.929932 0.513655 0.185459
0.057352 0.610808 0.171794
0.164007 0.614054 0.174807
0.274284 0.617261 0.177786
0.387333 0.620450 0.180752
0.501686 0.623627 0.183712
0.615719 0.626795 0.186668
0.727798 0.629955 0.189622
0.836390 0.633109 0.192577
0.940146 0.636258 0.195535
0.067528 0.731398 0.181787
0.174698 0.734565 0.184812
0.285356 0.737693 0.187804
0.398637 0.740802 0.190782
0.513060 0.743898 0.193754
0.626999 0.746984 0.196722
0.738827 0.750061 0.199689
0.847025 0.753131 0.202656
0.950267 0.756194 0.205625
0.077717 0.847852 0.191804
0.185391 0.850891 0.194842
0.296416 0.853891 0.197845
0.409912 0.856872 0.200836
0.524389 0.859839 0.203820
0.638219 0.862795 0.206799
0.749782 0.865741 0.209778
0.857575 0.868679 0.212757
0.960294 0.871609 0.215738
0.087917 0.958528 0.201852
0.196080 0.961397 0.204901
0.307458 0.964229 0.207917
0.421155 0.967041 0.210919
0.535671 0.969839 0.213914
0.649376 0.972625 0.216906
0.760660 0.975401 0.219896
0.868036 0.978168 0.222886
0.970223 0.980928 0.225879
0.007621 0.013648 0.231101
0.111555 0.016468 0.234182
0.219742 0.019260 0.237229
0.331421 0.022042 0.240261
0.445191 0.024820 0.243284
0.559456 0.027596 0.246303
0.672563 0.030371 0.249320
0.782915 0.033148 0.252336
0.889063 0.035926 0.255353
0.017841 0.127054 0.241709
0.122363 0.130059 0.244800
0.231011 0.133033 0.247857
0.343005 0.135996 0.250899
0.456928 0.138953 0.253933
0.571178 0.141907 0.256962
0.684102 0.144859 0.259988
0.794114 0.147810 0.263014
0.899786 0.150762 0.266040
0.027971 0.244797 0.252161
0.133061 0.247942 0.255262
0.242150 0.251054 0.258329
0.354438 0.254153 0.261380
0.468496 0.257244 0.264423
0.582713 0.260331 0.267462
0.695441 0.263414 0.270497
0.805105 0.266496 0.273532
0.910298 0.269577 0.276569
0.038100 0.366069 0.262561
0.143743 0.369304 0.265672
0.253257 0.372504 0.268748
0.365823 0.375688 0.271808
0.479998 0.378863 0.274861
0.594167 0.382032 0.277908
0.706684 0.385196 0.280953
0.815990 0.388357 0.283997
0.920695 0.391516 0.287042
0.048246 0.489114 0.272939
0.154428 0.492383 0.276059
0.264351 0.495614 0.279143
0.377179 0.498829 0.282213
0.491455 0.502033 0.285274
0.605559 0.505229 0.288330
0.717852 0.508419 0.291383
0.826786 0.511604 0.294436
0.930995 0.514786 0.297490
0.058410 0.611931 0.283309
0.165119 0.615176 0.286438
0.275436 0.618383 0.289531
0.388510 0.621571 0.292609
0.502871 0.624748 0.295678
0.616895 0.627915 0.298743
0.728949 0.631075 0.301805
0.837500 0.634228 0.304866
0.941204 0.637377 0.307928
0.068591 0.732494 0.293682
0.175815 0.735660 0.296819
0.286512 0.738787 0.299920
0.399816 0.741895 0.303007
0.514245 0.744990 0.306084
0.628174 0.748075 0.309157
0.739975 0.751151 0.312227
0.848131 0.754219 0.315296
0.951319 0.757282 0.318366
0.078786 0.848904 0.304065
0.186511 0.851942 0.307210
0.297574 0.854940 0.310320
0.411092 0.857920 0.313414
0.525574 0.860885 0.316499
0.639392 0.863839 0.319580
0.750927 0.866784 0.322658
0.858676 0.869720 0.325735
0.961340 0.872650 0.328812
0.088991 0.959521 0.314464
0.197205 0.962389 0.317617
0.308619 0.965218 0.320734
0.422336 0.968029 0.323836
0.536855 0.970825 0.326929
0.650547 0.973609 0.330017
0.761801 0.976384 0.333102
0.869132 0.979149 0.336187
0.971263 0.981907 0.339272
0.008640 0.014613 0.343459
0.112633 0.017434 0.346632
0.220867 0.020228 0.349768
0.332577 0.023012 0.352888
0.446363 0.025792 0.355998
0.560627 0.028569 0.359102
0.673717 0.031347 0.362202
0.784036 0.034125 0.365300
0.890137 0.036905 0.368398
0.018866 0.128083 0.354377
0.123446 0.131089 0.357556
0.232140 0.134065 0.360698
0.344164 0.137029 0.363823
0.458102 0.139987 0.366939
0.572348 0.142942 0.370048
0.685253 0.145896 0.373154
0.795231 0.148849 0.376257
0.900855 0.151802 0.379360
0.029003 0.245873 0.365120
0.134149 0.249020 0.368304
0.243282 0.252133 0.371451
0.355600 0.255233 0.374581
0.469671 0.258325 0.377702
0.583883 0.261413 0.380816
0.696590 0.264497 0.383927
0.806219 0.267580 0.387035
0.911362 0.270661 0.390143
0.039138 0.367177 0.375793
0.144837 0.370413 0.378982
0.254393 0.373612 0.382134
0.366987 0.376797 0.385269
0.481173 0.379973 0.388395
0.595336 0.383142 0.391514
0.707831 0.386307 0.394629
0.817099 0.389469 0.397742
0.921754 0.392628 0.400854
0.049289 0.490233 0.386428
0.155527 0.493502 0.389621
0.265490 0.496734 0.392778
0.378345 0.499948 0.395917
0.492630 0.503152 0.399047
0.606727 0.506348 0.402170
0.718996 0.509538 0.405290
0.827891 0.512724 0.408407
0.932049 0.515905 0.411524
0.059459 0.613043 0.397039
0.166222 0.616288 0.400237
0.276579 0.619493 0.403397
0.389677 0.622681 0.406541
0.504046 0.625857 0.409675
0.618061 0.629024 0.412802
0.730090 0.632183 0.415925
0.838601 0.635336 0.419046
0.942251 0.638484 0.422167
0.069646 0.733578 0.407637
0.176922 0.736744 0.410839
0.287658 0.739870 0.414003
0.400984 0.742977 0.417151
0.515420 0.746071 0.420288
0.629338 0.749154 0.423419
0.741113 0.752229 0.426546
0.849227 0.755297 0.429671
0.952362 0.758359 0.432795
0.079846 0.849945 0.418230
0.187623 0.852981 0.421436
0.298723 0.855978 0.424603
0.412262 0.858956 0.427755
0.526749 0.861920 0.430895
0.640555 0.864873 0.434030
0.752061 0.867816 0.437160
0.859767 0.870752 0.440288
0.962377 0.873679 0.443415
0.090056 0.960503 0.428824
0.198320 0.963370 0.432033
0.309770 0.966198 0.435203
0.423507 0.969006 0.438357
0.538029 0.971801 0.441501
0.651707 0.974583 0.444639
0.762931 0.977356 0.447772
0.870218 0.980120 0.450903
0.972294 0.982876 0.454033
0.009654 0.015572 0.457502
0.113705 0.018395 0.460720
0.221985 0.021191 0.463898
0.333727 0.023977 0.467058
0.447529 0.026758 0.470208
0.561792 0.029537 0.473349
0.674865 0.032316 0.476485
0.785150 0.035096 0.479618
0.891204 0.037877 0.482749
0.019887 0.129105 0.468566
0.124524 0.132113 0.471784
0.233262 0.135090 0.474963
0.345317 0.138056 0.478125
0.459269 0.141015 0.481275
0.573513 0.143972 0.484417
0.686398 0.146926 0.487554
0.796341 0.149881 0.490688
0.901918 0.152835 0.493819
0.030029 0.246944 0.479435
0.135232 0.250091 0.482654
0.244408 0.253205 0.485834
0.356755 0.256306 0.488996
0.470838 0.259399 0.492146
0.585046 0.262488 0.495289
0.697732 0.265573 0.498426
0.807325 0.268657 0.501560
0.912419 0.271739 0.504692
0.040170 0.368278 0.490219
0.145924 0.371514 0.493438
0.255523 0.374714 0.496618
0.368144 0.377900 0.499780
0.482341 0.381076 0.502930
0.596498 0.384246 0.506073
0.708970 0.387411 0.509210
0.818201 0.390573 0.512344
0.922806 0.393732 0.515476
0.050327 0.491346 0.500948
0.156619 0.494615 0.504166
0.266624 0.497846 0.507346
0.379503 0.501061 0.510507
0.493798 0.504265 0.513658
0.607887 0.507461 0.516800
0.720133 0.510651 0.519937
0.828989 0.513836 0.523070
0.933095 0.517017 0.526202
0.060503 0.614147 0.511637
0.167319 0.617391 0.514855
0.277716 0.620597 0.518034
0.390838 0.623784 0.521195
0.505214 0.626960 0.524345
0.619220 0.630126 0.527486
0.731224 0.633285 0.530622
0.839695 0.636437 0.533755
0.943293 0.639585 0.536886
0.070695 0.734656 0.522297
0.178023 0.737820 0.525514
0.288797 0.740945 0.528693
0.402146 0.744051 0.531853
0.516588 0.747144 0.535001
0.630495 0.750227 0.538142
0.742243 0.753301 0.541277
0.850316 0.756368 0.544409
0.953397 0.759428 0.547539
0.080900 0.850978 0.532936
0.188728 0.854013 0.536153
0.299865 0.857009 0.539330
0.413425 0.859986 0.542489
0.527917 0.862948 0.545636
0.641710 0.865900 0.548775
0.753187 0.868842 0.551909
0.860851 0.871775 0.555040
0.963406 0.874702 0.558168
0.091115 0.961479 0.543560
0.199430 0.964344 0.546775
0.310915 0.967170 0.549951
0.424671 0.969977 0.553108
0.539196 0.972770 0.556254
0.652860 0.975551 0.559392
0.764054 0.978322 0.562524
0.871297 0.981084 0.565653
0.973317 0.983838 0.568779
0.010664 0.016527 0.571695
0.114773 0.019352 0.574907
0.223099 0.022149 0.578078
0.334872 0.024937 0.581231
0.448690 0.027720 0.584371
0.562952 0.030501 0.587501
0.676006 0.033282 0.590626
0.786258 0.036063 0.593745
0.892266 0.038846 0.596862
0.020903 0.130123 0.582734
0.125597 0.133132 0.585942
0.234380 0.136111 0.589110
0.346464 0.139078 0.592258
0.460430 0.142039 0.595394
0.574671 0.144996 0.598521
0.687537 0.147953 0.601641
0.797446 0.150908 0.604756
0.902975 0.153864 0.607869
0.031051 0.248009 0.593563
0.136310 0.251158 0.596767
0.245530 0.254273 0.599930
0.357905 0.257374 0.603074
0.472000 0.260469 0.606206
0.586204 0.263558 0.609328
0.698869 0.266644 0.612444
0.808425 0.269729 0.615555
0.913471 0.272812 0.618663
0.041198 0.369373 0.604291
0.147007 0.372610 0.607490
0.256647 0.375811 0.610648
0.369296 0.378997 0.613788
0.483504 0.382173 0.616915
0.597654 0.385344 0.620033
0.710104 0.388509 0.623144
0.819297 0.391672 0.626250
0.923852 0.394832 0.629354
0.051361 0.492452 0.614947
0.157706 0.495721 0.618141
0.267752 0.498953 0.621295
0.380657 0.502168 0.624430
0.494961 0.505371 0.627552
0.609042 0.508568 0.630665
0.721263 0.511758 0.633771
0.830081 0.514943 0.636872
0.934136 0.518124 0.639971
0.061542 0.615246 0.625549
0.168411 0.618490 0.628738
0.278847 0.621694 0.631887
0.391993 0.624881 0.635016
0.506377 0.628056 0.638133
0.620373 0.631222 0.641241
0.732351 0.634380 0.644342
0.840782 0.637532 0.647438
0.944328 0.640679 0.650531
0.071739 0.735727 0.636107
0.179119 0.738891 0.639291
0.289931 0.742015 0.642434
0.403303 0.745120 0.645558
0.517750 0.748212 0.648669
0.631646 0.751294 0.651771
0.743367 0.754367 0.654867
0.851399 0.757433 0.657957
0.954427 0.760492 0.661045
0.081950 0.852006 0.646629
0.189828 0.855040 0.649807
0.301001 0.858035 0.652944
0.414583 0.861010 0.656062
0.529078 0.863971 0.659168
0.642859 0.866921 0.662264
0.754308 0.869861 0.665354
0.861929 0.872794 0.668439
0.964430 0.875719 0.671520
0.092170 0.962450 0.657120
0.200533 0.965313 0.660292
0.312054 0.968137 0.663423
0.425829 0.970943 0.666536
0.540357 0.973733 0.669635
0.654007 0.976513 0.672725
0.765171 0.979282 0.675809
0.872370 0.982043 0.678888
0.974335 0.984795 0.681963
0.011670 0.017479 0.684439
0.115837 0.020306 0.687597
0.224208 0.023105 0.690714
0.336013 0.025894 0.693810
0.449845 0.028679 0.696893
0.564106 0.031462 0.699966
0.677142 0.034244 0.703031
0.787362 0.037027 0.706090
0.893323 0.039812 0.709145
0.021915 0.131137 0.695287
0.126666 0.134148 0.698436
0.235493 0.137128 0.701545
0.347607 0.140096 0.704633
0.461587 0.143059 0.707707
0.575824 0.146018 0.710771
0.688671 0.148975 0.713828
0.798545 0.151932 0.716878
0.904026 0.154890 0.719925
0.032069 0.249071 0.705912
0.137384 0.252220 0.709053
0.246647 0.255336 0.712152
0.359050 0.258439 0.715232
0.473157 0.261534 0.718297
0.587356 0.264625 0.721353
0.700000 0.267712 0.724400
0.809521 0.270797 0.727442
0.914517 0.273882 0.730480
0.042222 0.370465 0.716422
0.148086 0.373702 0.719554
0.257768 0.376904 0.722644
0.370442 0.380090 0.725715
0.484661 0.383267 0.728771
0.598805 0.386438 0.731818
0.711233 0.389604 0.734857
0.820388 0.392767 0.737889
0.924893 0.395927 0.740918
0.052391 0.493555 0.726848
0.158790 0.496824 0.729970
0.268875 0.500056 0.733051
0.381805 0.503270 0.736112
0.496118 0.506474 0.739160
0.610192 0.509670 0.742197
0.722389 0.512860 0.745226
0.831168 0.516045 0.748250
0.935172 0.519227 0.751270
0.062577 0.616340 0.737205
0.169498 0.619583 0.740317
0.279973 0.622788 0.743389
0.393143 0.625974 0.746441
0.507534 0.629149 0.749479
0.621521 0.632314 0.752506
0.733473 0.635472 0.755526
0.841864 0.638623 0.758541
0.945358 0.641769 0.761551
0.072780 0.736795 0.747504
0.180211 0.739957 0.750607
0.291060 0.743080 0.753669
0.404454 0.746185 0.756711
0.518907 0.749276 0.759739
0.632792 0.752356 0.762757
0.744486 0.755429 0.765767
0.852476 0.758493 0.768772
0.955451 0.761552 0.771772
0.082995 0.853030 0.757754
0.190923 0.856063 0.760846
0.302133 0.859056 0.763898
0.415735 0.862029 0.766930
0.530234 0.864989 0.769949
0.644002 0.867938 0.772957
0.755423 0.870877 0.775957
0.863002 0.873808 0.778952
0.965448 0.876732 0.781942
0.093220 0.963416 0.767959
0.201632 0.966277 0.771042
0.313188 0.969100 0.774083
0.426982 0.971904 0.777105
0.541512 0.974693 0.780113
0.655148 0.977471 0.783111
0.766282 0.980238 0.786102
0.873438 0.982997 0.789086
0.975347 0.985748 0.792066
0.012673 0.018429 0.794194
0.116897 0.021258 0.797253
0.225313 0.024058 0.800271
0.337149 0.026849 0.803268
0.450996 0.029636 0.806250
0.565255 0.032420 0.809222
0.678274 0.035204 0.812184
0.788460 0.037989 0.815140
0.894374 0.040775 0.818091
0.022924 0.132149 0.804697
0.127731 0.135161 0.807743
0.236602 0.138142 0.810748
0.348746 0.141112 0.813733
0.462738 0.144076 0.816702
0.576973 0.147037 0.819661
0.689800 0.149995 0.822611
0.799639 0.152954 0.825555
0.905073 0.155912 0.828493
0.033084 0.250129 0.814969
0.138454 0.253280 0.818002
0.247759 0.256397 0.820994
0.360190 0.259501 0.823966
0.474309 0.262597 0.826923
0.588503 0.265688 0.829869
0.701126 0.268776 0.832807
0.810611 0.271863 0.835737
0.915559 0.274948 0.838663
0.043243 0.371553 0.825115
0.149161 0.374791 0.828135
0.258883 0.377993 0.831114
0.371585 0.381180 0.834073
0.485813 0.384358 0.837017
0.599951 0.387529 0.839951
0.712356 0.390696 0.842875
0.821474 0.393859 0.845793
0.925929 0.397020 0.848706
0.053416 0.494654 0.835164
0.159869 0.497924 0.838171
0.269994 0.501155 0.841138
0.382949 0.504370 0.844083
0.497271 0.507574 0.847015
0.611336 0.510770 0.849935
0.723509 0.513960 0.852847
0.832249 0.517145 0.855752
0.936202 0.520326 0.858651
0.063608 0.617431 0.845134
0.170581 0.620674 0.848128
0.281095 0.623878 0.851081
0.394288 0.627064 0.854013
0.508686 0.630238 0.856931
0.622663 0.633402 0.859838
0.734590 0.636559 0.862737
0.842941 0.639710 0.865629
0.946382 0.642856 0.868515
0.073816 0.737859 0.855035
0.181298 0.741020 0.858015
0.292184 0.744143 0.860954
0.405600 0.747246 0.863873
0.520058 0.750336 0.866778
0.633932 0.753416 0.869672
0.745599 0.756487 0.872557
0.853548 0.759550 0.875436
0.956469 0.762608 0.878309
0.084036 0.854051 0.864874
0.192014 0.857081 0.867840
0.303260 0.860073 0.870766
0.416882 0.863046 0.873672
0.531385 0.866004 0.876563
0.645140 0.868951 0.879443
0.756533 0.871889 0.882315
0.864069 0.874819 0.885180
0.966461 0.877741 0.888040
0.094265 0.964379 0.874658
0.202727 0.967238 0.877611
0.314317 0.970060 0.880523
0.428130 0.972862 0.883414
0.542662 0.975649 0.886292
0.656283 0.978425 0.889158
0.767388 0.981191 0.892017
0.874500 0.983948 0.894868
0.976353 0.986697 0.897715
0.013671 0.019377 0.899573
0.117953 0.022207 0.902495
0.226414 0.025010 0.905375
0.338280 0.027802 0.908234
0.452142 0.030590 0.911079
0.566400 0.033377 0.913911
0.679400 0.036162 0.916734
0.789553 0.038949 0.919550
0.895421 0.041737 0.922360
0.023929 0.133159 0.909598
0.128792 0.136172 0.912503
0.237707 0.139155 0.915367
0.349879 0.142126 0.918210
0.463885 0.145091 0.921038
0.578116 0.148053 0.923855
0.690924 0.151013 0.926662
0.800729 0.153973 0.929462
0.906114 0.156933 0.932256
0.034095 0.251186 0.919388
0.139520 0.254337 0.922276
0.248867 0.257455 0.925124
0.361326 0.260560 0.927951
0.475456 0.263657 0.930764
0.589645 0.266750 0.933564
0.702247 0.269839 0.936355
0.811696 0.272926 0.939139
0.916595 0.276012 0.941917
0.044259 0.372639 0.929044
0.150231 0.375878 0.931916
0.259995 0.379080 0.934748
0.372722 0.382267 0.937559
0.486961 0.385446 0.940355
0.601091 0.388617 0.943139
0.713474 0.391784 0.945915
0.822555 0.394948 0.948683
0.926959 0.398110 0.951445
0.054438 0.495751 0.938595
0.160943 0.499020 0.941450
0.271108 0.502252 0.944266
0.384088 0.505466 0.947061
0.498418 0.508670 0.949841
0.612475 0.511866 0.952609
0.724624 0.515056 0.955369
0.833326 0.518241 0.958121
0.937227 0.521422 0.960867
0.064635 0.618519 0.948057
0.171660 0.621761 0.950896
0.282212 0.624965 0.953695
0.395428 0.628150 0.956474
0.509833 0.631324 0.959238
0.623801 0.634488 0.961990
0.735702 0.637644 0.964734
0.844013 0.640795 0.967470
0.947402 0.643940 0.970200
0.074848 0.738920 0.957441
0.182381 0.742080 0.960264
0.293304 0.745202 0.963047
0.406741 0.748304 0.965809
0.521205 0.751393 0.968556
0.635068 0.754472 0.971293
0.746707 0.757542 0.974020
0.854615 0.760605 0.976740
0.957483 0.763661 0.979454
0.085073 0.855068 0.966756
0.193101 0.858097 0.969561
0.304382 0.861088 0.972328
0.418024 0.864059 0.975074
0.532531 0.867016 0.977805
0.646273 0.869962 0.980525
0.757637 0.872898 0.983235
0.865131 0.875826 0.985939
0.967468 0.878747 0.988637
0.095307 0.965339 0.976007
0.203817 0.968197 0.978795
0.315441 0.971016 0.981545
0.429273 0.973816 0.984274
0.543807 0.976602 0.986989
0.657414 0.979377 0.989692
0.768488 0.982141 0.992387
0.875556 0.984896 0.995074
0.977355 0.987644 0.997756
