render-worker/luts/luxury.cube
# Generated by render-worker/scripts/generate-luts.mjs
# Do not hand-edit — re-run the script and let math win.
TITLE "EstateMotion Luxury — Kodak 2383 emulation (warm, filmic)"
LUT_3D_SIZE 17
DOMAIN_MIN 0.0 0.0 0.0
DOMAIN_MAX 1.0 1.0 1.0
0.011071 0.012436 0.015692
0.068021 0.012823 0.015959
0.126615 0.013220 0.016234
0.187113 0.013630 0.016518
0.249327 0.014052 0.016810
0.312939 0.014484 0.017109
0.377559 0.014922 0.017412
0.442750 0.015364 0.017718
0.508052 0.015807 0.018025
0.572995 0.016247 0.018330
0.637118 0.016682 0.018631
0.699981 0.017108 0.018926
0.761178 0.017523 0.019214
0.820348 0.017925 0.019491
0.877183 0.018310 0.019758
0.931429 0.018678 0.020013
0.975213 0.018975 0.020218
0.012613 0.068744 0.016568
0.069563 0.069130 0.016836
0.128157 0.069527 0.017111
0.188655 0.069938 0.017395
0.250869 0.070360 0.017687
0.314481 0.070791 0.017986
0.379101 0.071229 0.018289
0.444292 0.071671 0.018595
0.509594 0.072114 0.018902
0.574537 0.072555 0.019207
0.638660 0.072990 0.019508
0.701523 0.073416 0.019803
0.762720 0.073831 0.020090
0.821891 0.074232 0.020368
0.878725 0.074618 0.020635
0.932971 0.074986 0.020889
0.976756 0.075282 0.021095
0.014204 0.126848 0.017473
0.071154 0.127234 0.017740
0.129749 0.127632 0.018015
0.190246 0.128042 0.018299
0.252460 0.128464 0.018591
0.316073 0.128895 0.018890
0.380692 0.129333 0.019194
0.445883 0.129776 0.019500
0.511185 0.130218 0.019806
0.576129 0.130659 0.020111
0.640252 0.131094 0.020412
0.703115 0.131520 0.020707
0.764312 0.131935 0.020995
0.823482 0.132336 0.021272
0.880316 0.132722 0.021539
0.934562 0.133090 0.021794
0.978347 0.133387 0.022000
0.015851 0.186955 0.018409
0.072800 0.187341 0.018676
0.131395 0.187739 0.018951
0.191892 0.188149 0.019235
0.254107 0.188571 0.019527
0.317719 0.189002 0.019826
0.382338 0.189441 0.020129
0.447529 0.189883 0.020435
0.512831 0.190326 0.020742
0.577775 0.190766 0.021047
0.641898 0.191201 0.021348
0.704761 0.191627 0.021643
0.765958 0.192042 0.021930
0.825128 0.192444 0.022208
0.881962 0.192829 0.022475
0.936209 0.193197 0.022730
0.979993 0.193494 0.022935
0.017546 0.248871 0.019372
0.074496 0.249257 0.019640
0.133090 0.249654 0.019915
0.193588 0.250064 0.020199
0.255802 0.250486 0.020491
0.319415 0.250918 0.020790
0.384034 0.251356 0.021093
0.449225 0.251798 0.021399
0.514527 0.252241 0.021706
0.579471 0.252681 0.022011
0.643594 0.253116 0.022312
0.706457 0.253543 0.022607
0.767654 0.253958 0.022894
0.826824 0.254359 0.023172
0.883658 0.254744 0.023439
0.937904 0.255112 0.023694
0.981689 0.255409 0.023899
0.019283 0.312280 0.020360
0.076233 0.312667 0.020627
0.134827 0.313064 0.020902
0.195325 0.313474 0.021186
0.257539 0.313896 0.021478
0.321151 0.314328 0.021777
0.385771 0.314766 0.022080
0.450962 0.315208 0.022386
0.516264 0.315651 0.022693
0.581207 0.316091 0.022998
0.645330 0.316526 0.023299
0.708193 0.316952 0.023594
0.769390 0.317367 0.023881
0.828561 0.317769 0.024159
0.885395 0.318154 0.024426
0.939641 0.318522 0.024681
0.983426 0.318819 0.024886
0.021050 0.376803 0.021364
0.078000 0.377189 0.021632
0.136594 0.377586 0.021907
0.197092 0.377997 0.022191
0.259306 0.378419 0.022483
0.322918 0.378850 0.022781
0.387538 0.379288 0.023085
0.452729 0.379730 0.023391
0.518031 0.380173 0.023698
0.582974 0.380614 0.024002
0.647098 0.381049 0.024303
0.709960 0.381475 0.024599
0.771158 0.381890 0.024886
0.830328 0.382291 0.025164
0.887162 0.382677 0.025431
0.941408 0.383044 0.025685
0.985193 0.383341 0.025891
0.022836 0.442012 0.022379
0.079786 0.442398 0.022647
0.138380 0.442795 0.022922
0.198878 0.443206 0.023206
0.261092 0.443627 0.023498
0.324704 0.444059 0.023797
0.389324 0.444497 0.024100
0.454515 0.444939 0.024406
0.519817 0.445382 0.024713
0.584760 0.445823 0.025018
0.648884 0.446257 0.025319
0.711746 0.446684 0.025614
0.772943 0.447099 0.025901
0.832114 0.447500 0.026179
0.888948 0.447885 0.026446
0.943194 0.448253 0.026700
0.986979 0.448550 0.026906
0.024628 0.507454 0.023398
0.081578 0.507840 0.023666
0.140173 0.508238 0.023941
0.200670 0.508648 0.024225
0.262885 0.509070 0.024517
0.326497 0.509501 0.024815
0.391116 0.509940 0.025119
0.456307 0.510382 0.025425
0.521609 0.510825 0.025731
0.586553 0.511265 0.026036
0.650676 0.511700 0.026337
0.713539 0.512126 0.026633
0.774736 0.512541 0.026920
0.833906 0.512943 0.027198
0.890740 0.513328 0.027465
0.944986 0.513696 0.027719
0.988771 0.513993 0.027925
0.026414 0.572666 0.024413
0.083364 0.573053 0.024681
0.141959 0.573450 0.024956
0.202456 0.573860 0.025240
0.264671 0.574282 0.025532
0.328283 0.574714 0.025831
0.392902 0.575152 0.026134
0.458093 0.575594 0.026440
0.523395 0.576037 0.026747
0.588339 0.576477 0.027052
0.652462 0.576912 0.027353
0.715325 0.577339 0.027648
0.776522 0.577754 0.027935
0.835692 0.578155 0.028213
0.892526 0.578540 0.028480
0.946772 0.578908 0.028734
0.990557 0.579205 0.028940
0.028182 0.637189 0.025418
0.085131 0.637575 0.025685
0.143726 0.637973 0.025960
0.204224 0.638383 0.026244
0.266438 0.638805 0.026536
0.330050 0.639236 0.026835
0.394669 0.639674 0.027139
0.459861 0.640116 0.027445
0.525162 0.640559 0.027751
0.590106 0.641000 0.028056
0.654229 0.641435 0.028357
0.717092 0.641861 0.028652
0.778289 0.642276 0.028940
0.837459 0.642677 0.029217
0.894293 0.643063 0.029484
0.948540 0.643431 0.029739
0.992324 0.643728 0.029945
0.029918 0.700580 0.026405
0.086868 0.700966 0.026672
0.145462 0.701364 0.026947
0.205960 0.701774 0.027231
0.268174 0.702196 0.027523
0.331786 0.702627 0.027822
0.396406 0.703065 0.028125
0.461597 0.703508 0.028431
0.526899 0.703950 0.028738
0.591842 0.704391 0.029043
0.655965 0.704826 0.029344
0.718828 0.705252 0.029639
0.780025 0.705667 0.029927
0.839195 0.706068 0.030204
0.896030 0.706454 0.030471
0.950276 0.706822 0.030726
0.994060 0.707119 0.030931
0.031612 0.762429 0.027368
0.088561 0.762815 0.027635
0.147156 0.763212 0.027910
0.207654 0.763622 0.028194
0.269868 0.764044 0.028486
0.333480 0.764476 0.028785
0.398099 0.764914 0.029088
0.463291 0.765356 0.029394
0.528593 0.765799 0.029701
0.593536 0.766239 0.030006
0.657659 0.766674 0.030307
0.720522 0.767101 0.030602
0.781719 0.767516 0.030889
0.840889 0.767917 0.031167
0.897724 0.768302 0.031434
0.951970 0.768670 0.031689
0.995754 0.768967 0.031894
0.033253 0.822365 0.028301
0.090203 0.822751 0.028568
0.148797 0.823148 0.028843
0.209295 0.823559 0.029127
0.271509 0.823981 0.029419
0.335122 0.824412 0.029718
0.399741 0.824850 0.030021
0.464932 0.825292 0.030327
0.530234 0.825735 0.030634
0.595178 0.826176 0.030939
0.659301 0.826611 0.031240
0.722164 0.827037 0.031535
0.783361 0.827452 0.031822
0.842531 0.827853 0.032100
0.899365 0.828239 0.032367
0.953611 0.828607 0.032622
0.997396 0.828903 0.032827
0.034834 0.880068 0.029199
0.091783 0.880454 0.029466
0.150378 0.880852 0.029741
0.210876 0.881262 0.030025
0.273090 0.881684 0.030318
0.336702 0.882115 0.030616
0.401321 0.882553 0.030920
0.466513 0.882995 0.031226
0.531814 0.883438 0.031532
0.596758 0.883879 0.031837
0.660881 0.884314 0.032138
0.723744 0.884740 0.032433
0.784941 0.885155 0.032721
0.844111 0.885556 0.032999
0.900945 0.885942 0.033265
0.955192 0.886310 0.033520
0.998976 0.886607 0.033726
0.036346 0.935271 0.030058
0.093295 0.935657 0.030326
0.151890 0.936055 0.030601
0.212387 0.936465 0.030885
0.274602 0.936887 0.031177
0.338214 0.937318 0.031476
0.402833 0.937757 0.031779
0.468024 0.938199 0.032085
0.533326 0.938642 0.032392
0.598270 0.939082 0.032697
0.662393 0.939517 0.032998
0.725256 0.939943 0.033293
0.786453 0.940358 0.033580
0.845623 0.940760 0.033858
0.902457 0.941145 0.034125
0.956703 0.941513 0.034380
1.000000 0.941810 0.034585
0.037783 0.987765 0.030876
0.094733 0.988151 0.031143
0.153327 0.988549 0.031418
0.213825 0.988959 0.031702
0.276039 0.989381 0.031994
0.339652 0.989812 0.032293
0.404271 0.990250 0.032596
0.469462 0.990693 0.032902
0.534764 0.991135 0.033209
0.599708 0.991576 0.033514
0.663831 0.992011 0.033815
0.726694 0.992437 0.034110
0.787891 0.992852 0.034397
0.847061 0.993253 0.034675
0.903895 0.993639 0.034942
0.958141 0.994007 0.035197
1.000000 0.994304 0.035402
0.011222 0.012560 0.069204
0.068172 0.012947 0.069472
0.126766 0.013344 0.069747
0.187264 0.013754 0.070031
0.249478 0.014176 0.070323
0.313090 0.014608 0.070622
0.377710 0.015046 0.070925
0.442901 0.015488 0.071231
0.508203 0.015931 0.071538
0.573146 0.016371 0.071843
0.637269 0.016806 0.072144
0.700132 0.017232 0.072439
0.761329 0.017647 0.072726
0.820500 0.018049 0.073004
0.877334 0.018434 0.073271
0.931580 0.018802 0.073526
0.975364 0.019099 0.073731
0.012764 0.068868 0.070081
0.069714 0.069254 0.070348
0.128308 0.069652 0.070624
0.188806 0.070062 0.070908
0.251020 0.070484 0.071200
0.314632 0.070915 0.071498
0.379252 0.071353 0.071802
0.444443 0.071796 0.072108
0.509745 0.072238 0.072414
0.574688 0.072679 0.072719
0.638812 0.073114 0.073020
0.701674 0.073540 0.073316
0.762872 0.073955 0.073603
0.822042 0.074356 0.073881
0.878876 0.074742 0.074148
0.933122 0.075110 0.074402
0.976907 0.075407 0.074608
0.014355 0.126972 0.070986
0.071305 0.127358 0.071253
0.129900 0.127756 0.071528
0.190397 0.128166 0.071812
0.252612 0.128588 0.072104
0.316224 0.129019 0.072403
0.380843 0.129458 0.072706
0.446034 0.129900 0.073012
0.511336 0.130343 0.073319
0.576280 0.130783 0.073624
0.640403 0.131218 0.073925
0.703266 0.131644 0.074220
0.764463 0.132059 0.074507
0.823633 0.132460 0.074785
0.880467 0.132846 0.075052
0.934713 0.133214 0.075307
0.978498 0.133511 0.075512
0.016002 0.187079 0.071921
0.072951 0.187466 0.072189
0.131546 0.187863 0.072464
0.192044 0.188273 0.072748
0.254258 0.188695 0.073040
0.317870 0.189126 0.073339
0.382489 0.189565 0.073642
0.447681 0.190007 0.073948
0.512983 0.190450 0.074255
0.577926 0.190890 0.074560
0.642049 0.191325 0.074861
0.704912 0.191751 0.075156
0.766109 0.192166 0.075443
0.825279 0.192568 0.075721
0.882114 0.192953 0.075988
0.936360 0.193321 0.076243
0.980144 0.193618 0.076448
0.017697 0.248995 0.072885
0.074647 0.249381 0.073153
0.133242 0.249778 0.073428
0.193739 0.250189 0.073712
0.255954 0.250610 0.074004
0.319566 0.251042 0.074303
0.384185 0.251480 0.074606
0.449376 0.251922 0.074912
0.514678 0.252365 0.075219
0.579622 0.252806 0.075524
0.643745 0.253240 0.075825
0.706608 0.253667 0.076120
0.767805 0.254082 0.076407
0.826975 0.254483 0.076685
0.883809 0.254868 0.076952
0.938055 0.255236 0.077206
0.981840 0.255533 0.077412
0.019434 0.312404 0.073872
0.076384 0.312791 0.074140
0.134978 0.313188 0.074415
0.195476 0.313598 0.074699
0.257690 0.314020 0.074991
0.321302 0.314452 0.075290
0.385922 0.314890 0.075593
0.451113 0.315332 0.075899
0.516415 0.315775 0.076206
0.581358 0.316215 0.076511
0.645482 0.316650 0.076812
0.708344 0.317077 0.077107
0.769542 0.317492 0.077394
0.828712 0.317893 0.077672
0.885546 0.318278 0.077939
0.939792 0.318646 0.078194
0.983577 0.318943 0.078399
0.021201 0.376927 0.074877
0.078151 0.377313 0.075144
0.136745 0.377710 0.075419
0.197243 0.378121 0.075703
0.259457 0.378543 0.075996
0.323070 0.378974 0.076294
0.387689 0.379412 0.076598
0.452880 0.379854 0.076904
0.518182 0.380297 0.077210
0.583126 0.380738 0.077515
0.647249 0.381173 0.077816
0.710112 0.381599 0.078111
0.771309 0.382014 0.078399
0.830479 0.382415 0.078677
0.887313 0.382801 0.078943
0.941559 0.383169 0.079198
0.985344 0.383465 0.079404
0.022987 0.442136 0.075892
0.079937 0.442522 0.076159
0.138531 0.442919 0.076435
0.199029 0.443330 0.076719
0.261243 0.443752 0.077011
0.324856 0.444183 0.077309
0.389475 0.444621 0.077613
0.454666 0.445063 0.077919
0.519968 0.445506 0.078225
0.584911 0.445947 0.078530
0.649035 0.446381 0.078831
0.711898 0.446808 0.079127
0.773095 0.447223 0.079414
0.832265 0.447624 0.079692
0.889099 0.448010 0.079959
0.943345 0.448377 0.080213
0.987130 0.448674 0.080419
0.024780 0.507578 0.076911
0.081729 0.507964 0.077178
0.140324 0.508362 0.077453
0.200821 0.508772 0.077737
0.263036 0.509194 0.078030
0.326648 0.509625 0.078328
0.391267 0.510064 0.078632
0.456458 0.510506 0.078938
0.521760 0.510949 0.079244
0.586704 0.511389 0.079549
0.650827 0.511824 0.079850
0.713690 0.512250 0.080145
0.774887 0.512665 0.080433
0.834057 0.513067 0.080710
0.890891 0.513452 0.080977
0.945137 0.513820 0.081232
0.988922 0.514117 0.081438
0.026566 0.572791 0.077926
0.083515 0.573177 0.078193
0.142110 0.573574 0.078469
0.202607 0.573984 0.078753
0.264822 0.574406 0.079045
0.328434 0.574838 0.079343
0.393053 0.575276 0.079647
0.458244 0.575718 0.079953
0.523546 0.576161 0.080259
0.588490 0.576601 0.080564
0.652613 0.577036 0.080865
0.715476 0.577463 0.081161
0.776673 0.577878 0.081448
0.835843 0.578279 0.081726
0.892677 0.578664 0.081993
0.946924 0.579032 0.082247
0.990708 0.579329 0.082453
0.028333 0.637313 0.078931
0.085283 0.637699 0.079198
0.143877 0.638097 0.079473
0.204375 0.638507 0.079757
0.266589 0.638929 0.080049
0.330201 0.639360 0.080348
0.394820 0.639798 0.080651
0.460012 0.640241 0.080957
0.525314 0.640683 0.081264
0.590257 0.641124 0.081569
0.654380 0.641559 0.081870
0.717243 0.641985 0.082165
0.778440 0.642400 0.082452
0.837610 0.642801 0.082730
0.894445 0.643187 0.082997
0.948691 0.643555 0.083252
0.992475 0.643852 0.083457
0.030069 0.700704 0.079917
0.087019 0.701090 0.080185
0.145613 0.701488 0.080460
0.206111 0.701898 0.080744
0.268325 0.702320 0.081036
0.331937 0.702751 0.081335
0.396557 0.703189 0.081638
0.461748 0.703632 0.081944
0.527050 0.704074 0.082251
0.591993 0.704515 0.082556
0.656116 0.704950 0.082857
0.718979 0.705376 0.083152
0.780176 0.705791 0.083439
0.839346 0.706192 0.083717
0.896181 0.706578 0.083984
0.950427 0.706946 0.084239
0.994211 0.707243 0.084444
0.031763 0.762553 0.080880
0.088713 0.762939 0.081148
0.147307 0.763336 0.081423
0.207805 0.763747 0.081707
0.270019 0.764168 0.081999
0.333631 0.764600 0.082298
0.398251 0.765038 0.082601
0.463442 0.765480 0.082907
0.528744 0.765923 0.083214
0.593687 0.766364 0.083519
0.657810 0.766798 0.083820
0.720673 0.767225 0.084115
0.781870 0.767640 0.084402
0.841040 0.768041 0.084680
0.897875 0.768426 0.084947
0.952121 0.768794 0.085201
0.995905 0.769091 0.085407
0.033404 0.822489 0.081813
0.090354 0.822875 0.082081
0.148949 0.823273 0.082356
0.209446 0.823683 0.082640
0.271660 0.824105 0.082932
0.335273 0.824536 0.083231
0.399892 0.824974 0.083534
0.465083 0.825417 0.083840
0.530385 0.825859 0.084147
0.595329 0.826300 0.084452
0.659452 0.826735 0.084753
0.722315 0.827161 0.085048
0.783512 0.827576 0.085335
0.842682 0.827977 0.085613
0.899516 0.828363 0.085880
0.953762 0.828731 0.086135
0.997547 0.829028 0.086340
0.034985 0.880192 0.082712
0.091935 0.880578 0.082979
0.150529 0.880976 0.083254
0.211027 0.881386 0.083538
0.273241 0.881808 0.083830
0.336853 0.882239 0.084129
0.401472 0.882677 0.084432
0.466664 0.883120 0.084738
0.531966 0.883562 0.085045
0.596909 0.884003 0.085350
0.661032 0.884438 0.085651
0.723895 0.884864 0.085946
0.785092 0.885279 0.086234
0.844262 0.885680 0.086511
0.901097 0.886066 0.086778
0.955343 0.886434 0.087033
0.999127 0.886731 0.087238
0.036497 0.935395 0.083571
0.093446 0.935781 0.083838
0.152041 0.936179 0.084114
0.212539 0.936589 0.084398
0.274753 0.937011 0.084690
0.338365 0.937442 0.084988
0.402984 0.937881 0.085292
0.468176 0.938323 0.085598
0.533477 0.938766 0.085904
0.598421 0.939206 0.086209
0.662544 0.939641 0.086510
0.725407 0.940067 0.086806
0.786604 0.940482 0.087093
0.845774 0.940884 0.087371
0.902608 0.941269 0.087638
0.956855 0.941637 0.087892
1.000000 0.941934 0.088098
0.037934 0.987889 0.084388
0.094884 0.988275 0.084656
0.153479 0.988673 0.084931
0.213976 0.989083 0.085215
0.276190 0.989505 0.085507
0.339803 0.989936 0.085806
0.404422 0.990374 0.086109
0.469613 0.990817 0.086415
0.534915 0.991259 0.086722
0.599859 0.991700 0.087027
0.663982 0.992135 0.087328
0.726845 0.992561 0.087623
0.788042 0.992976 0.087910
0.847212 0.993377 0.088188
0.904046 0.993763 0.088455
0.958292 0.994131 0.088709
1.000000 0.994428 0.088915
0.011378 0.012689 0.124630
0.068328 0.013075 0.124897
0.126923 0.013472 0.125172
0.187420 0.013883 0.125456
0.249635 0.014305 0.125748
0.313247 0.014736 0.126047
0.377866 0.015174 0.126350
0.443057 0.015616 0.126656
0.508359 0.016059 0.126963
0.573303 0.016500 0.127268
0.637426 0.016935 0.127569
0.700289 0.017361 0.127864
0.761486 0.017776 0.128151
0.820656 0.018177 0.128429
0.877490 0.018563 0.128696
0.931736 0.018931 0.128951
0.975521 0.019227 0.129156
0.012921 0.068996 0.125506
0.069870 0.069383 0.125774
0.128465 0.069780 0.126049
0.188963 0.070190 0.126333
0.251177 0.070612 0.126625
0.314789 0.071044 0.126923
0.379408 0.071482 0.127227
0.444600 0.071924 0.127533
0.509901 0.072367 0.127839
0.574845 0.072807 0.128144
0.638968 0.073242 0.128445
0.701831 0.073669 0.128741
0.763028 0.074084 0.129028
0.822198 0.074485 0.129306
0.879032 0.074870 0.129573
0.933279 0.075238 0.129827
0.977063 0.075535 0.130033
0.014512 0.127101 0.126411
0.071462 0.127487 0.126678
0.130056 0.127884 0.126953
0.190554 0.128294 0.127237
0.252768 0.128716 0.127529
0.316380 0.129148 0.127828
0.381000 0.129586 0.128131
0.446191 0.130028 0.128437
0.511493 0.130471 0.128744
0.576436 0.130911 0.129049
0.640559 0.131346 0.129350
0.703422 0.131773 0.129645
0.764619 0.132188 0.129933
0.823790 0.132589 0.130210
0.880624 0.132974 0.130477
0.934870 0.133342 0.130732
0.978655 0.133639 0.130937
0.016158 0.187208 0.127346
0.073108 0.187594 0.127614
0.131702 0.187991 0.127889
0.192200 0.188402 0.128173
0.254414 0.188824 0.128465
0.318027 0.189255 0.128764
0.382646 0.189693 0.129067
0.447837 0.190135 0.129373
0.513139 0.190578 0.129680
0.578082 0.191019 0.129985
0.642206 0.191454 0.130286
0.705069 0.191880 0.130581
0.766266 0.192295 0.130868
0.825436 0.192696 0.131146
0.882270 0.193082 0.131413
0.936516 0.193449 0.131668
0.980301 0.193746 0.131873
0.017854 0.249123 0.128310
0.074804 0.249509 0.128578
0.133398 0.249907 0.128853
0.193896 0.250317 0.129137
0.256110 0.250739 0.129429
0.319722 0.251170 0.129728
0.384342 0.251609 0.130031
0.449533 0.252051 0.130337
0.514835 0.252494 0.130644
0.579778 0.252934 0.130949
0.643901 0.253369 0.131250
0.706764 0.253795 0.131545
0.767961 0.254210 0.131832
0.827132 0.254612 0.132110
0.883966 0.254997 0.132377
0.938212 0.255365 0.132631
0.981996 0.255662 0.132837
0.019591 0.312533 0.129297
0.076540 0.312919 0.129565
0.135135 0.313317 0.129840
0.195633 0.313727 0.130124
0.257847 0.314149 0.130416
0.321459 0.314580 0.130715
0.386078 0.315018 0.131018
0.451270 0.315461 0.131324
0.516571 0.315903 0.131631
0.581515 0.316344 0.131936
0.645638 0.316779 0.132237
0.708501 0.317205 0.132532
0.769698 0.317620 0.132819
0.828868 0.318021 0.133097
0.885702 0.318407 0.133364
0.939949 0.318775 0.133619
0.983733 0.319072 0.133824
0.021358 0.377055 0.130302
0.078308 0.377442 0.130569
0.136902 0.377839 0.130844
0.197400 0.378249 0.131129
0.259614 0.378671 0.131421
0.323226 0.379103 0.131719
0.387846 0.379541 0.132023
0.453037 0.379983 0.132329
0.518339 0.380426 0.132635
0.583282 0.380866 0.132940
0.647405 0.381301 0.133241
0.710268 0.381727 0.133536
0.771465 0.382142 0.133824
0.830635 0.382544 0.134102
0.887470 0.382929 0.134368
0.941716 0.383297 0.134623
0.985500 0.383594 0.134829
0.023144 0.442264 0.131317
0.080094 0.442650 0.131585
0.138688 0.443048 0.131860
0.199186 0.443458 0.132144
0.261400 0.443880 0.132436
0.325012 0.444311 0.132734
0.389631 0.444750 0.133038
0.454823 0.445192 0.133344
0.520125 0.445635 0.133651
0.585068 0.446075 0.133955
0.649191 0.446510 0.134256
0.712054 0.446936 0.134552
0.773251 0.447351 0.134839
0.832421 0.447753 0.135117
0.889256 0.448138 0.135384
0.943502 0.448506 0.135638
0.987286 0.448803 0.135844
0.024936 0.507707 0.132336
0.081886 0.508093 0.132603
0.140480 0.508490 0.132878
0.200978 0.508901 0.133162
0.263192 0.509323 0.133455
0.326804 0.509754 0.133753
0.391424 0.510192 0.134057
0.456615 0.510634 0.134363
0.521917 0.511077 0.134669
0.586860 0.511518 0.134974
0.650984 0.511952 0.135275
0.713846 0.512379 0.135570
0.775043 0.512794 0.135858
0.834214 0.513195 0.136136
0.891048 0.513581 0.136402
0.945294 0.513948 0.136657
0.989079 0.514245 0.136863
0.026722 0.572919 0.133351
0.083672 0.573305 0.133619
0.142266 0.573703 0.133894
0.202764 0.574113 0.134178
0.264978 0.574535 0.134470
0.328590 0.574966 0.134768
0.393210 0.575405 0.135072
0.458401 0.575847 0.135378
0.523703 0.576289 0.135685
0.588646 0.576730 0.135989
0.652770 0.577165 0.136291
0.715632 0.577591 0.136586
0.776830 0.578006 0.136873
0.836000 0.578407 0.137151
0.892834 0.578793 0.137418
0.947080 0.579161 0.137672
0.990865 0.579458 0.137878
0.028489 0.637442 0.134356
0.085439 0.637828 0.134623
0.144033 0.638225 0.134898
0.204531 0.638635 0.135182
0.266745 0.639057 0.135474
0.330358 0.639489 0.135773
0.394977 0.639927 0.136076
0.460168 0.640369 0.136382
0.525470 0.640812 0.136689
0.590414 0.641252 0.136994
0.654537 0.641687 0.137295
0.717400 0.642114 0.137590
0.778597 0.642529 0.137877
0.837767 0.642930 0.138155
0.894601 0.643315 0.138422
0.948847 0.643683 0.138677
0.992632 0.643980 0.138882
0.030225 0.700833 0.135343
0.087175 0.701219 0.135610
0.145770 0.701616 0.135885
0.206267 0.702026 0.136169
0.268482 0.702448 0.136461
0.332094 0.702880 0.136760
0.396713 0.703318 0.137063
0.461904 0.703760 0.137369
0.527206 0.704203 0.137676
0.592150 0.704643 0.137981
0.656273 0.705078 0.138282
0.719136 0.705505 0.138577
0.780333 0.705920 0.138864
0.839503 0.706321 0.139142
0.896337 0.706706 0.139409
0.950583 0.707074 0.139664
0.994368 0.707371 0.139869
0.031919 0.762681 0.136305
0.088869 0.763067 0.136573
0.147463 0.763465 0.136848
0.207961 0.763875 0.137132
0.270175 0.764297 0.137424
0.333788 0.764728 0.137723
0.398407 0.765167 0.138026
0.463598 0.765609 0.138332
0.528900 0.766052 0.138639
0.593844 0.766492 0.138944
0.657967 0.766927 0.139245
0.720830 0.767353 0.139540
0.782027 0.767768 0.139827
0.841197 0.768170 0.140105
0.898031 0.768555 0.140372
0.952277 0.768923 0.140627
0.996062 0.769220 0.140832
0.033561 0.822617 0.137238
0.090511 0.823004 0.137506
0.149105 0.823401 0.137781
0.209603 0.823811 0.138065
0.271817 0.824233 0.138357
0.335429 0.824665 0.138656
0.400049 0.825103 0.138959
0.465240 0.825545 0.139265
0.530542 0.825988 0.139572
0.595485 0.826428 0.139877
0.659608 0.826863 0.140178
0.722471 0.827290 0.140473
0.783668 0.827705 0.140760
0.842838 0.828106 0.141038
0.899673 0.828491 0.141305
0.953919 0.828859 0.141560
0.997703 0.829156 0.141765
0.035141 0.880321 0.138137
0.092091 0.880707 0.138404
0.150685 0.881104 0.138679
0.211183 0.881514 0.138963
0.273397 0.881936 0.139255
0.337010 0.882368 0.139554
0.401629 0.882806 0.139857
0.466820 0.883248 0.140164
0.532122 0.883691 0.140470
0.597066 0.884131 0.140775
0.661189 0.884566 0.141076
0.724052 0.884993 0.141371
0.785249 0.885408 0.141659
0.844419 0.885809 0.141936
0.901253 0.886194 0.142203
0.955499 0.886562 0.142458
0.999284 0.886859 0.142664
0.036653 0.935524 0.138996
0.093603 0.935910 0.139264
0.152197 0.936307 0.139539
0.212695 0.936718 0.139823
0.274909 0.937140 0.140115
0.338521 0.937571 0.140413
0.403141 0.938009 0.140717
0.468332 0.938451 0.141023
0.533634 0.938894 0.141330
0.598577 0.939335 0.141634
0.662701 0.939769 0.141936
0.725564 0.940196 0.142231
0.786761 0.940611 0.142518
0.845931 0.941012 0.142796
0.902765 0.941398 0.143063
0.957011 0.941765 0.143317
1.000000 0.942062 0.143523
0.038091 0.988018 0.139813
0.095041 0.988404 0.140081
0.153635 0.988801 0.140356
0.214133 0.989211 0.140640
0.276347 0.989633 0.140932
0.339959 0.990065 0.141231
0.404579 0.990503 0.141534
0.469770 0.990945 0.141840
0.535072 0.991388 0.142147
0.600015 0.991828 0.142452
0.664138 0.992263 0.142753
0.727001 0.992690 0.143048
0.788198 0.993105 0.143335
0.847368 0.993506 0.143613
0.904203 0.993891 0.143880
0.958449 0.994259 0.144135
1.000000 0.994556 0.144340
0.011541 0.012822 0.182063
0.068490 0.013208 0.182331
0.127085 0.013606 0.182606
0.187583 0.014016 0.182890
0.249797 0.014438 0.183182
0.313409 0.014869 0.183480
0.378028 0.015307 0.183784
0.443220 0.015750 0.184090
0.508521 0.016192 0.184397
0.573465 0.016633 0.184701
0.637588 0.017068 0.185002
0.700451 0.017494 0.185298
0.761648 0.017909 0.185585
