render-worker/luts/luxury.cube
# Generated by render-worker/scripts/generate-luts.mjs
# Do not hand-edit — re-run the script and let math win.
TITLE "EstateMotion Luxury — Kodak 2383 emulation (warm, filmic)"
LUT_3D_SIZE 9
DOMAIN_MIN 0.0 0.0 0.0
DOMAIN_MAX 1.0 1.0 1.0
0.011071 0.012436 0.015692
0.126615 0.013220 0.016234
0.249327 0.014052 0.016810
0.377559 0.014922 0.017412
0.508052 0.015807 0.018025
0.637118 0.016682 0.018631
0.761178 0.017523 0.019214
0.877183 0.018310 0.019758
0.975213 0.018975 0.020218
0.014204 0.126848 0.017473
0.129749 0.127632 0.018015
0.252460 0.128464 0.018591
0.380692 0.129333 0.019194
0.511185 0.130218 0.019806
0.640252 0.131094 0.020412
0.764312 0.131935 0.020995
0.880316 0.132722 0.021539
0.978347 0.133387 0.022000
0.017546 0.248871 0.019372
0.133090 0.249654 0.019915
0.255802 0.250486 0.020491
0.384034 0.251356 0.021093
0.514527 0.252241 0.021706
0.643594 0.253116 0.022312
0.767654 0.253958 0.022894
0.883658 0.254744 0.023439
0.981689 0.255409 0.023899
0.021050 0.376803 0.021364
0.136594 0.377586 0.021907
0.259306 0.378419 0.022483
0.387538 0.379288 0.023085
0.518031 0.380173 0.023698
0.647098 0.381049 0.024303
0.771158 0.381890 0.024886
0.887162 0.382677 0.025431
0.985193 0.383341 0.025891
0.024628 0.507454 0.023398
0.140173 0.508238 0.023941
0.262885 0.509070 0.024517
0.391116 0.509940 0.025119
0.521609 0.510825 0.025731
0.650676 0.511700 0.026337
0.774736 0.512541 0.026920
0.890740 0.513328 0.027465
0.988771 0.513993 0.027925
0.028182 0.637189 0.025418
0.143726 0.637973 0.025960
0.266438 0.638805 0.026536
0.394669 0.639674 0.027139
0.525162 0.640559 0.027751
0.654229 0.641435 0.028357
0.778289 0.642276 0.028940
0.894293 0.643063 0.029484
0.992324 0.643728 0.029945
0.031612 0.762429 0.027368
0.147156 0.763212 0.027910
0.269868 0.764044 0.028486
0.398099 0.764914 0.029088
0.528593 0.765799 0.029701
0.657659 0.766674 0.030307
0.781719 0.767516 0.030889
0.897724 0.768302 0.031434
0.995754 0.768967 0.031894
0.034834 0.880068 0.029199
0.150378 0.880852 0.029741
0.273090 0.881684 0.030318
0.401321 0.882553 0.030920
0.531814 0.883438 0.031532
0.660881 0.884314 0.032138
0.784941 0.885155 0.032721
0.900945 0.885942 0.033265
0.998976 0.886607 0.033726
0.037783 0.987765 0.030876
0.153327 0.988549 0.031418
0.276039 0.989381 0.031994
0.404271 0.990250 0.032596
0.534764 0.991135 0.033209
0.663831 0.992011 0.033815
0.787891 0.992852 0.034397
0.903895 0.993639 0.034942
1.000000 0.994304 0.035402
0.011378 0.012689 0.124630
0.126923 0.013472 0.125172
0.249635 0.014305 0.125748
0.377866 0.015174 0.126350
0.508359 0.016059 0.126963
0.637426 0.016935 0.127569
0.761486 0.017776 0.128151
0.877490 0.018563 0.128696
0.975521 0.019227 0.129156
0.014512 0.127101 0.126411
0.130056 0.127884 0.126953
0.252768 0.128716 0.127529
0.381000 0.129586 0.128131
0.511493 0.130471 0.128744
0.640559 0.131346 0.129350
0.764619 0.132188 0.129933
0.880624 0.132974 0.130477
0.978655 0.133639 0.130937
0.017854 0.249123 0.128310
0.133398 0.249907 0.128853
0.256110 0.250739 0.129429
0.384342 0.251609 0.130031
0.514835 0.252494 0.130644
0.643901 0.253369 0.131250
0.767961 0.254210 0.131832
0.883966 0.254997 0.132377
0.981996 0.255662 0.132837
0.021358 0.377055 0.130302
0.136902 0.377839 0.130844
0.259614 0.378671 0.131421
0.387846 0.379541 0.132023
0.518339 0.380426 0.132635
0.647405 0.381301 0.133241
0.771465 0.382142 0.133824
0.887470 0.382929 0.134368
0.985500 0.383594 0.134829
0.024936 0.507707 0.132336
0.140480 0.508490 0.132878
0.263192 0.509323 0.133455
0.391424 0.510192 0.134057
0.521917 0.511077 0.134669
0.650984 0.511952 0.135275
0.775043 0.512794 0.135858
0.891048 0.513581 0.136402
0.989079 0.514245 0.136863
0.028489 0.637442 0.134356
0.144033 0.638225 0.134898
0.266745 0.639057 0.135474
0.394977 0.639927 0.136076
0.525470 0.640812 0.136689
0.654537 0.641687 0.137295
0.778597 0.642529 0.137877
0.894601 0.643315 0.138422
0.992632 0.643980 0.138882
0.031919 0.762681 0.136305
0.147463 0.763465 0.136848
0.270175 0.764297 0.137424
0.398407 0.765167 0.138026
0.528900 0.766052 0.138639
0.657967 0.766927 0.139245
0.782027 0.767768 0.139827
0.898031 0.768555 0.140372
0.996062 0.769220 0.140832
0.035141 0.880321 0.138137
0.150685 0.881104 0.138679
0.273397 0.881936 0.139255
0.401629 0.882806 0.139857
0.532122 0.883691 0.140470
0.661189 0.884566 0.141076
0.785249 0.885408 0.141659
0.901253 0.886194 0.142203
0.999284 0.886859 0.142664
0.038091 0.988018 0.139813
0.153635 0.988801 0.140356
0.276347 0.989633 0.140932
0.404579 0.990503 0.141534
0.535072 0.991388 0.142147
0.664138 0.992263 0.142753
0.788198 0.993105 0.143335
0.904203 0.993891 0.143880
1.000000 0.994556 0.144340
0.011708 0.012959 0.241304
0.127252 0.013743 0.241847
0.249964 0.014575 0.242423
0.378196 0.015445 0.243025
0.508689 0.016330 0.243638
0.637755 0.017205 0.244244
0.761815 0.018046 0.244826
0.877820 0.018833 0.245371
0.975850 0.019498 0.245831
0.014841 0.127371 0.243085
0.130386 0.128155 0.243628
0.253098 0.128987 0.244204
0.381329 0.129857 0.244806
0.511822 0.130742 0.245419
0.640889 0.131617 0.246025
0.764949 0.132458 0.246607
0.880953 0.133245 0.247152
0.978984 0.133910 0.247612
0.018183 0.249394 0.244985
0.133728 0.250177 0.245528
0.256440 0.251010 0.246104
0.384671 0.251879 0.246706
0.515164 0.252764 0.247318
0.644231 0.253639 0.247924
0.768291 0.254481 0.248507
0.884295 0.255267 0.249051
0.982326 0.255932 0.249512
0.021687 0.377326 0.246977
0.137231 0.378109 0.247519
0.259943 0.378942 0.248095
0.388175 0.379811 0.248697
0.518668 0.380696 0.249310
0.647735 0.381572 0.249916
0.771795 0.382413 0.250498
0.887799 0.383200 0.251043
0.985830 0.383865 0.251503
0.025266 0.507977 0.249011
0.140810 0.508761 0.249553
0.263522 0.509593 0.250129
0.391753 0.510463 0.250731
0.522246 0.511348 0.251344
0.651313 0.512223 0.251950
0.775373 0.513064 0.252532
0.891377 0.513851 0.253077
0.989408 0.514516 0.253537
0.028819 0.637712 0.251030
0.144363 0.638496 0.251573
0.267075 0.639328 0.252149
0.395306 0.640197 0.252751
0.525800 0.641082 0.253364
0.654866 0.641958 0.253970
0.778926 0.642799 0.254552
0.894931 0.643586 0.255097
0.992961 0.644251 0.255557
0.032249 0.762952 0.252980
0.147793 0.763735 0.253523
0.270505 0.764567 0.254099
0.398737 0.765437 0.254701
0.529230 0.766322 0.255313
0.658296 0.767197 0.255919
0.782356 0.768039 0.256502
0.898361 0.768825 0.257047
0.996391 0.769490 0.257507
0.035471 0.880591 0.254811
0.151015 0.881375 0.255354
0.273727 0.882207 0.255930
0.401958 0.883076 0.256532
0.532452 0.883961 0.257145
0.661518 0.884837 0.257751
0.785578 0.885678 0.258333
0.901583 0.886465 0.258878
0.999613 0.887130 0.259338
0.038420 0.988288 0.256488
0.153965 0.989072 0.257031
0.276676 0.989904 0.257607
0.404908 0.990774 0.258209
0.535401 0.991658 0.258821
0.664468 0.992534 0.259427
0.788528 0.993375 0.260010
0.904532 0.994162 0.260555
1.000000 0.994827 0.261015
0.012054 0.013244 0.363958
0.127598 0.014027 0.364501
0.250310 0.014860 0.365077
0.378542 0.015729 0.365679
0.509035 0.016614 0.366292
0.638102 0.017490 0.366898
0.762162 0.018331 0.367480
0.878166 0.019118 0.368025
0.976197 0.019782 0.368485
0.015188 0.127656 0.365739
0.130732 0.128439 0.366282
0.253444 0.129271 0.366858
0.381676 0.130141 0.367460
0.512169 0.131026 0.368073
0.641235 0.131901 0.368679
0.765295 0.132743 0.369261
0.881300 0.133529 0.369806
0.979330 0.134194 0.370266
0.018530 0.249678 0.367639
0.134074 0.250462 0.368182
0.256786 0.251294 0.368758
0.385018 0.252164 0.369360
0.515511 0.253049 0.369972
0.644577 0.253924 0.370578
0.768637 0.254765 0.371161
0.884642 0.255552 0.371705
0.982672 0.256217 0.372166
0.022034 0.377610 0.369631
0.137578 0.378394 0.370173
0.260290 0.379226 0.370749
0.388521 0.380096 0.371351
0.519014 0.380981 0.371964
0.648081 0.381856 0.372570
0.772141 0.382697 0.373152
0.888145 0.383484 0.373697
0.986176 0.384149 0.374157
0.025612 0.508262 0.371665
0.141156 0.509045 0.372207
0.263868 0.509877 0.372783
0.392100 0.510747 0.373385
0.522593 0.511632 0.373998
0.651659 0.512507 0.374604
0.775719 0.513349 0.375186
0.891724 0.514135 0.375731
0.989754 0.514800 0.376191
0.029165 0.637996 0.373684
0.144709 0.638780 0.374227
0.267421 0.639612 0.374803
0.395653 0.640482 0.375405
0.526146 0.641367 0.376018
0.655213 0.642242 0.376624
0.779273 0.643083 0.377206
0.895277 0.643870 0.377751
0.993308 0.644535 0.378211
0.032595 0.763236 0.375634
0.148139 0.764020 0.376177
0.270851 0.764852 0.376753
0.399083 0.765722 0.377355
0.529576 0.766606 0.377967
0.658643 0.767482 0.378573
0.782703 0.768323 0.379156
0.898707 0.769110 0.379701
0.996738 0.769775 0.380161
0.035817 0.880875 0.377465
0.151361 0.881659 0.378008
0.274073 0.882491 0.378584
0.402305 0.883361 0.379186
0.532798 0.884246 0.379799
0.661865 0.885121 0.380405
0.785924 0.885962 0.380987
0.901929 0.886749 0.381532
0.999960 0.887414 0.381992
0.038767 0.988572 0.379142
0.154311 0.989356 0.379685
0.277023 0.990188 0.380261
0.405254 0.991058 0.380863
0.535748 0.991943 0.381475
0.664814 0.992818 0.382081
0.788874 0.993660 0.382664
0.904879 0.994446 0.383209
1.000000 0.995111 0.383669
0.012409 0.013535 0.489606
0.127953 0.014319 0.490149
0.250665 0.015151 0.490725
0.378897 0.016021 0.491327
0.509390 0.016906 0.491939
0.638457 0.017781 0.492545
0.762517 0.018622 0.493128
0.878521 0.019409 0.493673
0.976552 0.020074 0.494133
0.015543 0.127947 0.491387
0.131087 0.128730 0.491930
0.253799 0.129563 0.492506
0.382030 0.130432 0.493108
0.512523 0.131317 0.493721
0.641590 0.132193 0.494327
0.765650 0.133034 0.494909
0.881654 0.133821 0.495454
0.979685 0.134485 0.495914
0.018885 0.249969 0.493287
0.134429 0.250753 0.493829
0.257141 0.251585 0.494405
0.385372 0.252455 0.495008
0.515865 0.253340 0.495620
0.644932 0.254215 0.496226
0.768992 0.255056 0.496809
0.884996 0.255843 0.497353
0.983027 0.256508 0.497814
0.022388 0.377902 0.495279
0.137933 0.378685 0.495821
0.260645 0.379517 0.496397
0.388876 0.380387 0.496999
0.519369 0.381272 0.497612
0.648436 0.382147 0.498218
0.772496 0.382989 0.498800
0.888500 0.383775 0.499345
0.986531 0.384440 0.499805
0.025967 0.508553 0.497312
0.141511 0.509337 0.497855
0.264223 0.510169 0.498431
0.392454 0.511038 0.499033
0.522948 0.511923 0.499646
0.652014 0.512799 0.500252
0.776074 0.513640 0.500834
0.892079 0.514427 0.501379
0.990109 0.515092 0.501839
0.029520 0.638288 0.499332
0.145064 0.639071 0.499875
0.267776 0.639904 0.500451
0.396008 0.640773 0.501053
0.526501 0.641658 0.501666
0.655567 0.642533 0.502272
0.779627 0.643375 0.502854
0.895632 0.644162 0.503399
0.993662 0.644826 0.503859
0.032950 0.763527 0.501282
0.148494 0.764311 0.501824
0.271206 0.765143 0.502401
0.399438 0.766013 0.503003
0.529931 0.766898 0.503615
0.658997 0.767773 0.504221
0.783057 0.768614 0.504804
0.899062 0.769401 0.505348
0.997093 0.770066 0.505809
0.036172 0.881167 0.503113
0.151716 0.881950 0.503656
0.274428 0.882783 0.504232
0.402660 0.883652 0.504834
0.533153 0.884537 0.505447
0.662219 0.885412 0.506053
0.786279 0.886254 0.506635
0.902284 0.887041 0.507180
1.000000 0.887705 0.507640
0.039122 0.988864 0.504790
0.154666 0.989647 0.505332
0.277378 0.990480 0.505909
0.405609 0.991349 0.506511
0.536102 0.992234 0.507123
0.665169 0.993109 0.507729
0.789229 0.993951 0.508312
0.905233 0.994738 0.508856
1.000000 0.995402 0.509317
0.012763 0.013825 0.614836
0.128307 0.014609 0.615378
0.251019 0.015441 0.615955
0.379250 0.016311 0.616557
0.509744 0.017196 0.617169
0.638810 0.018071 0.617775
0.762870 0.018913 0.618358
0.878875 0.019699 0.618902
0.976905 0.020364 0.619363
0.015896 0.128237 0.616617
0.131440 0.129021 0.617160
0.254152 0.129853 0.617736
0.382384 0.130723 0.618338
0.512877 0.131608 0.618950
0.641944 0.132483 0.619556
0.766004 0.133324 0.620139
0.882008 0.134111 0.620684
0.980039 0.134776 0.621144
0.019238 0.250260 0.618517
0.134782 0.251043 0.619059
0.257494 0.251876 0.619635
0.385726 0.252745 0.620237
0.516219 0.253630 0.620850
0.645286 0.254505 0.621456
0.769346 0.255347 0.622039
0.885350 0.256134 0.622583
0.983381 0.256798 0.623043
0.022742 0.378192 0.620508
0.138286 0.378976 0.621051
0.260998 0.379808 0.621627
0.389230 0.380677 0.622229
0.519723 0.381562 0.622842
0.648790 0.382438 0.623448
0.772849 0.383279 0.624030
0.888854 0.384066 0.624575
0.986885 0.384731 0.625035
0.026320 0.508843 0.622542
0.141865 0.509627 0.623085
0.264577 0.510459 0.623661
0.392808 0.511329 0.624263
0.523301 0.512214 0.624876
0.652368 0.513089 0.625482
0.776428 0.513930 0.626064
0.892432 0.514717 0.626609
0.990463 0.515382 0.627069
0.029874 0.638578 0.624562
0.145418 0.639362 0.625105
0.268130 0.640194 0.625681
0.396361 0.641064 0.626283
0.526854 0.641949 0.626895
0.655921 0.642824 0.627501
0.779981 0.643665 0.628084
0.895985 0.644452 0.628629
0.994016 0.645117 0.629089
0.033304 0.763818 0.626512
0.148848 0.764601 0.627054
0.271560 0.765434 0.627630
0.399791 0.766303 0.628233
0.530284 0.767188 0.628845
0.659351 0.768063 0.629451
0.783411 0.768905 0.630034
0.899415 0.769692 0.630578
0.997446 0.770356 0.631039
0.036526 0.881457 0.628343
0.152070 0.882241 0.628886
0.274782 0.883073 0.629462
0.403013 0.883943 0.630064
0.533506 0.884828 0.630677
0.662573 0.885703 0.631283
0.786633 0.886544 0.631865
0.902637 0.887331 0.632410
1.000000 0.887996 0.632870
0.039475 0.989154 0.630020
0.155019 0.989938 0.630562
0.277731 0.990770 0.631138
0.405963 0.991640 0.631741
0.536456 0.992525 0.632353
0.665523 0.993400 0.632959
0.789583 0.994241 0.633542
0.905587 0.995028 0.634086
1.000000 0.995693 0.634547
0.013106 0.014107 0.736249
0.128650 0.014891 0.736791
0.251362 0.015723 0.737367
0.379593 0.016592 0.737969
0.510086 0.017477 0.738582
0.639153 0.018353 0.739188
0.763213 0.019194 0.739770
0.879217 0.019981 0.740315
0.977248 0.020646 0.740775
0.016239 0.128519 0.738030
0.131783 0.129302 0.738572
0.254495 0.130134 0.739148
0.382727 0.131004 0.739750
0.513220 0.131889 0.740363
0.642287 0.132764 0.740969
0.766347 0.133606 0.741552
0.882351 0.134392 0.742096
0.980382 0.135057 0.742556
0.019581 0.250541 0.739929
0.135125 0.251325 0.740472
0.257837 0.252157 0.741048
0.386069 0.253027 0.741650
0.516562 0.253912 0.742263
0.645629 0.254787 0.742869
0.769689 0.255628 0.743451
0.885693 0.256415 0.743996
0.983724 0.257080 0.744456
0.023085 0.378473 0.741921
0.138629 0.379257 0.742464
0.261341 0.380089 0.743040
0.389573 0.380959 0.743642
0.520066 0.381844 0.744254
0.649132 0.382719 0.744860
0.773192 0.383561 0.745443
0.889197 0.384347 0.745988
0.987227 0.385012 0.746448
0.026663 0.509125 0.743955
0.142207 0.509908 0.744498
0.264919 0.510741 0.745074
0.393151 0.511610 0.745676
0.523644 0.512495 0.746288
0.652711 0.513371 0.746894
0.776771 0.514212 0.747477
0.892775 0.514999 0.748021
0.990806 0.515663 0.748482
0.030216 0.638860 0.745975
0.145761 0.639643 0.746517
0.268473 0.640475 0.747093
0.396704 0.641345 0.747695
0.527197 0.642230 0.748308
0.656264 0.643105 0.748914
0.780324 0.643947 0.749497
0.896328 0.644733 0.750041
0.994359 0.645398 0.750501
0.033646 0.764099 0.747924
0.149191 0.764883 0.748467
0.271903 0.765715 0.749043
0.400134 0.766585 0.749645
0.530627 0.767470 0.750258
0.659694 0.768345 0.750864
0.783754 0.769186 0.751446
0.899758 0.769973 0.751991
0.997789 0.770638 0.752451
0.036868 0.881739 0.749756
0.152413 0.882522 0.750298
0.275125 0.883354 0.750874
0.403356 0.884224 0.751477
0.533849 0.885109 0.752089
0.662916 0.885984 0.752695
0.786976 0.886826 0.753278
0.902980 0.887612 0.753822
1.000000 0.888277 0.754283
0.039818 0.989436 0.751432
0.155362 0.990219 0.751975
0.278074 0.991051 0.752551
0.406306 0.991921 0.753153
0.536799 0.992806 0.753766
0.665865 0.993681 0.754372
0.789925 0.994523 0.754954
0.905930 0.995309 0.755499
1.000000 0.995974 0.755959
0.013429 0.014373 0.850840
0.128973 0.015156 0.851383
0.251685 0.015988 0.851959
0.379917 0.016858 0.852561
0.510410 0.017743 0.853174
0.639477 0.018618 0.853780
0.763537 0.019460 0.854362
0.879541 0.020246 0.854907
0.977572 0.020911 0.855367
0.016563 0.128784 0.852621
0.132107 0.129568 0.853164
0.254819 0.130400 0.853740
0.383050 0.131270 0.854342
0.513544 0.132155 0.854955
0.642610 0.133030 0.855561
0.766670 0.133871 0.856143
0.882675 0.134658 0.856688
0.980705 0.135323 0.857148
0.019905 0.250807 0.854521
0.135449 0.251591 0.855064
0.258161 0.252423 0.855640
0.386392 0.253292 0.856242
0.516886 0.254177 0.856854
0.645952 0.255053 0.857460
0.770012 0.255894 0.858043
0.886017 0.256681 0.858588
0.984047 0.257346 0.859048
0.023409 0.378739 0.856513
0.138953 0.379523 0.857055
0.261665 0.380355 0.857631
0.389896 0.381225 0.858233
0.520389 0.382110 0.858846
0.649456 0.382985 0.859452
0.773516 0.383826 0.860035
0.889520 0.384613 0.860579
0.987551 0.385278 0.861039
0.026987 0.509391 0.858547
0.142531 0.510174 0.859089
0.265243 0.511006 0.859665
0.393475 0.511876 0.860267
0.523968 0.512761 0.860880
0.653034 0.513636 0.861486
0.777094 0.514478 0.862068
0.893099 0.515264 0.862613
0.991129 0.515929 0.863073
0.030540 0.639125 0.860566
0.146084 0.639909 0.861109
0.268796 0.640741 0.861685
0.397028 0.641611 0.862287
0.527521 0.642496 0.862900
0.656587 0.643371 0.863506
0.780647 0.644212 0.864088
0.896652 0.644999 0.864633
0.994683 0.645664 0.865093
0.033970 0.764365 0.862516
0.149514 0.765149 0.863059
0.272226 0.765981 0.863635
0.400458 0.766850 0.864237
0.530951 0.767735 0.864849
0.660018 0.768611 0.865455
0.784077 0.769452 0.866038
0.900082 0.770239 0.866583
0.998113 0.770904 0.867043
0.037192 0.882004 0.864348
0.152736 0.882788 0.864890
0.275448 0.883620 0.865466
0.403680 0.884490 0.866068
0.534173 0.885375 0.866681
0.663239 0.886250 0.867287
0.787299 0.887091 0.867869
0.903304 0.887878 0.868414
1.000000 0.888543 0.868874
0.040142 0.989701 0.866024
0.155686 0.990485 0.866567
0.278398 0.991317 0.867143
0.406629 0.992187 0.867745
0.537122 0.993072 0.868357
0.666189 0.993947 0.868963
0.790249 0.994788 0.869546
0.906253 0.995575 0.870091
1.000000 0.996240 0.870551
0.013727 0.014617 0.956285
0.129271 0.015401 0.956827
0.251983 0.016233 0.957403
0.380215 0.017103 0.958005
0.510708 0.017988 0.958618
0.639774 0.018863 0.959224
0.763834 0.019704 0.959806
0.879839 0.020491 0.960351
0.977870 0.021156 0.960811
0.016860 0.129029 0.958066
0.132405 0.129812 0.958608
0.255117 0.130645 0.959184
0.383348 0.131514 0.959786
0.513841 0.132399 0.960399
0.642908 0.133275 0.961005
0.766968 0.134116 0.961588
0.882972 0.134903 0.962132
0.981003 0.135567 0.962593
0.020202 0.251051 0.959965
0.135747 0.251835 0.960508
0.258459 0.252667 0.961084
0.386690 0.253537 0.961686
0.517183 0.254422 0.962299
0.646250 0.255297 0.962905
0.770310 0.256139 0.963487
0.886314 0.256925 0.964032
0.984345 0.257590 0.964492
0.023706 0.378984 0.961957
0.139250 0.379767 0.962500
0.261962 0.380599 0.963076
0.390194 0.381469 0.963678
0.520687 0.382354 0.964290
0.649754 0.383229 0.964896
0.773814 0.384071 0.965479
0.889818 0.384857 0.966024
0.987849 0.385522 0.966484
0.027285 0.509635 0.963991
0.142829 0.510419 0.964534
0.265541 0.511251 0.965110
0.393772 0.512120 0.965712
0.524265 0.513005 0.966324
0.653332 0.513881 0.966930
0.777392 0.514722 0.967513
0.893396 0.515509 0.968058
0.991427 0.516174 0.968518
0.030838 0.639370 0.966011
0.146382 0.640153 0.966553
0.269094 0.640986 0.967129
0.397326 0.641855 0.967731
0.527819 0.642740 0.968344
0.656885 0.643615 0.968950
0.780945 0.644457 0.969533
0.896950 0.645244 0.970077
0.994980 0.645908 0.970538
0.034268 0.764609 0.967961
0.149812 0.765393 0.968503
0.272524 0.766225 0.969079
0.400756 0.767095 0.969681
0.531249 0.767980 0.970294
0.660315 0.768855 0.970900
0.784375 0.769696 0.971482
0.900380 0.770483 0.972027
0.998410 0.771148 0.972487
0.037490 0.882249 0.969792
0.153034 0.883032 0.970334
0.275746 0.883865 0.970911
0.403977 0.884734 0.971513
0.534471 0.885619 0.972125
0.663537 0.886495 0.972731
0.787597 0.887336 0.973314
0.903602 0.888123 0.973858
1.000000 0.888787 0.974319
0.040439 0.989946 0.971469
0.155984 0.990729 0.972011
0.278696 0.991562 0.972587
0.406927 0.992431 0.973189
0.537420 0.993316 0.973802
0.666487 0.994192 0.974408
0.790547 0.995033 0.974990
0.906551 0.995820 0.975535
1.000000 0.996484 0.975995
