render-worker/luts/luxury.cube
# Generated by render-worker/scripts/generate-luts.mjs
# Do not hand-edit — re-run the script and let math win.
TITLE "EstateMotion Luxury — Kodak 2383 emulation (warm, filmic)"
LUT_3D_SIZE 5
DOMAIN_MIN 0.0 0.0 0.0
DOMAIN_MAX 1.0 1.0 1.0
0.011071 0.012436 0.015692
0.249327 0.014052 0.016810
0.508052 0.015807 0.018025
0.761178 0.017523 0.019214
0.975213 0.018975 0.020218
0.017546 0.248871 0.019372
0.255802 0.250486 0.020491
0.514527 0.252241 0.021706
0.767654 0.253958 0.022894
0.981689 0.255409 0.023899
0.024628 0.507454 0.023398
0.262885 0.509070 0.024517
0.521609 0.510825 0.025731
0.774736 0.512541 0.026920
0.988771 0.513993 0.027925
0.031612 0.762429 0.027368
0.269868 0.764044 0.028486
0.528593 0.765799 0.029701
0.781719 0.767516 0.030889
0.995754 0.768967 0.031894
0.037783 0.987765 0.030876
0.276039 0.989381 0.031994
0.534764 0.991135 0.033209
0.787891 0.992852 0.034397
1.000000 0.994304 0.035402
0.011708 0.012959 0.241304
0.249964 0.014575 0.242423
0.508689 0.016330 0.243638
0.761815 0.018046 0.244826
0.975850 0.019498 0.245831
0.018183 0.249394 0.244985
0.256440 0.251010 0.246104
0.515164 0.252764 0.247318
0.768291 0.254481 0.248507
0.982326 0.255932 0.249512
0.025266 0.507977 0.249011
0.263522 0.509593 0.250129
0.522246 0.511348 0.251344
0.775373 0.513064 0.252532
0.989408 0.514516 0.253537
0.032249 0.762952 0.252980
0.270505 0.764567 0.254099
0.529230 0.766322 0.255313
0.782356 0.768039 0.256502
0.996391 0.769490 0.257507
0.038420 0.988288 0.256488
0.276676 0.989904 0.257607
0.535401 0.991658 0.258821
0.788528 0.993375 0.260010
1.000000 0.994827 0.261015
0.012409 0.013535 0.489606
0.250665 0.015151 0.490725
0.509390 0.016906 0.491939
0.762517 0.018622 0.493128
0.976552 0.020074 0.494133
0.018885 0.249969 0.493287
0.257141 0.251585 0.494405
0.515865 0.253340 0.495620
0.768992 0.255056 0.496809
0.983027 0.256508 0.497814
0.025967 0.508553 0.497312
0.264223 0.510169 0.498431
0.522948 0.511923 0.499646
0.776074 0.513640 0.500834
0.990109 0.515092 0.501839
0.032950 0.763527 0.501282
0.271206 0.765143 0.502401
0.529931 0.766898 0.503615
0.783057 0.768614 0.504804
0.997093 0.770066 0.505809
0.039122 0.988864 0.504790
0.277378 0.990480 0.505909
0.536102 0.992234 0.507123
0.789229 0.993951 0.508312
1.000000 0.995402 0.509317
0.013106 0.014107 0.736249
0.251362 0.015723 0.737367
0.510086 0.017477 0.738582
0.763213 0.019194 0.739770
0.977248 0.020646 0.740775
0.019581 0.250541 0.739929
0.257837 0.252157 0.741048
0.516562 0.253912 0.742263
0.769689 0.255628 0.743451
0.983724 0.257080 0.744456
0.026663 0.509125 0.743955
0.264919 0.510741 0.745074
0.523644 0.512495 0.746288
0.776771 0.514212 0.747477
0.990806 0.515663 0.748482
0.033646 0.764099 0.747924
0.271903 0.765715 0.749043
0.530627 0.767470 0.750258
0.783754 0.769186 0.751446
0.997789 0.770638 0.752451
0.039818 0.989436 0.751432
0.278074 0.991051 0.752551
0.536799 0.992806 0.753766
0.789925 0.994523 0.754954
1.000000 0.995974 0.755959
0.013727 0.014617 0.956285
0.251983 0.016233 0.957403
0.510708 0.017988 0.958618
0.763834 0.019704 0.959806
0.977870 0.021156 0.960811
0.020202 0.251051 0.959965
0.258459 0.252667 0.961084
0.517183 0.254422 0.962299
0.770310 0.256139 0.963487
0.984345 0.257590 0.964492
0.027285 0.509635 0.963991
0.265541 0.511251 0.965110
0.524265 0.513005 0.966324
0.777392 0.514722 0.967513
0.991427 0.516174 0.968518
0.034268 0.764609 0.967961
0.272524 0.766225 0.969079
0.531249 0.767980 0.970294
0.784375 0.769696 0.971482
0.998410 0.771148 0.972487
0.040439 0.989946 0.971469
0.278696 0.991562 0.972587
0.537420 0.993316 0.973802
0.790547 0.995033 0.974990
1.000000 0.996484 0.975995
