render-worker/luts/mls.cube
# Generated by render-worker/scripts/generate-luts.mjs
# Do not hand-edit — re-run the script and let math win.
TITLE "EstateMotion MLS Clean — Rec.709 neutral (compliance-safe)"
LUT_3D_SIZE 9
DOMAIN_MIN 0.0 0.0 0.0
DOMAIN_MAX 1.0 1.0 1.0
0.003178 0.003178 0.003178
0.132391 0.002770 0.002770
0.259962 0.002368 0.002368
0.386882 0.001968 0.001968
0.513379 0.001570 0.001570
0.639562 0.001172 0.001172
0.765495 0.000775 0.000775
0.891220 0.000379 0.000379
1.000000 0.000000 0.000000
0.001812 0.131049 0.001812
0.131025 0.130642 0.001404
0.258596 0.130240 0.001002
0.385516 0.129839 0.000602
0.512013 0.129441 0.000204
0.638196 0.129043 0.000000
0.764129 0.128646 0.000000
0.889854 0.128250 0.000000
1.000000 0.127870 0.000000
0.000463 0.257295 0.000463
0.129676 0.256888 0.000056
0.257247 0.256485 0.000000
0.384167 0.256085 0.000000
0.510664 0.255687 0.000000
0.636847 0.255289 0.000000
0.762780 0.254892 0.000000
0.888505 0.254496 0.000000
1.000000 0.254116 0.000000
0.000000 0.382897 0.000000
0.128335 0.382489 0.000000
0.255905 0.382087 0.000000
0.382825 0.381687 0.000000
0.509323 0.381289 0.000000
0.635506 0.380891 0.000000
0.761438 0.380494 0.000000
0.887164 0.380098 0.000000
1.000000 0.379718 0.000000
0.000000 0.508080 0.000000
0.126997 0.507673 0.000000
0.254568 0.507271 0.000000
0.381488 0.506871 0.000000
0.507985 0.506472 0.000000
0.634168 0.506074 0.000000
0.760101 0.505678 0.000000
0.885826 0.505281 0.000000
1.000000 0.504901 0.000000
0.000000 0.632953 0.000000
0.125664 0.632546 0.000000
0.253234 0.632144 0.000000
0.380154 0.631744 0.000000
0.506651 0.631345 0.000000
0.632834 0.630947 0.000000
0.758767 0.630550 0.000000
0.884492 0.630154 0.000000
1.000000 0.629774 0.000000
0.000000 0.757578 0.000000
0.124332 0.757171 0.000000
0.251903 0.756769 0.000000
0.378823 0.756369 0.000000
0.505320 0.755970 0.000000
0.631503 0.755572 0.000000
0.757436 0.755175 0.000000
0.883161 0.754779 0.000000
1.000000 0.754399 0.000000
0.000000 0.881997 0.000000
0.123003 0.881590 0.000000
0.250574 0.881188 0.000000
0.377494 0.880788 0.000000
0.503991 0.880389 0.000000
0.630174 0.879992 0.000000
0.756107 0.879595 0.000000
0.881832 0.879199 0.000000
1.000000 0.878819 0.000000
0.000000 1.000000 0.000000
0.121697 1.000000 0.000000
0.249268 1.000000 0.000000
0.376188 1.000000 0.000000
0.502685 1.000000 0.000000
0.628868 1.000000 0.000000
0.754801 1.000000 0.000000
0.880526 1.000000 0.000000
1.000000 1.000000 0.000000
0.003040 0.003040 0.131766
0.132254 0.002633 0.131359
0.259824 0.002231 0.130957
0.386744 0.001831 0.130557
0.513242 0.001432 0.130158
0.639425 0.001035 0.129760
0.765357 0.000638 0.129364
0.891083 0.000241 0.128967
1.000000 0.000000 0.128587
0.001674 0.130911 0.130400
0.130888 0.130504 0.129993
0.258458 0.130102 0.129591
0.385378 0.129702 0.129191
0.511876 0.129303 0.128792
0.638059 0.128906 0.128394
0.763991 0.128509 0.127998
0.889717 0.128113 0.127601
1.000000 0.127733 0.127221
0.000326 0.257157 0.129052
0.129539 0.256750 0.128644
0.257110 0.256348 0.128242
0.384030 0.255948 0.127842
0.510527 0.255549 0.127444
0.636710 0.255152 0.127046
0.762643 0.254755 0.126649
0.888368 0.254359 0.126253
1.000000 0.253979 0.125873
0.000000 0.382759 0.127710
0.128197 0.382352 0.127303
0.255768 0.381950 0.126901
0.382688 0.381550 0.126501
0.509185 0.381151 0.126102
0.635368 0.380754 0.125704
0.761301 0.380357 0.125307
0.887026 0.379960 0.124911
1.000000 0.379581 0.124531
0.000000 0.507943 0.126373
0.126860 0.507536 0.125965
0.254431 0.507134 0.125563
0.381351 0.506734 0.125163
0.507848 0.506335 0.124765
0.634031 0.505937 0.124367
0.759964 0.505540 0.123970
0.885689 0.505144 0.123574
1.000000 0.504764 0.123194
0.000000 0.632816 0.125039
0.125526 0.632408 0.124631
0.253097 0.632006 0.124229
0.380017 0.631606 0.123829
0.506514 0.631207 0.123431
0.632697 0.630810 0.123033
0.758630 0.630413 0.122636
0.884355 0.630017 0.122240
1.000000 0.629637 0.121860
0.000000 0.757441 0.123707
0.124195 0.757033 0.123300
0.251766 0.756631 0.122898
0.378686 0.756231 0.122498
0.505183 0.755833 0.122099
0.631366 0.755435 0.121702
0.757299 0.755038 0.121305
0.883024 0.754642 0.120908
1.000000 0.754262 0.120529
0.000000 0.881860 0.122378
0.122866 0.881453 0.121971
0.250437 0.881051 0.121569
0.377357 0.880651 0.121169
0.503854 0.880252 0.120770
0.630037 0.879854 0.120373
0.755970 0.879457 0.119976
0.881695 0.879061 0.119579
1.000000 0.878681 0.119199
0.000000 1.000000 0.121072
0.121560 1.000000 0.120665
0.249131 1.000000 0.120263
0.376050 1.000000 0.119863
0.502548 1.000000 0.119464
0.628731 1.000000 0.119067
0.754664 1.000000 0.118670
0.880389 1.000000 0.118273
1.000000 1.000000 0.117893
0.002905 0.002905 0.258721
0.132118 0.002497 0.258313
0.259689 0.002095 0.257911
0.386609 0.001695 0.257511
0.513106 0.001297 0.257113
0.639289 0.000899 0.256715
0.765222 0.000502 0.256318
0.890947 0.000106 0.255922
1.000000 0.000000 0.255542
0.001539 0.130776 0.257355
0.130752 0.130369 0.256948
0.258323 0.129967 0.256545
0.385243 0.129567 0.256145
0.511740 0.129168 0.255747
0.637923 0.128770 0.255349
0.763856 0.128373 0.254952
0.889581 0.127977 0.254556
1.000000 0.127597 0.254176
0.000190 0.257022 0.256006
0.129403 0.256615 0.255599
0.256974 0.256213 0.255197
0.383894 0.255812 0.254797
0.510391 0.255414 0.254398
0.636574 0.255016 0.254000
0.762507 0.254619 0.253603
0.888232 0.254223 0.253207
1.000000 0.253843 0.252827
0.000000 0.382624 0.254664
0.128062 0.382217 0.254257
0.255633 0.381814 0.253855
0.382553 0.381414 0.253455
0.509050 0.381016 0.253056
0.635233 0.380618 0.252659
0.761166 0.380221 0.252262
0.886891 0.379825 0.251866
1.000000 0.379445 0.251486
0.000000 0.507807 0.253327
0.126725 0.507400 0.252920
0.254295 0.506998 0.252518
0.381215 0.506598 0.252118
0.507712 0.506199 0.251719
0.633895 0.505802 0.251321
0.759828 0.505405 0.250925
0.885553 0.505008 0.250528
1.000000 0.504628 0.250148
0.000000 0.632680 0.251993
0.125391 0.632273 0.251586
0.252961 0.631871 0.251184
0.379881 0.631471 0.250784
0.506378 0.631072 0.250385
0.632561 0.630674 0.249987
0.758494 0.630277 0.249591
0.884219 0.629881 0.249194
1.000000 0.629501 0.248814
0.000000 0.757305 0.250662
0.124059 0.756898 0.250255
0.251630 0.756496 0.249853
0.378550 0.756096 0.249453
0.505047 0.755697 0.249054
0.631230 0.755299 0.248656
0.757163 0.754902 0.248259
0.882888 0.754506 0.247863
1.000000 0.754126 0.247483
0.000000 0.881725 0.249333
0.122730 0.881317 0.248926
0.250301 0.880915 0.248524
0.377221 0.880515 0.248123
0.503718 0.880116 0.247725
0.629901 0.879719 0.247327
0.755834 0.879322 0.246930
0.881559 0.878926 0.246534
1.000000 0.878546 0.246154
0.000000 1.000000 0.248027
0.121424 1.000000 0.247620
0.248995 1.000000 0.247217
0.375915 1.000000 0.246817
0.502412 1.000000 0.246419
0.628595 1.000000 0.246021
0.754528 1.000000 0.245624
0.880253 1.000000 0.245228
1.000000 1.000000 0.244848
0.002770 0.002770 0.385028
0.131983 0.002362 0.384620
0.259554 0.001960 0.384218
0.386474 0.001560 0.383818
0.512971 0.001162 0.383420
0.639154 0.000764 0.383022
0.765087 0.000367 0.382625
0.890812 0.000000 0.382229
1.000000 0.000000 0.381849
0.001404 0.130641 0.383662
0.130617 0.130234 0.383254
0.258188 0.129832 0.382852
0.385108 0.129432 0.382452
0.511605 0.129033 0.382054
0.637788 0.128635 0.381656
0.763721 0.128238 0.381259
0.889446 0.127842 0.380863
1.000000 0.127462 0.380483
0.000055 0.256887 0.382313
0.129269 0.256480 0.381906
0.256839 0.256078 0.381504
0.383759 0.255678 0.381104
0.510256 0.255279 0.380705
0.636439 0.254881 0.380307
0.762372 0.254484 0.379910
0.888097 0.254088 0.379514
1.000000 0.253708 0.379134
0.000000 0.382489 0.380971
0.127927 0.382082 0.380564
0.255498 0.381680 0.380162
0.382418 0.381280 0.379762
0.508915 0.380881 0.379363
0.635098 0.380483 0.378966
0.761031 0.380086 0.378569
0.886756 0.379690 0.378172
1.000000 0.379310 0.377792
0.000000 0.507672 0.379634
0.126590 0.507265 0.379227
0.254160 0.506863 0.378825
0.381080 0.506463 0.378425
0.507577 0.506064 0.378026
0.633760 0.505667 0.377628
0.759693 0.505270 0.377231
0.885418 0.504873 0.376835
1.000000 0.504493 0.376455
0.000000 0.632545 0.378300
0.125256 0.632138 0.377893
0.252826 0.631736 0.377491
0.379746 0.631336 0.377091
0.506244 0.630937 0.376692
0.632427 0.630539 0.376294
0.758359 0.630142 0.375898
0.884085 0.629746 0.375501
1.000000 0.629366 0.375121
0.000000 0.757170 0.376969
0.123924 0.756763 0.376562
0.251495 0.756361 0.376160
0.378415 0.755961 0.375760
0.504912 0.755562 0.375361
0.631095 0.755164 0.374963
0.757028 0.754767 0.374566
0.882753 0.754371 0.374170
1.000000 0.753991 0.373790
0.000000 0.881590 0.375640
0.122595 0.881182 0.375233
0.250166 0.880780 0.374830
0.377086 0.880380 0.374430
0.503583 0.879982 0.374032
0.629766 0.879584 0.373634
0.755699 0.879187 0.373237
0.881424 0.878791 0.372841
1.000000 0.878411 0.372461
0.000000 1.000000 0.374334
0.121289 1.000000 0.373926
0.248860 1.000000 0.373524
0.375780 1.000000 0.373124
0.502277 1.000000 0.372726
0.628460 1.000000 0.372328
0.754393 1.000000 0.371931
0.880118 1.000000 0.371535
1.000000 1.000000 0.371155
0.002635 0.002635 0.510914
0.131849 0.002228 0.510507
0.259419 0.001826 0.510105
0.386339 0.001426 0.509704
0.512837 0.001027 0.509306
0.639020 0.000630 0.508908
0.764952 0.000233 0.508511
0.890678 0.000000 0.508115
1.000000 0.000000 0.507735
0.001269 0.130507 0.509548
0.130483 0.130099 0.509141
0.258053 0.129697 0.508739
0.384973 0.129297 0.508339
0.511471 0.128898 0.507940
0.637654 0.128501 0.507542
0.763586 0.128104 0.507145
0.889312 0.127708 0.506749
1.000000 0.127328 0.506369
0.000000 0.256752 0.508199
0.129134 0.256345 0.507792
0.256705 0.255943 0.507390
0.383625 0.255543 0.506990
0.510122 0.255144 0.506591
0.636305 0.254747 0.506194
0.762238 0.254350 0.505797
0.887963 0.253954 0.505400
1.000000 0.253574 0.505020
0.000000 0.382354 0.506858
0.127792 0.381947 0.506450
0.255363 0.381545 0.506048
0.382283 0.381145 0.505648
0.508780 0.380746 0.505250
0.634963 0.380349 0.504852
0.760896 0.379952 0.504455
0.886621 0.379555 0.504059
1.000000 0.379176 0.503679
0.000000 0.507538 0.505520
0.126455 0.507131 0.505113
0.254026 0.506729 0.504711
0.380946 0.506329 0.504311
0.507443 0.505930 0.503912
0.633626 0.505532 0.503515
0.759559 0.505135 0.503118
0.885284 0.504739 0.502721
1.000000 0.504359 0.502341
0.000000 0.632411 0.504186
0.125121 0.632003 0.503779
0.252692 0.631601 0.503377
0.379612 0.631201 0.502977
0.506109 0.630802 0.502578
0.632292 0.630405 0.502181
0.758225 0.630008 0.501784
0.883950 0.629612 0.501387
1.000000 0.629232 0.501007
0.000000 0.757036 0.502855
0.123790 0.756628 0.502448
0.251361 0.756226 0.502046
0.378281 0.755826 0.501646
0.504778 0.755428 0.501247
0.630961 0.755030 0.500849
0.756894 0.754633 0.500452
0.882619 0.754237 0.500056
1.000000 0.753857 0.499676
0.000000 0.881455 0.501526
0.122461 0.881048 0.501119
0.250032 0.880646 0.500717
0.376952 0.880246 0.500317
0.503449 0.879847 0.499918
0.629632 0.879449 0.499520
0.755565 0.879052 0.499123
0.881290 0.878656 0.498727
1.000000 0.878276 0.498347
0.000000 1.000000 0.500220
0.121155 1.000000 0.499813
0.248726 1.000000 0.499411
0.375646 1.000000 0.499011
0.502143 1.000000 0.498612
0.628326 1.000000 0.498214
0.754259 1.000000 0.497817
0.879984 1.000000 0.497421
1.000000 1.000000 0.497041
0.002501 0.002501 0.636487
0.131715 0.002094 0.636080
0.259285 0.001692 0.635678
0.386205 0.001292 0.635278
0.512702 0.000893 0.634879
0.638885 0.000495 0.634482
0.764818 0.000098 0.634085
0.890543 0.000000 0.633688
1.000000 0.000000 0.633309
0.001135 0.130372 0.635121
0.130349 0.129965 0.634714
0.257919 0.129563 0.634312
0.384839 0.129163 0.633912
0.511336 0.128764 0.633513
0.637519 0.128367 0.633116
0.763452 0.127970 0.632719
0.889177 0.127573 0.632323
1.000000 0.127194 0.631943
0.000000 0.256618 0.633773
0.129000 0.256211 0.633366
0.256571 0.255809 0.632964
0.383491 0.255409 0.632563
0.509988 0.255010 0.632165
0.636171 0.254613 0.631767
0.762104 0.254216 0.631370
0.887829 0.253819 0.630974
1.000000 0.253439 0.630594
0.000000 0.382220 0.632431
0.127658 0.381813 0.632024
0.255229 0.381411 0.631622
0.382149 0.381011 0.631222
0.508646 0.380612 0.630823
0.634829 0.380215 0.630425
0.760762 0.379818 0.630028
0.886487 0.379421 0.629632
1.000000 0.379041 0.629252
0.000000 0.507404 0.631094
0.126321 0.506997 0.630687
0.253892 0.506594 0.630285
0.380812 0.506194 0.629884
0.507309 0.505796 0.629486
0.633492 0.505398 0.629088
0.759425 0.505001 0.628691
0.885150 0.504605 0.628295
1.000000 0.504225 0.627915
0.000000 0.632276 0.629760
0.124987 0.631869 0.629353
0.252558 0.631467 0.628951
0.379478 0.631067 0.628551
0.505975 0.630668 0.628152
0.632158 0.630271 0.627754
0.758091 0.629874 0.627357
0.883816 0.629477 0.626961
1.000000 0.629098 0.626581
0.000000 0.756902 0.628429
0.123656 0.756494 0.628021
0.251227 0.756092 0.627619
0.378147 0.755692 0.627219
0.504644 0.755293 0.626821
0.630827 0.754896 0.626423
0.756760 0.754499 0.626026
0.882485 0.754103 0.625630
1.000000 0.753723 0.625250
0.000000 0.881321 0.627100
0.122327 0.880914 0.626692
0.249897 0.880512 0.626290
0.376817 0.880112 0.625890
0.503315 0.879713 0.625491
0.629498 0.879315 0.625094
0.755430 0.878918 0.624697
0.881156 0.878522 0.624301
1.000000 0.878142 0.623921
0.000000 1.000000 0.625793
0.121021 1.000000 0.625386
0.248591 1.000000 0.624984
0.375511 1.000000 0.624584
0.502009 1.000000 0.624185
0.628192 1.000000 0.623788
0.754124 1.000000 0.623391
0.879850 1.000000 0.622995
1.000000 1.000000 0.622615
0.002367 0.002367 0.761812
0.131581 0.001960 0.761405
0.259151 0.001558 0.761003
0.386071 0.001158 0.760603
0.512569 0.000759 0.760204
0.638752 0.000362 0.759806
0.764684 0.000000 0.759409
0.890410 0.000000 0.759013
1.000000 0.000000 0.758633
0.001001 0.130239 0.760446
0.130215 0.129831 0.760039
0.257785 0.129429 0.759637
0.384705 0.129029 0.759237
0.511203 0.128630 0.758838
0.637386 0.128233 0.758440
0.763318 0.127836 0.758043
0.889044 0.127440 0.757647
1.000000 0.127060 0.757267
0.000000 0.256484 0.759097
0.128866 0.256077 0.758690
0.256437 0.255675 0.758288
0.383357 0.255275 0.757888
0.509854 0.254876 0.757489
0.636037 0.254479 0.757092
0.761970 0.254082 0.756695
0.887695 0.253686 0.756299
1.000000 0.253306 0.755919
0.000000 0.382086 0.757756
0.127524 0.381679 0.757349
0.255095 0.381277 0.756946
0.382015 0.380877 0.756546
0.508512 0.380478 0.756148
0.634695 0.380081 0.755750
0.760628 0.379684 0.755353
0.886353 0.379287 0.754957
1.000000 0.378908 0.754577
0.000000 0.507270 0.756419
0.126187 0.506863 0.756011
0.253758 0.506461 0.755609
0.380678 0.506061 0.755209
0.507175 0.505662 0.754810
0.633358 0.505264 0.754413
0.759291 0.504867 0.754016
0.885016 0.504471 0.753620
1.000000 0.504091 0.753240
0.000000 0.632143 0.755085
0.124853 0.631735 0.754677
0.252424 0.631333 0.754275
0.379344 0.630933 0.753875
0.505841 0.630534 0.753477
0.632024 0.630137 0.753079
0.757957 0.629740 0.752682
0.883682 0.629344 0.752286
1.000000 0.628964 0.751906
0.000000 0.756768 0.753753
0.123522 0.756360 0.753346
0.251093 0.755958 0.752944
0.378013 0.755558 0.752544
0.504510 0.755160 0.752145
0.630693 0.754762 0.751748
0.756626 0.754365 0.751351
0.882351 0.753969 0.750954
1.000000 0.753589 0.750574
0.000000 0.881187 0.752424
0.122193 0.880780 0.752017
0.249764 0.880378 0.751615
0.376684 0.879978 0.751215
0.503181 0.879579 0.750816
0.629364 0.879181 0.750418
0.755297 0.878784 0.750022
0.881022 0.878388 0.749625
1.000000 0.878008 0.749245
0.000000 1.000000 0.751118
0.120887 1.000000 0.750711
0.248458 1.000000 0.750309
0.375378 1.000000 0.749909
0.501875 1.000000 0.749510
0.628058 1.000000 0.749112
0.753991 1.000000 0.748716
0.879716 1.000000 0.748319
1.000000 1.000000 0.747939
0.002234 0.002234 0.886930
0.131447 0.001826 0.886523
0.259018 0.001424 0.886121
0.385938 0.001024 0.885721
0.512435 0.000626 0.885322
0.638618 0.000228 0.884924
0.764551 0.000000 0.884527
0.890276 0.000000 0.884131
1.000000 0.000000 0.883751
0.000868 0.130105 0.885564
0.130081 0.129698 0.885157
0.257652 0.129296 0.884755
0.384572 0.128896 0.884355
0.511069 0.128497 0.883956
0.637252 0.128099 0.883558
0.763185 0.127702 0.883161
0.888910 0.127306 0.882765
1.000000 0.126926 0.882385
0.000000 0.256351 0.884215
0.128732 0.255944 0.883808
0.256303 0.255542 0.883406
0.383223 0.255141 0.883006
0.509720 0.254743 0.882607
0.635903 0.254345 0.882210
0.761836 0.253948 0.881813
0.887561 0.253552 0.881416
1.000000 0.253172 0.881037
0.000000 0.381953 0.882874
0.127391 0.381546 0.882466
0.254962 0.381143 0.882064
0.381881 0.380743 0.881664
0.508379 0.380345 0.881266
0.634562 0.379947 0.880868
0.760495 0.379550 0.880471
0.886220 0.379154 0.880075
1.000000 0.378774 0.879695
0.000000 0.507136 0.881536
0.126053 0.506729 0.881129
0.253624 0.506327 0.880727
0.380544 0.505927 0.880327
0.507041 0.505528 0.879928
0.633224 0.505131 0.879531
0.759157 0.504734 0.879134
0.884882 0.504337 0.878738
1.000000 0.503957 0.878358
0.000000 0.632009 0.880202
0.124720 0.631602 0.879795
0.252290 0.631200 0.879393
0.379210 0.630800 0.878993
0.505707 0.630401 0.878594
0.631890 0.630003 0.878197
0.757823 0.629606 0.877800
0.883548 0.629210 0.877404
1.000000 0.628830 0.877024
0.000000 0.756634 0.878871
0.123388 0.756227 0.878464
0.250959 0.755825 0.878062
0.377879 0.755425 0.877662
0.504376 0.755026 0.877263
0.630559 0.754628 0.876865
0.756492 0.754231 0.876469
0.882217 0.753835 0.876072
1.000000 0.753455 0.875692
0.000000 0.881053 0.877542
0.122059 0.880646 0.877135
0.249630 0.880244 0.876733
0.376550 0.879844 0.876333
0.503047 0.879445 0.875934
0.629230 0.879048 0.875536
0.755163 0.878651 0.875139
0.880888 0.878255 0.874743
1.000000 0.877875 0.874363
0.000000 1.000000 0.876236
0.120753 1.000000 0.875829
0.248324 1.000000 0.875427
0.375244 1.000000 0.875027
0.501741 1.000000 0.874628
0.627924 1.000000 0.874230
0.753857 1.000000 0.873833
0.879582 1.000000 0.873437
1.000000 1.000000 0.873057
0.002100 0.002100 1.000000
0.131314 0.001693 1.000000
0.258884 0.001291 1.000000
0.385804 0.000891 1.000000
0.512301 0.000492 1.000000
0.638484 0.000094 1.000000
0.764417 0.000000 1.000000
0.890142 0.000000 1.000000
1.000000 0.000000 1.000000
0.000734 0.129971 1.000000
0.129948 0.129564 1.000000
0.257518 0.129162 1.000000
0.384438 0.128762 1.000000
0.510936 0.128363 1.000000
0.637119 0.127966 1.000000
0.763051 0.127569 1.000000
0.888776 0.127173 1.000000
1.000000 0.126793 1.000000
0.000000 0.256217 1.000000
0.128599 0.255810 1.000000
0.256170 0.255408 1.000000
0.383090 0.255008 1.000000
0.509587 0.254609 1.000000
0.635770 0.254212 1.000000
0.761703 0.253815 1.000000
0.887428 0.253418 1.000000
1.000000 0.253039 1.000000
0.000000 0.381819 1.000000
0.127257 0.381412 1.000000
0.254828 0.381010 1.000000
0.381748 0.380610 1.000000
0.508245 0.380211 1.000000
0.634428 0.379814 1.000000
0.760361 0.379417 1.000000
0.886086 0.379020 1.000000
1.000000 0.378640 1.000000
0.000000 0.507003 1.000000
0.125920 0.506596 1.000000
0.253491 0.506193 1.000000
0.380411 0.505793 1.000000
0.506908 0.505395 1.000000
0.633091 0.504997 1.000000
0.759024 0.504600 1.000000
0.884749 0.504204 1.000000
1.000000 0.503824 1.000000
0.000000 0.631875 1.000000
0.124586 0.631468 1.000000
0.252157 0.631066 1.000000
0.379077 0.630666 1.000000
0.505574 0.630267 1.000000
0.631757 0.629870 1.000000
0.757690 0.629473 1.000000
0.883415 0.629077 1.000000
1.000000 0.628697 1.000000
0.000000 0.756501 1.000000
0.123255 0.756093 1.000000
0.250826 0.755691 1.000000
0.377746 0.755291 1.000000
0.504243 0.754893 1.000000
0.630426 0.754495 1.000000
0.756359 0.754098 1.000000
0.882084 0.753702 1.000000
1.000000 0.753322 1.000000
0.000000 0.880920 1.000000
0.121926 0.880513 1.000000
0.249496 0.880111 1.000000
0.376416 0.879711 1.000000
0.502914 0.879312 1.000000
0.629097 0.878914 1.000000
0.755029 0.878517 1.000000
0.880755 0.878121 0.999684
1.000000 0.877741 0.999304
0.000000 1.000000 1.000000
0.120620 1.000000 1.000000
0.248190 1.000000 1.000000
0.375110 1.000000 0.999968
0.501608 1.000000 0.999569
0.627791 1.000000 0.999171
0.753723 1.000000 0.998774
0.879449 1.000000 0.998378
1.000000 1.000000 0.997998
