render-worker/luts/mls.cube
# Generated by render-worker/scripts/generate-luts.mjs
# Do not hand-edit — re-run the script and let math win.
TITLE "EstateMotion MLS Clean — Rec.709 neutral (compliance-safe)"
LUT_3D_SIZE 17
DOMAIN_MIN 0.0 0.0 0.0
DOMAIN_MAX 1.0 1.0 1.0
0.003178 0.003178 0.003178
0.068177 0.002973 0.002973
0.132391 0.002770 0.002770
0.196282 0.002569 0.002569
0.259962 0.002368 0.002368
0.323484 0.002168 0.002168
0.386882 0.001968 0.001968
0.450175 0.001769 0.001769
0.513379 0.001570 0.001570
0.576505 0.001371 0.001371
0.639562 0.001172 0.001172
0.702557 0.000973 0.000973
0.765495 0.000775 0.000775
0.828381 0.000577 0.000577
0.891220 0.000379 0.000379
0.954014 0.000181 0.000181
1.000000 0.000000 0.000000
0.002490 0.067501 0.002490
0.067490 0.067297 0.002286
0.131704 0.067094 0.002083
0.195595 0.066893 0.001882
0.259275 0.066692 0.001681
0.322797 0.066492 0.001481
0.386195 0.066292 0.001281
0.449488 0.066093 0.001082
0.512692 0.065893 0.000882
0.575818 0.065694 0.000683
0.638875 0.065496 0.000485
0.701869 0.065297 0.000286
0.764808 0.065099 0.000088
0.827694 0.064901 0.000000
0.890533 0.064702 0.000000
0.953327 0.064505 0.000000
1.000000 0.064323 0.000000
0.001812 0.131049 0.001812
0.066811 0.130844 0.001607
0.131025 0.130642 0.001404
0.194916 0.130440 0.001203
0.258596 0.130240 0.001002
0.322118 0.130039 0.000802
0.385516 0.129839 0.000602
0.448809 0.129640 0.000403
0.512013 0.129441 0.000204
0.575139 0.129242 0.000005
0.638196 0.129043 0.000000
0.701191 0.128845 0.000000
0.764129 0.128646 0.000000
0.827015 0.128448 0.000000
0.889854 0.128250 0.000000
0.952648 0.128052 0.000000
1.000000 0.127870 0.000000
0.001136 0.194276 0.001136
0.066135 0.194071 0.000931
0.130350 0.193869 0.000729
0.194241 0.193668 0.000528
0.257920 0.193467 0.000327
0.321443 0.193267 0.000127
0.384840 0.193067 0.000000
0.448134 0.192867 0.000000
0.511338 0.192668 0.000000
0.574464 0.192469 0.000000
0.637521 0.192271 0.000000
0.700515 0.192072 0.000000
0.763453 0.191874 0.000000
0.826340 0.191675 0.000000
0.889178 0.191477 0.000000
0.951973 0.191279 0.000000
1.000000 0.191097 0.000000
0.000463 0.257295 0.000463
0.065462 0.257090 0.000258
0.129676 0.256888 0.000056
0.193567 0.256686 0.000000
0.257247 0.256485 0.000000
0.320770 0.256285 0.000000
0.384167 0.256085 0.000000
0.447460 0.255886 0.000000
0.510664 0.255687 0.000000
0.573790 0.255488 0.000000
0.636847 0.255289 0.000000
0.699842 0.255091 0.000000
0.762780 0.254892 0.000000
0.825667 0.254694 0.000000
0.888505 0.254496 0.000000
0.951300 0.254298 0.000000
1.000000 0.254116 0.000000
0.000000 0.320158 0.000000
0.064791 0.319953 0.000000
0.129005 0.319751 0.000000
0.192896 0.319549 0.000000
0.256576 0.319348 0.000000
0.320098 0.319148 0.000000
0.383496 0.318948 0.000000
0.446789 0.318749 0.000000
0.509993 0.318550 0.000000
0.573119 0.318351 0.000000
0.636176 0.318152 0.000000
0.699170 0.317953 0.000000
0.762109 0.317755 0.000000
0.824995 0.317557 0.000000
0.887834 0.317359 0.000000
0.950628 0.317161 0.000000
1.000000 0.316979 0.000000
0.000000 0.382897 0.000000
0.064120 0.382692 0.000000
0.128335 0.382489 0.000000
0.192226 0.382288 0.000000
0.255905 0.382087 0.000000
0.319428 0.381887 0.000000
0.382825 0.381687 0.000000
0.446119 0.381488 0.000000
0.509323 0.381289 0.000000
0.572449 0.381090 0.000000
0.635506 0.380891 0.000000
0.698500 0.380692 0.000000
0.761438 0.380494 0.000000
0.824325 0.380296 0.000000
0.887164 0.380098 0.000000
0.949958 0.379900 0.000000
1.000000 0.379718 0.000000
0.000000 0.445533 0.000000
0.063451 0.445328 0.000000
0.127666 0.445125 0.000000
0.191557 0.444924 0.000000
0.255236 0.444723 0.000000
0.318759 0.444523 0.000000
0.382156 0.444323 0.000000
0.445450 0.444124 0.000000
0.508654 0.443925 0.000000
0.571780 0.443726 0.000000
0.634836 0.443527 0.000000
0.697831 0.443328 0.000000
0.760769 0.443130 0.000000
0.823656 0.442932 0.000000
0.886494 0.442734 0.000000
0.949289 0.442536 0.000000
1.000000 0.442354 0.000000
0.000000 0.508080 0.000000
0.062783 0.507875 0.000000
0.126997 0.507673 0.000000
0.190888 0.507472 0.000000
0.254568 0.507271 0.000000
0.318091 0.507071 0.000000
0.381488 0.506871 0.000000
0.444781 0.506671 0.000000
0.507985 0.506472 0.000000
0.571111 0.506273 0.000000
0.634168 0.506074 0.000000
0.697163 0.505876 0.000000
0.760101 0.505678 0.000000
0.822988 0.505479 0.000000
0.885826 0.505281 0.000000
0.948621 0.505083 0.000000
1.000000 0.504901 0.000000
0.000000 0.570551 0.000000
0.062116 0.570346 0.000000
0.126330 0.570144 0.000000
0.190221 0.569942 0.000000
0.253901 0.569741 0.000000
0.317424 0.569541 0.000000
0.380821 0.569341 0.000000
0.444114 0.569142 0.000000
0.507318 0.568943 0.000000
0.570444 0.568744 0.000000
0.633501 0.568545 0.000000
0.696496 0.568346 0.000000
0.759434 0.568148 0.000000
0.822320 0.567950 0.000000
0.885159 0.567752 0.000000
0.947953 0.567554 0.000000
1.000000 0.567372 0.000000
0.000000 0.632953 0.000000
0.061449 0.632748 0.000000
0.125664 0.632546 0.000000
0.189554 0.632344 0.000000
0.253234 0.632144 0.000000
0.316757 0.631943 0.000000
0.380154 0.631744 0.000000
0.443447 0.631544 0.000000
0.506651 0.631345 0.000000
0.569778 0.631146 0.000000
0.632834 0.630947 0.000000
0.695829 0.630749 0.000000
0.758767 0.630550 0.000000
0.821654 0.630352 0.000000
0.884492 0.630154 0.000000
0.947287 0.629956 0.000000
1.000000 0.629774 0.000000
0.000000 0.695293 0.000000
0.060783 0.695089 0.000000
0.124998 0.694886 0.000000
0.188889 0.694685 0.000000
0.252568 0.694484 0.000000
0.316091 0.694284 0.000000
0.379488 0.694084 0.000000
0.442781 0.693885 0.000000
0.505985 0.693685 0.000000
0.569112 0.693486 0.000000
0.632168 0.693288 0.000000
0.695163 0.693089 0.000000
0.758101 0.692891 0.000000
0.820988 0.692693 0.000000
0.883826 0.692494 0.000000
0.946621 0.692297 0.000000
1.000000 0.692115 0.000000
0.000000 0.757578 0.000000
0.060118 0.757373 0.000000
0.124332 0.757171 0.000000
0.188223 0.756969 0.000000
0.251903 0.756769 0.000000
0.315426 0.756568 0.000000
0.378823 0.756369 0.000000
0.442116 0.756169 0.000000
0.505320 0.755970 0.000000
0.568446 0.755771 0.000000
0.631503 0.755572 0.000000
0.694498 0.755374 0.000000
0.757436 0.755175 0.000000
0.820322 0.754977 0.000000
0.883161 0.754779 0.000000
0.945955 0.754581 0.000000
1.000000 0.754399 0.000000
0.000000 0.819811 0.000000
0.059453 0.819606 0.000000
0.123667 0.819404 0.000000
0.187558 0.819203 0.000000
0.251238 0.819002 0.000000
0.314761 0.818802 0.000000
0.378158 0.818602 0.000000
0.441451 0.818403 0.000000
0.504655 0.818203 0.000000
0.567781 0.818004 0.000000
0.630838 0.817806 0.000000
0.693833 0.817607 0.000000
0.756771 0.817409 0.000000
0.819658 0.817210 0.000000
0.882496 0.817012 0.000000
0.945291 0.816815 0.000000
1.000000 0.816632 0.000000
0.000000 0.881997 0.000000
0.058789 0.881793 0.000000
0.123003 0.881590 0.000000
0.186894 0.881389 0.000000
0.250574 0.881188 0.000000
0.314097 0.880988 0.000000
0.377494 0.880788 0.000000
0.440787 0.880589 0.000000
0.503991 0.880389 0.000000
0.567117 0.880190 0.000000
0.630174 0.879992 0.000000
0.693169 0.879793 0.000000
0.756107 0.879595 0.000000
0.818993 0.879397 0.000000
0.881832 0.879199 0.000000
0.944626 0.879001 0.000000
1.000000 0.878819 0.000000
0.000000 0.944140 0.000000
0.058125 0.943935 0.000000
0.122339 0.943732 0.000000
0.186230 0.943531 0.000000
0.249910 0.943330 0.000000
0.313433 0.943130 0.000000
0.376830 0.942930 0.000000
0.440123 0.942731 0.000000
0.503327 0.942532 0.000000
0.566453 0.942333 0.000000
0.629510 0.942134 0.000000
0.692505 0.941935 0.000000
0.755443 0.941737 0.000000
0.818330 0.941539 0.000000
0.881168 0.941341 0.000000
0.943963 0.941143 0.000000
1.000000 0.940961 0.000000
0.000000 1.000000 0.000000
0.057483 1.000000 0.000000
0.121697 1.000000 0.000000
0.185588 1.000000 0.000000
0.249268 1.000000 0.000000
0.312791 1.000000 0.000000
0.376188 1.000000 0.000000
0.439481 1.000000 0.000000
0.502685 1.000000 0.000000
0.565811 1.000000 0.000000
0.628868 1.000000 0.000000
0.691863 1.000000 0.000000
0.754801 1.000000 0.000000
0.817687 1.000000 0.000000
0.880526 1.000000 0.000000
0.943320 1.000000 0.000000
1.000000 1.000000 0.000000
0.003109 0.003109 0.067862
0.068108 0.002904 0.067657
0.132322 0.002701 0.067455
0.196213 0.002500 0.067253
0.259893 0.002299 0.067053
0.323415 0.002099 0.066853
0.386813 0.001899 0.066653
0.450106 0.001700 0.066453
0.513310 0.001500 0.066254
0.576436 0.001302 0.066055
0.639493 0.001103 0.065856
0.702487 0.000904 0.065658
0.765426 0.000706 0.065459
0.828312 0.000508 0.065261
0.891151 0.000310 0.065063
0.953945 0.000112 0.064865
1.000000 0.000000 0.064683
0.002421 0.067432 0.067175
0.067420 0.067227 0.066970
0.131635 0.067025 0.066768
0.195526 0.066824 0.066566
0.259206 0.066623 0.066366
0.322728 0.066423 0.066165
0.386126 0.066223 0.065966
0.449419 0.066023 0.065766
0.512623 0.065824 0.065567
0.575749 0.065625 0.065368
0.638806 0.065427 0.065169
0.701800 0.065228 0.064971
0.764739 0.065030 0.064772
0.827625 0.064831 0.064574
0.890464 0.064633 0.064376
0.953258 0.064435 0.064178
1.000000 0.064253 0.063996
0.001743 0.130980 0.066496
0.066742 0.130775 0.066291
0.130956 0.130573 0.066089
0.194847 0.130371 0.065888
0.258527 0.130170 0.065687
0.322049 0.129970 0.065487
0.385447 0.129770 0.065287
0.448740 0.129571 0.065087
0.511944 0.129372 0.064888
0.575070 0.129173 0.064689
0.638127 0.128974 0.064490
0.701122 0.128775 0.064292
0.764060 0.128577 0.064093
0.826946 0.128379 0.063895
0.889785 0.128181 0.063697
0.952579 0.127983 0.063499
1.000000 0.127801 0.063317
0.001067 0.194207 0.065821
0.066066 0.194002 0.065616
0.130281 0.193800 0.065413
0.194171 0.193599 0.065212
0.257851 0.193398 0.065011
0.321374 0.193198 0.064811
0.384771 0.192998 0.064611
0.448064 0.192798 0.064412
0.511268 0.192599 0.064213
0.574395 0.192400 0.064014
0.637451 0.192201 0.063815
0.700446 0.192003 0.063616
0.763384 0.191805 0.063418
0.826271 0.191606 0.063220
0.889109 0.191408 0.063022
0.951904 0.191210 0.062824
1.000000 0.191028 0.062642
0.000394 0.257226 0.065148
0.065393 0.257021 0.064943
0.129607 0.256818 0.064740
0.193498 0.256617 0.064539
0.257178 0.256416 0.064338
0.320701 0.256216 0.064138
0.384098 0.256016 0.063938
0.447391 0.255817 0.063739
0.510595 0.255618 0.063539
0.573721 0.255419 0.063341
0.636778 0.255220 0.063142
0.699773 0.255021 0.062943
0.762711 0.254823 0.062745
0.825598 0.254625 0.062547
0.888436 0.254427 0.062349
0.951231 0.254229 0.062151
1.000000 0.254047 0.061969
0.000000 0.320089 0.064476
0.064721 0.319884 0.064271
0.128936 0.319681 0.064069
0.192827 0.319480 0.063867
0.256507 0.319279 0.063667
0.320029 0.319079 0.063466
0.383427 0.318879 0.063267
0.446720 0.318680 0.063067
0.509924 0.318481 0.062868
0.573050 0.318282 0.062669
0.636107 0.318083 0.062470
0.699101 0.317884 0.062272
0.762040 0.317686 0.062073
0.824926 0.317488 0.061875
0.887765 0.317290 0.061677
0.950559 0.317092 0.061479
1.000000 0.316910 0.061297
0.000000 0.382828 0.063806
0.064051 0.382623 0.063601
0.128266 0.382420 0.063399
0.192157 0.382219 0.063197
0.255836 0.382018 0.062996
0.319359 0.381818 0.062796
0.382756 0.381618 0.062596
0.446050 0.381419 0.062397
0.509254 0.381220 0.062198
0.572380 0.381021 0.061999
0.635437 0.380822 0.061800
0.698431 0.380623 0.061602
0.761369 0.380425 0.061403
0.824256 0.380227 0.061205
0.887094 0.380029 0.061007
0.949889 0.379831 0.060809
1.000000 0.379649 0.060627
0.000000 0.445464 0.063137
0.063382 0.445259 0.062932
0.127597 0.445056 0.062729
0.191487 0.444855 0.062528
0.255167 0.444654 0.062327
0.318690 0.444454 0.062127
0.382087 0.444254 0.061927
0.445380 0.444055 0.061728
0.508584 0.443855 0.061529
0.571711 0.443657 0.061330
0.634767 0.443458 0.061131
0.697762 0.443259 0.060932
0.760700 0.443061 0.060734
0.823587 0.442863 0.060536
0.886425 0.442665 0.060338
0.949220 0.442467 0.060140
1.000000 0.442285 0.059958
0.000000 0.508011 0.062469
0.062714 0.507806 0.062264
0.126928 0.507604 0.062061
0.190819 0.507403 0.061860
0.254499 0.507202 0.061659
0.318022 0.507002 0.061459
0.381419 0.506802 0.061259
0.444712 0.506602 0.061060
0.507916 0.506403 0.060860
0.571042 0.506204 0.060662
0.634099 0.506005 0.060463
0.697094 0.505807 0.060264
0.760032 0.505608 0.060066
0.822919 0.505410 0.059868
0.885757 0.505212 0.059670
0.948552 0.505014 0.059472
1.000000 0.504832 0.059290
0.000000 0.570482 0.061801
0.062047 0.570277 0.061596
0.126261 0.570074 0.061394
0.190152 0.569873 0.061193
0.253832 0.569672 0.060992
0.317354 0.569472 0.060792
0.380752 0.569272 0.060592
0.444045 0.569073 0.060392
0.507249 0.568874 0.060193
0.570375 0.568675 0.059994
0.633432 0.568476 0.059795
0.696427 0.568277 0.059597
0.759365 0.568079 0.059399
0.822251 0.567881 0.059200
0.885090 0.567683 0.059002
0.947884 0.567485 0.058804
1.000000 0.567303 0.058622
0.000000 0.632884 0.061135
0.061380 0.632679 0.060930
0.125594 0.632477 0.060727
0.189485 0.632275 0.060526
0.253165 0.632074 0.060325
0.316688 0.631874 0.060125
0.380085 0.631674 0.059925
0.443378 0.631475 0.059726
0.506582 0.631276 0.059527
0.569708 0.631077 0.059328
0.632765 0.630878 0.059129
0.695760 0.630679 0.058930
0.758698 0.630481 0.058732
0.821585 0.630283 0.058534
0.884423 0.630085 0.058336
0.947218 0.629887 0.058138
1.000000 0.629705 0.057956
0.000000 0.695224 0.060469
0.060714 0.695019 0.060264
0.124928 0.694817 0.060061
0.188819 0.694616 0.059860
0.252499 0.694415 0.059659
0.316022 0.694215 0.059459
0.379419 0.694015 0.059259
0.442712 0.693815 0.059060
0.505916 0.693616 0.058861
0.569042 0.693417 0.058662
0.632099 0.693219 0.058463
0.695094 0.693020 0.058264
0.758032 0.692822 0.058066
0.820919 0.692623 0.057868
0.883757 0.692425 0.057670
0.946552 0.692227 0.057472
1.000000 0.692045 0.057290
0.000000 0.757509 0.059803
0.060049 0.757304 0.059598
0.124263 0.757102 0.059396
0.188154 0.756900 0.059195
0.251834 0.756700 0.058994
0.315357 0.756499 0.058794
0.378754 0.756300 0.058594
0.442047 0.756100 0.058394
0.505251 0.755901 0.058195
0.568377 0.755702 0.057996
0.631434 0.755503 0.057798
0.694429 0.755305 0.057599
0.757367 0.755106 0.057401
0.820253 0.754908 0.057202
0.883092 0.754710 0.057004
0.945886 0.754512 0.056806
1.000000 0.754330 0.056624
0.000000 0.819742 0.059139
0.059384 0.819537 0.058934
0.123598 0.819335 0.058731
0.187489 0.819134 0.058530
0.251169 0.818933 0.058329
0.314692 0.818733 0.058129
0.378089 0.818533 0.057929
0.441382 0.818333 0.057730
0.504586 0.818134 0.057530
0.567712 0.817935 0.057332
0.630769 0.817737 0.057133
0.693764 0.817538 0.056934
0.756702 0.817340 0.056736
0.819589 0.817141 0.056538
0.882427 0.816943 0.056340
0.945222 0.816745 0.056142
1.000000 0.816563 0.055960
0.000000 0.881928 0.058474
0.058720 0.881724 0.058269
0.122934 0.881521 0.058067
0.186825 0.881320 0.057866
0.250505 0.881119 0.057665
0.314027 0.880919 0.057465
0.377425 0.880719 0.057265
0.440718 0.880520 0.057065
0.503922 0.880320 0.056866
0.567048 0.880121 0.056667
0.630105 0.879923 0.056468
0.693100 0.879724 0.056270
0.756038 0.879526 0.056072
0.818924 0.879328 0.055873
0.881763 0.879129 0.055675
0.944557 0.878932 0.055477
1.000000 0.878750 0.055295
0.000000 0.944071 0.057810
0.058056 0.943866 0.057606
0.122270 0.943663 0.057403
0.186161 0.943462 0.057202
0.249841 0.943261 0.057001
0.313364 0.943061 0.056801
0.376761 0.942861 0.056601
0.440054 0.942662 0.056402
0.503258 0.942463 0.056202
0.566384 0.942264 0.056003
0.629441 0.942065 0.055805
0.692436 0.941866 0.055606
0.755374 0.941668 0.055408
0.818260 0.941470 0.055210
0.881099 0.941272 0.055011
0.943893 0.941074 0.054814
1.000000 0.940892 0.054632
0.000000 1.000000 0.057168
0.057414 1.000000 0.056963
0.121628 1.000000 0.056761
0.185519 1.000000 0.056560
0.249199 1.000000 0.056359
0.312721 1.000000 0.056159
0.376119 1.000000 0.055959
0.439412 1.000000 0.055759
0.502616 1.000000 0.055560
0.565742 1.000000 0.055361
0.628799 1.000000 0.055162
0.691794 1.000000 0.054964
0.754732 1.000000 0.054766
0.817618 1.000000 0.054567
0.880457 1.000000 0.054369
0.943251 1.000000 0.054171
1.000000 1.000000 0.053989
0.003040 0.003040 0.131766
0.068039 0.002835 0.131561
0.132254 0.002633 0.131359
0.196145 0.002432 0.131158
0.259824 0.002231 0.130957
0.323347 0.002031 0.130757
0.386744 0.001831 0.130557
0.450038 0.001631 0.130357
0.513242 0.001432 0.130158
0.576368 0.001233 0.129959
0.639425 0.001035 0.129760
0.702419 0.000836 0.129562
0.765357 0.000638 0.129364
0.828244 0.000439 0.129165
0.891083 0.000241 0.128967
0.953877 0.000043 0.128769
1.000000 0.000000 0.128587
0.002353 0.067364 0.131079
0.067352 0.067159 0.130874
0.131567 0.066957 0.130672
0.195457 0.066755 0.130470
0.259137 0.066555 0.130270
0.322660 0.066355 0.130070
0.386057 0.066155 0.129870
0.449350 0.065955 0.129670
0.512554 0.065756 0.129471
0.575681 0.065557 0.129272
0.638737 0.065358 0.129073
0.701732 0.065160 0.128875
0.764670 0.064961 0.128676
0.827557 0.064763 0.128478
0.890395 0.064565 0.128280
0.953190 0.064367 0.128082
1.000000 0.064185 0.127900
0.001674 0.130911 0.130400
0.066673 0.130707 0.130195
0.130888 0.130504 0.129993
0.194779 0.130303 0.129792
0.258458 0.130102 0.129591
0.321981 0.129902 0.129391
0.385378 0.129702 0.129191
0.448672 0.129503 0.128991
0.511876 0.129303 0.128792
0.575002 0.129104 0.128593
0.638059 0.128906 0.128394
0.701053 0.128707 0.128196
0.763991 0.128509 0.127998
0.826878 0.128311 0.127799
0.889717 0.128113 0.127601
0.952511 0.127915 0.127403
1.000000 0.127733 0.127221
0.000999 0.194139 0.129725
0.065998 0.193934 0.129520
0.130212 0.193732 0.129318
0.194103 0.193530 0.129116
0.257783 0.193330 0.128915
0.321306 0.193129 0.128715
0.384703 0.192930 0.128515
0.447996 0.192730 0.128316
0.511200 0.192531 0.128117
0.574326 0.192332 0.127918
0.637383 0.192133 0.127719
0.700378 0.191935 0.127521
0.763316 0.191736 0.127322
0.826202 0.191538 0.127124
0.889041 0.191340 0.126926
0.951836 0.191142 0.126728
1.000000 0.190960 0.126546
0.000326 0.257157 0.129052
0.065325 0.256953 0.128847
0.129539 0.256750 0.128644
0.193430 0.256549 0.128443
0.257110 0.256348 0.128242
0.320632 0.256148 0.128042
0.384030 0.255948 0.127842
0.447323 0.255749 0.127643
0.510527 0.255549 0.127444
0.573653 0.255350 0.127245
0.636710 0.255152 0.127046
0.699705 0.254953 0.126847
0.762643 0.254755 0.126649
0.825529 0.254557 0.126451
0.888368 0.254359 0.126253
0.951162 0.254161 0.126055
1.000000 0.253979 0.125873
0.000000 0.320020 0.128380
0.064653 0.319816 0.128175
0.128868 0.319613 0.127973
0.192759 0.319412 0.127771
0.256438 0.319211 0.127571
0.319961 0.319011 0.127371
0.383358 0.318811 0.127171
0.446651 0.318612 0.126971
0.509855 0.318412 0.126772
0.572982 0.318213 0.126573
0.636038 0.318015 0.126374
0.699033 0.317816 0.126176
0.761971 0.317618 0.125977
0.824858 0.317420 0.125779
0.887696 0.317222 0.125581
0.950491 0.317024 0.125383
1.000000 0.316842 0.125201
0.000000 0.382759 0.127710
0.063983 0.382555 0.127505
0.128197 0.382352 0.127303
0.192088 0.382151 0.127101
0.255768 0.381950 0.126901
0.319291 0.381750 0.126700
0.382688 0.381550 0.126501
0.445981 0.381351 0.126301
0.509185 0.381151 0.126102
0.572311 0.380952 0.125903
0.635368 0.380754 0.125704
0.698363 0.380555 0.125506
0.761301 0.380357 0.125307
0.824188 0.380159 0.125109
0.887026 0.379960 0.124911
0.949821 0.379763 0.124713
1.000000 0.379581 0.124531
0.000000 0.445395 0.127041
0.063314 0.445190 0.126836
0.127528 0.444988 0.126634
0.191419 0.444787 0.126432
0.255099 0.444586 0.126231
0.318622 0.444386 0.126031
0.382019 0.444186 0.125831
0.445312 0.443986 0.125632
0.508516 0.443787 0.125433
0.571642 0.443588 0.125234
0.634699 0.443390 0.125035
0.697694 0.443191 0.124836
0.760632 0.442993 0.124638
0.823518 0.442794 0.124440
0.886357 0.442596 0.124242
0.949152 0.442398 0.124044
1.000000 0.442216 0.123862
0.000000 0.507943 0.126373
0.062646 0.507738 0.126168
0.126860 0.507536 0.125965
0.190751 0.507334 0.125764
0.254431 0.507134 0.125563
0.317954 0.506933 0.125363
0.381351 0.506734 0.125163
0.444644 0.506534 0.124964
0.507848 0.506335 0.124765
0.570974 0.506136 0.124566
0.634031 0.505937 0.124367
0.697026 0.505739 0.124168
0.759964 0.505540 0.123970
0.822850 0.505342 0.123772
0.885689 0.505144 0.123574
0.948483 0.504946 0.123376
1.000000 0.504764 0.123194
0.000000 0.570413 0.125705
0.061978 0.570209 0.125500
0.126193 0.570006 0.125298
0.190084 0.569805 0.125097
0.253764 0.569604 0.124896
0.317286 0.569404 0.124696
0.380684 0.569204 0.124496
0.443977 0.569005 0.124296
0.507181 0.568805 0.124097
0.570307 0.568606 0.123898
0.633364 0.568408 0.123700
0.696358 0.568209 0.123501
0.759297 0.568011 0.123303
0.822183 0.567813 0.123104
0.885022 0.567615 0.122906
0.947816 0.567417 0.122708
1.000000 0.567235 0.122526
0.000000 0.632816 0.125039
0.061312 0.632611 0.124834
0.125526 0.632408 0.124631
0.189417 0.632207 0.124430
0.253097 0.632006 0.124229
0.316620 0.631806 0.124029
0.380017 0.631606 0.123829
0.443310 0.631407 0.123630
0.506514 0.631207 0.123431
0.569640 0.631009 0.123232
0.632697 0.630810 0.123033
0.695692 0.630611 0.122834
0.758630 0.630413 0.122636
0.821516 0.630215 0.122438
0.884355 0.630017 0.122240
0.947149 0.629819 0.122042
1.000000 0.629637 0.121860
0.000000 0.695156 0.124373
0.060646 0.694951 0.124168
0.124860 0.694749 0.123965
0.188751 0.694547 0.123764
0.252431 0.694347 0.123563
0.315954 0.694146 0.123363
0.379351 0.693947 0.123163
0.442644 0.693747 0.122964
0.505848 0.693548 0.122765
0.568974 0.693349 0.122566
0.632031 0.693150 0.122367
0.695026 0.692952 0.122168
0.757964 0.692753 0.121970
0.820850 0.692555 0.121772
0.883689 0.692357 0.121574
0.946483 0.692159 0.121376
1.000000 0.691977 0.121194
0.000000 0.757441 0.123707
0.059981 0.757236 0.123503
0.124195 0.757033 0.123300
0.188086 0.756832 0.123099
0.251766 0.756631 0.122898
0.315288 0.756431 0.122698
0.378686 0.756231 0.122498
0.441979 0.756032 0.122299
0.505183 0.755833 0.122099
0.568309 0.755634 0.121900
0.631366 0.755435 0.121702
0.694360 0.755236 0.121503
0.757299 0.755038 0.121305
0.820185 0.754840 0.121107
0.883024 0.754642 0.120908
0.945818 0.754444 0.120711
1.000000 0.754262 0.120529
0.000000 0.819674 0.123043
0.059316 0.819469 0.122838
0.123530 0.819267 0.122635
0.187421 0.819065 0.122434
0.251101 0.818865 0.122233
0.314623 0.818664 0.122033
0.378021 0.818465 0.121833
0.441314 0.818265 0.121634
0.504518 0.818066 0.121435
0.567644 0.817867 0.121236
0.630701 0.817668 0.121037
0.693696 0.817470 0.120838
0.756634 0.817271 0.120640
0.819520 0.817073 0.120442
0.882359 0.816875 0.120244
0.945153 0.816677 0.120046
1.000000 0.816495 0.119864
0.000000 0.881860 0.122378
0.058651 0.881655 0.122173
0.122866 0.881453 0.121971
0.186757 0.881251 0.121770
0.250437 0.881051 0.121569
0.313959 0.880851 0.121369
0.377357 0.880651 0.121169
0.440650 0.880451 0.120969
0.503854 0.880252 0.120770
0.566980 0.880053 0.120571
0.630037 0.879854 0.120373
0.693031 0.879656 0.120174
0.755970 0.879457 0.119976
0.818856 0.879259 0.119777
0.881695 0.879061 0.119579
0.944489 0.878863 0.119381
1.000000 0.878681 0.119199
0.000000 0.944002 0.121714
0.057988 0.943798 0.121510
0.122202 0.943595 0.121307
0.186093 0.943394 0.121106
0.249773 0.943193 0.120905
0.313295 0.942993 0.120705
0.376693 0.942793 0.120505
0.439986 0.942594 0.120306
0.503190 0.942394 0.120106
0.566316 0.942195 0.119907
0.629373 0.941997 0.119709
0.692368 0.941798 0.119510
0.755306 0.941600 0.119312
0.818192 0.941402 0.119114
0.881031 0.941203 0.118916
0.943825 0.941006 0.118718
1.000000 0.940824 0.118536
0.000000 1.000000 0.121072
0.057345 1.000000 0.120867
0.121560 1.000000 0.120665
0.185451 1.000000 0.120464
0.249131 1.000000 0.120263
0.312653 1.000000 0.120063
0.376050 1.000000 0.119863
0.439344 1.000000 0.119663
0.502548 1.000000 0.119464
0.565674 1.000000 0.119265
0.628731 1.000000 0.119067
0.691725 1.000000 0.118868
0.754664 1.000000 0.118670
0.817550 1.000000 0.118471
0.880389 1.000000 0.118273
0.943183 1.000000 0.118075
1.000000 1.000000 0.117893
0.002972 0.002972 0.195348
0.067971 0.002767 0.195144
0.132186 0.002565 0.194941
0.196077 0.002364 0.194740
0.259757 0.002163 0.194539
0.323279 0.001963 0.194339
0.386676 0.001763 0.194139
0.449970 0.001564 0.193940
0.513174 0.001364 0.193740
0.576300 0.001165 0.193541
0.639357 0.000967 0.193343
0.702351 0.000768 0.193144
0.765290 0.000570 0.192946
