render-worker/luts/mls.cube
# Generated by render-worker/scripts/generate-luts.mjs
# Do not hand-edit — re-run the script and let math win.
TITLE "EstateMotion MLS Clean — Rec.709 neutral (compliance-safe)"
LUT_3D_SIZE 5
DOMAIN_MIN 0.0 0.0 0.0
DOMAIN_MAX 1.0 1.0 1.0
0.003178 0.003178 0.003178
0.259962 0.002368 0.002368
0.513379 0.001570 0.001570
0.765495 0.000775 0.000775
1.000000 0.000000 0.000000
0.000463 0.257295 0.000463
0.257247 0.256485 0.000000
0.510664 0.255687 0.000000
0.762780 0.254892 0.000000
1.000000 0.254116 0.000000
0.000000 0.508080 0.000000
0.254568 0.507271 0.000000
0.507985 0.506472 0.000000
0.760101 0.505678 0.000000
1.000000 0.504901 0.000000
0.000000 0.757578 0.000000
0.251903 0.756769 0.000000
0.505320 0.755970 0.000000
0.757436 0.755175 0.000000
1.000000 0.754399 0.000000
0.000000 1.000000 0.000000
0.249268 1.000000 0.000000
0.502685 1.000000 0.000000
0.754801 1.000000 0.000000
1.000000 1.000000 0.000000
0.002905 0.002905 0.258721
0.259689 0.002095 0.257911
0.513106 0.001297 0.257113
0.765222 0.000502 0.256318
1.000000 0.000000 0.255542
0.000190 0.257022 0.256006
0.256974 0.256213 0.255197
0.510391 0.255414 0.254398
0.762507 0.254619 0.253603
1.000000 0.253843 0.252827
0.000000 0.507807 0.253327
0.254295 0.506998 0.252518
0.507712 0.506199 0.251719
0.759828 0.505405 0.250925
1.000000 0.504628 0.250148
0.000000 0.757305 0.250662
0.251630 0.756496 0.249853
0.505047 0.755697 0.249054
0.757163 0.754902 0.248259
1.000000 0.754126 0.247483
0.000000 1.000000 0.248027
0.248995 1.000000 0.247217
0.502412 1.000000 0.246419
0.754528 1.000000 0.245624
1.000000 1.000000 0.244848
0.002635 0.002635 0.510914
0.259419 0.001826 0.510105
0.512837 0.001027 0.509306
0.764952 0.000233 0.508511
1.000000 0.000000 0.507735
0.000000 0.256752 0.508199
0.256705 0.255943 0.507390
0.510122 0.255144 0.506591
0.762238 0.254350 0.505797
1.000000 0.253574 0.505020
0.000000 0.507538 0.505520
0.254026 0.506729 0.504711
0.507443 0.505930 0.503912
0.759559 0.505135 0.503118
1.000000 0.504359 0.502341
0.000000 0.757036 0.502855
0.251361 0.756226 0.502046
0.504778 0.755428 0.501247
0.756894 0.754633 0.500452
1.000000 0.753857 0.499676
0.000000 1.000000 0.500220
0.248726 1.000000 0.499411
0.502143 1.000000 0.498612
0.754259 1.000000 0.497817
1.000000 1.000000 0.497041
0.002367 0.002367 0.761812
0.259151 0.001558 0.761003
0.512569 0.000759 0.760204
0.764684 0.000000 0.759409
1.000000 0.000000 0.758633
0.000000 0.256484 0.759097
0.256437 0.255675 0.758288
0.509854 0.254876 0.757489
0.761970 0.254082 0.756695
1.000000 0.253306 0.755919
0.000000 0.507270 0.756419
0.253758 0.506461 0.755609
0.507175 0.505662 0.754810
0.759291 0.504867 0.754016
1.000000 0.504091 0.753240
0.000000 0.756768 0.753753
0.251093 0.755958 0.752944
0.504510 0.755160 0.752145
0.756626 0.754365 0.751351
1.000000 0.753589 0.750574
0.000000 1.000000 0.751118
0.248458 1.000000 0.750309
0.501875 1.000000 0.749510
0.753991 1.000000 0.748716
1.000000 1.000000 0.747939
0.002100 0.002100 1.000000
0.258884 0.001291 1.000000
0.512301 0.000492 1.000000
0.764417 0.000000 1.000000
1.000000 0.000000 1.000000
0.000000 0.256217 1.000000
0.256170 0.255408 1.000000
0.509587 0.254609 1.000000
0.761703 0.253815 1.000000
1.000000 0.253039 1.000000
0.000000 0.507003 1.000000
0.253491 0.506193 1.000000
0.506908 0.505395 1.000000
0.759024 0.504600 1.000000
1.000000 0.503824 1.000000
0.000000 0.756501 1.000000
0.250826 0.755691 1.000000
0.504243 0.754893 1.000000
0.756359 0.754098 1.000000
1.000000 0.753322 1.000000
0.000000 1.000000 1.000000
0.248190 1.000000 1.000000
0.501608 1.000000 0.999569
0.753723 1.000000 0.998774
1.000000 1.000000 0.997998
