render-worker/luts/viral.cube
# Generated by render-worker/scripts/generate-luts.mjs
# Do not hand-edit — re-run the script and let math win.
TITLE "EstateMotion Viral — Teal-Orange (punchy, social-native)"
LUT_3D_SIZE 9
DOMAIN_MIN 0.0 0.0 0.0
DOMAIN_MAX 1.0 1.0 1.0
0.000000 0.013737 0.035819
0.087754 0.013461 0.034881
0.210411 0.013076 0.033579
0.364472 0.012592 0.031944
0.536156 0.012053 0.030122
0.703739 0.011526 0.028344
0.847450 0.011075 0.026819
0.957626 0.010729 0.025650
1.000000 0.010563 0.025088
0.000000 0.098185 0.032770
0.083936 0.096670 0.031920
0.205174 0.095045 0.030678
0.358134 0.093325 0.029099
0.529490 0.091552 0.027325
0.697673 0.089794 0.025585
0.842626 0.088114 0.024091
0.954211 0.086544 0.022951
1.000000 0.085152 0.022392
0.000198 0.214196 0.028577
0.080356 0.212292 0.027786
0.200178 0.210268 0.026574
0.352020 0.208149 0.025022
0.523014 0.205974 0.023266
0.691766 0.203811 0.021534
0.837949 0.201723 0.020042
0.950950 0.199745 0.018901
1.000000 0.197937 0.018316
0.001014 0.359871 0.023312
0.077002 0.357659 0.022577
0.195404 0.355318 0.021392
0.346106 0.352877 0.019863
0.516702 0.350377 0.018124
0.685987 0.347885 0.016398
0.833383 0.345464 0.014904
0.947802 0.343150 0.013761
1.000000 0.341002 0.013152
0.001931 0.523471 0.017399
0.073806 0.521159 0.016712
0.190790 0.518704 0.015546
0.340331 0.516147 0.014034
0.510493 0.513525 0.012304
0.680277 0.510904 0.010577
0.828868 0.508349 0.009076
0.944705 0.505898 0.007922
1.000000 0.503615 0.007289
0.002840 0.685686 0.011537
0.070661 0.683530 0.010887
0.186226 0.681221 0.009731
0.334589 0.678806 0.008227
0.504281 0.676321 0.006496
0.674529 0.673830 0.004760
0.824296 0.671401 0.003241
0.941554 0.669071 0.002068
1.000000 0.666912 0.001401
0.003636 0.827831 0.006399
0.067462 0.826026 0.005780
0.181610 0.824057 0.004627
0.328775 0.821980 0.003123
0.497962 0.819829 0.001386
0.668639 0.817668 0.000000
0.819563 0.815565 0.000000
0.938241 0.813558 0.000000
1.000000 0.811723 0.000000
0.004262 0.939518 0.002363
0.064149 0.938130 0.001770
0.176880 0.936570 0.000618
0.322830 0.934900 0.000000
0.491477 0.933155 0.000000
0.662545 0.931396 0.000000
0.814606 0.929693 0.000000
0.934702 0.928085 0.000000
1.000000 0.926650 0.000000
0.004736 1.000000 0.000000
0.060746 1.000000 0.000000
0.172067 1.000000 0.000000
0.316791 1.000000 0.000000
0.484869 1.000000 0.000000
0.656299 1.000000 0.000000
0.809481 1.000000 0.000000
0.930999 1.000000 0.000000
1.000000 1.000000 0.000000
0.000000 0.013645 0.122341
0.087367 0.013371 0.120159
0.209881 0.012988 0.117616
0.363832 0.012505 0.114745
0.535484 0.011968 0.111691
0.703130 0.011442 0.108685
0.846967 0.010992 0.105936
0.957284 0.010647 0.103549
1.000000 0.010480 0.101771
0.000000 0.097672 0.115130
0.083549 0.096161 0.113053
0.204644 0.094539 0.110588
0.357492 0.092823 0.107790
0.528813 0.091053 0.104801
0.697054 0.089298 0.101850
0.842132 0.087621 0.099150
0.953860 0.086053 0.096808
1.000000 0.084662 0.095051
0.000239 0.213551 0.106823
0.079973 0.211651 0.104823
0.199651 0.209630 0.102404
0.351378 0.207514 0.099650
0.522333 0.205342 0.096697
0.691140 0.203182 0.093772
0.837446 0.201097 0.091090
0.950590 0.199122 0.088765
1.000000 0.197314 0.086998
0.001052 0.359121 0.097501
0.076621 0.356913 0.095574
0.194880 0.354574 0.093199
0.345465 0.352136 0.090486
0.516018 0.349639 0.087566
0.685355 0.347148 0.084664
0.832872 0.344730 0.081998
0.947433 0.342417 0.079687
1.000000 0.340271 0.077914
0.001966 0.522687 0.087586
0.073429 0.520377 0.085724
0.190269 0.517924 0.083385
0.339691 0.515368 0.080706
0.509806 0.512748 0.077812
0.679639 0.510128 0.074926
0.828348 0.507575 0.072270
0.944328 0.505124 0.069966
1.000000 0.502842 0.068186
0.002873 0.684956 0.077775
0.070288 0.682801 0.075968
0.185709 0.680493 0.073656
0.333951 0.678078 0.071002
0.503593 0.675593 0.068125
0.673885 0.673103 0.065247
0.823769 0.670673 0.062590
0.941169 0.668343 0.060283
1.000000 0.666183 0.058485
0.003668 0.827220 0.068745
0.067093 0.825415 0.066985
0.181097 0.823447 0.064693
0.328139 0.821370 0.062056
0.497272 0.819218 0.059189
0.667990 0.817057 0.056311
0.819029 0.814953 0.053647
0.937849 0.812945 0.051330
1.000000 0.811109 0.049506
0.004292 0.939049 0.060871
0.063784 0.937660 0.059155
0.176371 0.936100 0.056881
0.322197 0.934431 0.054258
0.490786 0.932685 0.051400
0.661891 0.930926 0.048520
0.814065 0.929222 0.045846
0.934303 0.927612 0.043516
1.000000 0.926176 0.041659
0.004767 1.000000 0.054578
0.060388 1.000000 0.052877
0.171565 1.000000 0.050593
0.316162 1.000000 0.047959
0.484179 1.000000 0.045082
0.655642 1.000000 0.042173
0.808934 1.000000 0.039462
0.930595 1.000000 0.037090
1.000000 1.000000 0.035168
0.000000 0.013516 0.243499
0.087000 0.013243 0.240897
0.209371 0.012860 0.237933
0.363212 0.012379 0.234639
0.534833 0.011842 0.231161
0.702541 0.011317 0.227730
0.846505 0.010866 0.224555
0.956965 0.010521 0.221741
1.000000 0.010354 0.219535
0.000000 0.097119 0.234877
0.083185 0.095612 0.232381
0.204137 0.093993 0.229492
0.356873 0.092279 0.226271
0.528158 0.090511 0.222858
0.696458 0.088758 0.219481
0.841661 0.087083 0.216354
0.953532 0.085517 0.213585
1.000000 0.084127 0.211398
0.000302 0.212863 0.225147
0.079613 0.210966 0.222727
0.199148 0.208948 0.219884
0.350761 0.206834 0.216706
0.521677 0.204665 0.213328
0.690539 0.202507 0.209976
0.836968 0.200424 0.206867
0.950255 0.198450 0.204115
1.000000 0.196643 0.201918
0.001114 0.358326 0.214399
0.076266 0.356121 0.212051
0.194381 0.353783 0.209252
0.344850 0.351348 0.206114
0.515360 0.348852 0.202769
0.684749 0.346363 0.199440
0.832386 0.343945 0.196347
0.947091 0.341634 0.193608
1.000000 0.339489 0.191406
0.002027 0.521855 0.203053
0.073078 0.519546 0.200770
0.189774 0.517094 0.198007
0.339079 0.514539 0.194903
0.509147 0.511919 0.191583
0.679027 0.509300 0.188271
0.827856 0.506746 0.185187
0.943979 0.504296 0.182455
1.000000 0.502013 0.180246
0.002934 0.684174 0.191808
0.069942 0.682020 0.189579
0.185220 0.679711 0.186843
0.333341 0.677296 0.183763
0.502933 0.674811 0.180461
0.673270 0.672320 0.177156
0.823271 0.669889 0.174072
0.940814 0.667558 0.171338
1.000000 0.665397 0.169112
0.003728 0.826554 0.181340
0.066753 0.824750 0.179158
0.180613 0.822780 0.176442
0.327533 0.820702 0.173380
0.496613 0.818550 0.170089
0.667370 0.816387 0.166784
0.818524 0.814281 0.163694
0.937487 0.812272 0.160950
1.000000 0.810434 0.158696
0.004353 0.938521 0.172028
0.063450 0.937133 0.169891
0.175894 0.935572 0.167192
0.321594 0.933902 0.164146
0.490127 0.932155 0.160863
0.661268 0.930395 0.157557
0.813555 0.928689 0.154457
0.933935 0.927078 0.151700
1.000000 0.925640 0.149415
0.004829 1.000000 0.164289
0.060061 1.000000 0.162167
0.171095 1.000000 0.159459
0.315566 1.000000 0.156401
0.483523 1.000000 0.153099
0.655018 1.000000 0.149766
0.808421 1.000000 0.146629
0.930224 1.000000 0.143832
1.000000 1.000000 0.141482
0.000000 0.013353 0.396612
0.086652 0.013081 0.393689
0.208880 0.012699 0.390398
0.362612 0.012218 0.386776
0.534201 0.011681 0.382967
0.701971 0.011156 0.379201
0.846061 0.010706 0.375689
0.956664 0.010360 0.372536
1.000000 0.010193 0.369986
0.000000 0.096532 0.386901
0.082840 0.095029 0.384077
0.203649 0.093412 0.380856
0.356273 0.091700 0.377299
0.527522 0.089935 0.373548
0.695881 0.088184 0.369830
0.841208 0.086510 0.366360
0.953222 0.084946 0.363246
1.000000 0.083557 0.360708
0.000384 0.212140 0.376050
0.079272 0.210247 0.373295
0.198664 0.208232 0.370113
0.350162 0.206120 0.366593
0.521039 0.203953 0.362871
0.689956 0.201796 0.359172
0.836507 0.199715 0.355713
0.949937 0.197743 0.352609
1.000000 0.195937 0.350056
0.001194 0.357496 0.364158
0.075929 0.355293 0.361469
0.193902 0.352958 0.358324
0.344253 0.350524 0.354838
0.514721 0.348029 0.351142
0.684160 0.345542 0.347460
0.831919 0.343125 0.344011
0.946766 0.340815 0.340915
1.000000 0.338671 0.338352
0.002107 0.520987 0.351644
0.072747 0.518680 0.349013
0.189300 0.516228 0.345899
0.338485 0.513674 0.342441
0.508507 0.511055 0.338765
0.678434 0.508435 0.335093
0.827382 0.505882 0.331648
0.943648 0.503431 0.328553
1.000000 0.501149 0.325976
0.003013 0.683355 0.339207
0.069616 0.681202 0.336625
0.184751 0.678893 0.333531
0.332751 0.676478 0.330092
0.502292 0.673992 0.326428
0.672673 0.671500 0.322759
0.822791 0.669069 0.319308
0.940476 0.666736 0.316205
1.000000 0.664575 0.313606
0.003807 0.825852 0.327526
0.066432 0.824047 0.324985
0.180149 0.822077 0.321906
0.326946 0.819998 0.318479
0.495972 0.817845 0.314820
0.666770 0.815681 0.311146
0.818039 0.813573 0.307683
0.937144 0.811562 0.304565
1.000000 0.809723 0.301934
0.004432 0.937958 0.316981
0.063135 0.936569 0.314479
0.175436 0.935008 0.311412
0.321012 0.933337 0.307996
0.489486 0.931588 0.304340
0.660664 0.929827 0.300659
0.813063 0.928119 0.297182
0.933587 0.926506 0.294046
1.000000 0.925067 0.291378
0.004911 1.000000 0.307982
0.059754 1.000000 0.305490
0.170645 1.000000 0.302408
0.314990 1.000000 0.298975
0.482885 1.000000 0.295296
0.654413 1.000000 0.291582
0.807926 1.000000 0.288063
0.929871 1.000000 0.284883
1.000000 1.000000 0.282146
0.000000 0.013170 0.567586
0.086315 0.012899 0.564576
0.208400 0.012517 0.561192
0.362022 0.012037 0.557474
0.533579 0.011500 0.553564
0.701410 0.010976 0.549693
0.845627 0.010525 0.546073
0.956373 0.010179 0.542807
1.000000 0.010010 0.540138
0.000000 0.095926 0.557571
0.082506 0.094426 0.554649
0.203172 0.092811 0.551324
0.355683 0.091101 0.547659
0.526897 0.089338 0.543796
0.695314 0.087589 0.539962
0.840766 0.085916 0.536371
0.952922 0.084354 0.533133
1.000000 0.082965 0.530467
0.000476 0.211398 0.546368
0.078943 0.209508 0.543504
0.198191 0.207494 0.540206
0.349575 0.205385 0.536568
0.520412 0.203220 0.532722
0.689384 0.201065 0.528896
0.836058 0.198985 0.525306
0.949631 0.197014 0.522067
1.000000 0.195209 0.519373
0.001286 0.356644 0.534084
0.075605 0.354444 0.531275
0.193434 0.352110 0.528004
0.343669 0.349678 0.524388
0.514093 0.347185 0.520558
0.683583 0.344698 0.516738
0.831463 0.342282 0.513147
0.946454 0.339973 0.509905
1.000000 0.337831 0.507191
0.002198 0.520096 0.521140
0.072428 0.517791 0.518378
0.188837 0.515340 0.515126
0.337904 0.512786 0.511527
0.507878 0.510167 0.507707
0.677853 0.507548 0.503886
0.826920 0.504994 0.500288
0.943329 0.502543 0.497036
1.000000 0.500261 0.494298
0.003104 0.682514 0.508232
0.069303 0.680361 0.505508
0.184294 0.678051 0.502266
0.332173 0.675636 0.498675
0.501664 0.673149 0.494856
0.672088 0.670656 0.491027
0.822323 0.668223 0.487412
0.940152 0.665890 0.484142
1.000000 0.663727 0.481371
0.003899 0.825125 0.496041
0.066125 0.823320 0.493347
0.179699 0.821349 0.490109
0.326373 0.819269 0.486520
0.495344 0.817114 0.482695
0.666182 0.814949 0.478850
0.817565 0.812839 0.475213
0.936814 0.810826 0.471917
1.000000 0.808985 0.469104
0.004524 0.937369 0.484950
0.062834 0.935980 0.482284
0.174991 0.934417 0.479047
0.320443 0.932745 0.475458
0.488860 0.930996 0.471626
0.660073 0.929232 0.467764
0.812585 0.927523 0.464102
0.933251 0.925908 0.460778
1.000000 0.924467 0.457918
0.005005 1.000000 0.475359
0.059462 1.000000 0.472693
0.170210 1.000000 0.469431
0.314428 1.000000 0.465814
0.482262 1.000000 0.461948
0.653822 1.000000 0.458044
0.807445 1.000000 0.454330
0.929533 1.000000 0.450951
1.000000 1.000000 0.448010
0.000000 0.012991 0.734243
0.085975 0.012721 0.731424
0.207919 0.012340 0.728226
0.361430 0.011860 0.724690
0.532955 0.011323 0.720958
0.700848 0.010798 0.717262
0.845190 0.010347 0.713812
0.956080 0.010000 0.710713
1.000000 0.009830 0.708206
0.000000 0.095324 0.724860
0.082171 0.093826 0.722120
0.202694 0.092214 0.718969
0.355093 0.090506 0.715477
0.526271 0.088745 0.711781
0.694745 0.086996 0.708111
0.840322 0.085325 0.704680
0.952622 0.083764 0.701598
1.000000 0.082375 0.699082
0.000567 0.210658 0.714244
0.078613 0.208771 0.711551
0.197719 0.206760 0.708418
0.348987 0.204652 0.704941
0.519785 0.202488 0.701252
0.688811 0.200335 0.697579
0.835608 0.198256 0.694138
0.949325 0.196286 0.691045
1.000000 0.194481 0.688491
0.001377 0.355795 0.702512
0.075281 0.353597 0.699862
0.192967 0.351264 0.696745
0.343085 0.348833 0.693280
0.513465 0.346341 0.689597
0.683006 0.343855 0.685919
0.831007 0.341440 0.682466
0.946141 0.339131 0.679359
1.000000 0.336990 0.676776
0.002289 0.519206 0.690080
0.072109 0.516902 0.687467
0.188375 0.514451 0.684358
0.337323 0.511898 0.680899
0.507250 0.509278 0.677215
0.677272 0.506659 0.673526
0.826457 0.504105 0.670055
0.943010 0.501653 0.666927
1.000000 0.499372 0.664308
0.003195 0.681671 0.677645
0.068991 0.679518 0.675059
0.183838 0.677208 0.671950
0.331597 0.674792 0.668488
0.501036 0.672304 0.664793
0.671504 0.669810 0.661085
0.821855 0.667376 0.657587
0.939828 0.665040 0.654429
1.000000 0.662876 0.651766
0.003991 0.824396 0.665888
0.065820 0.822591 0.663322
0.179250 0.820618 0.660205
0.325801 0.818537 0.656734
0.494718 0.816380 0.653022
0.665595 0.814213 0.649287
0.817093 0.812101 0.645755
0.936485 0.810086 0.642561
1.000000 0.808244 0.639845
0.004617 0.936776 0.655193
0.062535 0.935387 0.652643
0.174549 0.933823 0.649517
0.319876 0.932149 0.646034
0.488235 0.930398 0.642304
0.659484 0.928633 0.638541
0.812108 0.926921 0.634973
0.932917 0.925305 0.631740
1.000000 0.923862 0.628965
0.005102 1.000000 0.645952
0.059172 1.000000 0.643390
0.169777 1.000000 0.640227
0.313869 1.000000 0.636706
0.481641 1.000000 0.632932
0.653233 1.000000 0.629114
0.806966 1.000000 0.625483
0.929196 1.000000 0.622183
1.000000 1.000000 0.619317
0.000000 0.012838 0.876595
0.085623 0.012569 0.874157
0.207425 0.012188 0.871334
0.360825 0.011708 0.868170
0.532318 0.011171 0.864810
0.700272 0.010645 0.861482
0.844741 0.010193 0.858398
0.955773 0.009846 0.855664
1.000000 0.009674 0.853517
0.000003 0.094748 0.868484
0.081823 0.093253 0.866118
0.202204 0.091642 0.863338
0.354490 0.089936 0.860213
0.525631 0.088176 0.856884
0.694164 0.086429 0.853577
0.839864 0.084759 0.850507
0.952308 0.083198 0.847785
1.000000 0.081810 0.845624
0.000646 0.209944 0.859112
0.078271 0.208059 0.856788
0.197234 0.206050 0.854021
0.348388 0.203944 0.850906
0.519145 0.201781 0.847578
0.688225 0.199629 0.844263
0.835145 0.197551 0.841178
0.949005 0.195582 0.838439
1.000000 0.193779 0.836235
0.001455 0.354969 0.848605
0.074944 0.352773 0.846320
0.192487 0.350442 0.843563
0.342488 0.348012 0.840455
0.512825 0.345521 0.837127
0.682417 0.343035 0.833802
0.830538 0.340620 0.830699
0.945816 0.338312 0.827940
1.000000 0.336171 0.825702
0.002368 0.518339 0.837379
0.071779 0.516036 0.835125
0.187902 0.513585 0.832370
0.336731 0.511032 0.829263
0.506611 0.508412 0.825928
0.676679 0.505792 0.822585
0.825983 0.503238 0.819459
0.942680 0.500785 0.816673
1.000000 0.498503 0.814393
0.003275 0.680851 0.826127
0.068667 0.678698 0.823894
0.183372 0.676387 0.821133
0.331009 0.673969 0.818017
0.500398 0.671480 0.814666
0.670908 0.668984 0.811298
0.821377 0.666548 0.808138
0.939492 0.664211 0.805316
1.000000 0.662046 0.802986
0.004072 0.823688 0.815531
0.065503 0.821882 0.813311
0.178790 0.819908 0.810536
0.325219 0.817825 0.807405
0.494081 0.815667 0.804031
0.664997 0.813497 0.800631
0.816610 0.811383 0.797430
0.936145 0.809365 0.794566
1.000000 0.807521 0.792175
0.004699 0.936205 0.805975
0.062226 0.934815 0.803765
0.174097 0.933249 0.800975
0.319299 0.931574 0.797825
0.487599 0.929821 0.794427
0.658885 0.928053 0.790991
0.811621 0.926339 0.787748
0.932572 0.924720 0.784838
1.000000 0.923274 0.782382
0.005188 1.000000 0.797842
0.058872 1.000000 0.795614
0.169334 1.000000 0.792780
0.313300 1.000000 0.789586
0.481010 1.000000 0.786135
0.652633 1.000000 0.782639
0.806477 1.000000 0.779325
0.928850 1.000000 0.776341
1.000000 1.000000 0.773786
0.000000 0.012722 0.985139
0.085253 0.012454 0.983124
0.206912 0.012073 0.980722
0.360202 0.011593 0.977979
0.531662 0.011055 0.975039
0.699677 0.010529 0.972130
0.844272 0.010076 0.969465
0.955447 0.009728 0.967150
1.000000 0.009554 0.965419
0.000063 0.094208 0.978454
0.081457 0.092716 0.976512
0.201695 0.091107 0.974153
0.353868 0.089403 0.971450
0.524973 0.087644 0.968541
0.693563 0.085898 0.965654
0.839388 0.084229 0.963003
0.951975 0.082669 0.960700
1.000000 0.081280 0.958955
0.000705 0.209266 0.970500
0.077911 0.207384 0.968600
0.196731 0.205376 0.966255
0.347770 0.203272 0.963562
0.518487 0.201111 0.960655
0.687620 0.198959 0.957760
0.834663 0.196882 0.955094
0.948666 0.194914 0.952774
1.000000 0.193111 0.950987
0.001515 0.354180 0.961411
0.074590 0.351986 0.959551
0.191990 0.349656 0.957215
0.341874 0.347226 0.954530
0.512167 0.344736 0.951623
0.681808 0.342251 0.948718
0.830050 0.339836 0.946034
0.945471 0.337528 0.943694
1.000000 0.335388 0.941873
0.002428 0.517508 0.951601
0.071431 0.515205 0.949772
0.187411 0.512755 0.947439
0.336120 0.510201 0.944754
0.505953 0.507581 0.941840
0.676068 0.504961 0.938918
0.825490 0.502405 0.936210
0.942330 0.499952 0.933843
1.000000 0.497669 0.931981
0.003336 0.680065 0.941763
0.068326 0.677912 0.939955
0.182888 0.675600 0.937615
0.330404 0.673181 0.934921
0.499741 0.670690 0.931991
0.670294 0.668193 0.929043
0.820879 0.665755 0.926302
0.939138 0.663416 0.923899
1.000000 0.661249 0.921985
0.004135 0.823015 0.932577
0.065169 0.821208 0.930782
0.178313 0.819232 0.928429
0.324619 0.817147 0.925719
0.493426 0.814987 0.922765
0.664381 0.812815 0.919784
0.816108 0.810699 0.917002
0.935786 0.808679 0.914556
1.000000 0.806832 0.912581
0.004764 0.935667 0.924429
0.061899 0.934276 0.922644
0.173627 0.932709 0.920275
0.318705 0.931031 0.917546
0.486946 0.929277 0.914567
0.658267 0.927507 0.911551
0.811115 0.925790 0.908726
0.932209 0.924168 0.906232
1.000000 0.922720 0.904191
0.005256 1.000000 0.917694
0.058554 1.000000 0.915890
0.168874 1.000000 0.913476
0.312713 1.000000 0.910702
0.480361 1.000000 0.907670
0.652016 1.000000 0.904591
0.805969 1.000000 0.901695
0.928485 1.000000 0.899126
1.000000 1.000000 0.896986
0.000000 0.012691 1.000000
0.084869 0.012423 1.000000
0.206384 0.012040 1.000000
0.359563 0.011557 1.000000
0.530988 0.011017 1.000000
0.699063 0.010488 1.000000
0.843782 0.010032 1.000000
0.955101 0.009681 1.000000
1.000000 0.009505 1.000000
0.000107 0.093750 1.000000
0.081075 0.092259 1.000000
0.201170 0.090650 1.000000
0.353230 0.088945 1.000000
0.524297 0.087185 1.000000
0.692942 0.085438 1.000000
0.838891 0.083768 1.000000
0.951620 0.082207 1.000000
1.000000 0.080817 1.000000
0.000747 0.208664 1.000000
0.077533 0.206783 1.000000
0.196210 0.204775 1.000000
0.347132 0.202670 1.000000
0.517808 0.200507 1.000000
0.686994 0.198355 1.000000
0.834158 0.196277 1.000000
0.948304 0.194307 1.000000
1.000000 0.192504 1.000000
0.001554 0.353459 1.000000
0.074215 0.351265 1.000000
0.191472 0.348934 1.000000
0.341238 0.346504 1.000000
0.511485 0.344012 1.000000
0.681175 0.341525 1.000000
0.829536 0.339108 1.000000
0.945101 0.336798 1.000000
1.000000 0.334657 1.000000
0.002464 0.516737 1.000000
0.071059 0.514433 1.000000
0.186896 0.511981 1.000000
0.335485 0.509425 1.000000
0.505268 0.506803 1.000000
0.675429 0.504180 1.000000
0.824971 0.501623 1.000000
0.941954 0.499168 1.000000
1.000000 0.496884 1.000000
0.003370 0.679331 1.000000
0.067958 0.677177 1.000000
0.182377 0.674863 1.000000
0.329773 0.672442 1.000000
0.499058 0.669950 1.000000
0.669654 0.667450 1.000000
0.820356 0.665009 1.000000
0.938759 0.662668 0.999075
1.000000 0.660497 0.998382
0.004171 0.822391 1.000000
0.064810 0.820582 1.000000
0.177812 0.818604 1.000000
0.323995 0.816516 1.000000
0.492746 0.814353 0.998386
0.663741 0.812178 0.996630
0.815582 0.810059 0.995078
0.935404 0.808035 0.993866
1.000000 0.806184 0.993129
0.004803 0.935175 0.999260
0.061549 0.933783 0.998702
0.173134 0.932213 0.997561
0.318088 0.930533 0.996067
0.486271 0.928775 0.994327
0.657626 0.927002 0.992553
0.810587 0.925282 0.990974
0.931825 0.923657 0.989733
1.000000 0.922205 0.988945
0.005301 1.000000 0.996644
0.058215 1.000000 0.996083
0.168392 1.000000 0.994915
0.312105 1.000000 0.993392
0.479691 1.000000 0.991616
0.651377 1.000000 0.989797
0.805441 1.000000 0.988164
0.928099 1.000000 0.986864
1.000000 1.000000 0.985995
