render-worker/luts/viral.cube
# Generated by render-worker/scripts/generate-luts.mjs
# Do not hand-edit — re-run the script and let math win.
TITLE "EstateMotion Viral — Teal-Orange (punchy, social-native)"
LUT_3D_SIZE 5
DOMAIN_MIN 0.0 0.0 0.0
DOMAIN_MAX 1.0 1.0 1.0
0.000000 0.013737 0.035819
0.210411 0.013076 0.033579
0.536156 0.012053 0.030122
0.847450 0.011075 0.026819
1.000000 0.010563 0.025088
0.000198 0.214196 0.028577
0.200178 0.210268 0.026574
0.523014 0.205974 0.023266
0.837949 0.201723 0.020042
1.000000 0.197937 0.018316
0.001931 0.523471 0.017399
0.190790 0.518704 0.015546
0.510493 0.513525 0.012304
0.828868 0.508349 0.009076
1.000000 0.503615 0.007289
0.003636 0.827831 0.006399
0.181610 0.824057 0.004627
0.497962 0.819829 0.001386
0.819563 0.815565 0.000000
1.000000 0.811723 0.000000
0.004736 1.000000 0.000000
0.172067 1.000000 0.000000
0.484869 1.000000 0.000000
0.809481 1.000000 0.000000
1.000000 1.000000 0.000000
0.000000 0.013516 0.243499
0.209371 0.012860 0.237933
0.534833 0.011842 0.231161
0.846505 0.010866 0.224555
1.000000 0.010354 0.219535
0.000302 0.212863 0.225147
0.199148 0.208948 0.219884
0.521677 0.204665 0.213328
0.836968 0.200424 0.206867
1.000000 0.196643 0.201918
0.002027 0.521855 0.203053
0.189774 0.517094 0.198007
0.509147 0.511919 0.191583
0.827856 0.506746 0.185187
1.000000 0.502013 0.180246
0.003728 0.826554 0.181340
0.180613 0.822780 0.176442
0.496613 0.818550 0.170089
0.818524 0.814281 0.163694
1.000000 0.810434 0.158696
0.004829 1.000000 0.164289
0.171095 1.000000 0.159459
0.483523 1.000000 0.153099
0.808421 1.000000 0.146629
1.000000 1.000000 0.141482
0.000000 0.013170 0.567586
0.208400 0.012517 0.561192
0.533579 0.011500 0.553564
0.845627 0.010525 0.546073
1.000000 0.010010 0.540138
0.000476 0.211398 0.546368
0.198191 0.207494 0.540206
0.520412 0.203220 0.532722
0.836058 0.198985 0.525306
1.000000 0.195209 0.519373
0.002198 0.520096 0.521140
0.188837 0.515340 0.515126
0.507878 0.510167 0.507707
0.826920 0.504994 0.500288
1.000000 0.500261 0.494298
0.003899 0.825125 0.496041
0.179699 0.821349 0.490109
0.495344 0.817114 0.482695
0.817565 0.812839 0.475213
1.000000 0.808985 0.469104
0.005005 1.000000 0.475359
0.170210 1.000000 0.469431
0.482262 1.000000 0.461948
0.807445 1.000000 0.454330
1.000000 1.000000 0.448010
0.000000 0.012838 0.876595
0.207425 0.012188 0.871334
0.532318 0.011171 0.864810
0.844741 0.010193 0.858398
1.000000 0.009674 0.853517
0.000646 0.209944 0.859112
0.197234 0.206050 0.854021
0.519145 0.201781 0.847578
0.835145 0.197551 0.841178
1.000000 0.193779 0.836235
0.002368 0.518339 0.837379
0.187902 0.513585 0.832370
0.506611 0.508412 0.825928
0.825983 0.503238 0.819459
1.000000 0.498503 0.814393
0.004072 0.823688 0.815531
0.178790 0.819908 0.810536
0.494081 0.815667 0.804031
0.816610 0.811383 0.797430
1.000000 0.807521 0.792175
0.005188 1.000000 0.797842
0.169334 1.000000 0.792780
0.481010 1.000000 0.786135
0.806477 1.000000 0.779325
1.000000 1.000000 0.773786
0.000000 0.012691 1.000000
0.206384 0.012040 1.000000
0.530988 0.011017 1.000000
0.843782 0.010032 1.000000
1.000000 0.009505 1.000000
0.000747 0.208664 1.000000
0.196210 0.204775 1.000000
0.517808 0.200507 1.000000
0.834158 0.196277 1.000000
1.000000 0.192504 1.000000
0.002464 0.516737 1.000000
0.186896 0.511981 1.000000
0.505268 0.506803 1.000000
0.824971 0.501623 1.000000
1.000000 0.496884 1.000000
0.004171 0.822391 1.000000
0.177812 0.818604 1.000000
0.492746 0.814353 0.998386
0.815582 0.810059 0.995078
1.000000 0.806184 0.993129
0.005301 1.000000 0.996644
0.168392 1.000000 0.994915
0.479691 1.000000 0.991616
0.805441 1.000000 0.988164
1.000000 1.000000 0.985995
