render-worker/luts/viral.cube
# Generated by render-worker/scripts/generate-luts.mjs
# Do not hand-edit — re-run the script and let math win.
TITLE "EstateMotion Viral — Teal-Orange (punchy, social-native)"
LUT_3D_SIZE 17
DOMAIN_MIN 0.0 0.0 0.0
DOMAIN_MAX 1.0 1.0 1.0
0.000000 0.013737 0.035819
0.039369 0.013613 0.035394
0.087754 0.013461 0.034881
0.144754 0.013282 0.034276
0.210411 0.013076 0.033579
0.284109 0.012844 0.032797
0.364472 0.012592 0.031944
0.449381 0.012325 0.031043
0.536156 0.012053 0.030122
0.621870 0.011783 0.029213
0.703739 0.011526 0.028344
0.779463 0.011288 0.027540
0.847450 0.011075 0.026819
0.906880 0.010888 0.026188
0.957626 0.010729 0.025650
1.000000 0.010595 0.025199
1.000000 0.010563 0.025088
0.000000 0.052210 0.034432
0.037777 0.051561 0.034042
0.085814 0.050884 0.033551
0.142454 0.050181 0.032969
0.207760 0.049452 0.032295
0.281147 0.048698 0.031535
0.361271 0.047925 0.030704
0.446041 0.047138 0.029823
0.532793 0.046346 0.028921
0.618605 0.045558 0.028029
0.700678 0.044784 0.027177
0.776688 0.044029 0.026389
0.845010 0.043300 0.025682
0.904794 0.042598 0.025066
0.955888 0.041926 0.024543
0.998683 0.041280 0.024107
1.000000 0.040732 0.023998
0.000000 0.098185 0.032770
0.036242 0.097444 0.032403
0.083936 0.096670 0.031920
0.140217 0.095870 0.031345
0.205174 0.095045 0.030678
0.278251 0.094195 0.029925
0.358134 0.093325 0.029099
0.442762 0.092441 0.028224
0.529490 0.091552 0.027325
0.615397 0.090667 0.026436
0.697673 0.089794 0.025585
0.773967 0.088942 0.024797
0.842626 0.088114 0.024091
0.902766 0.087315 0.023475
0.954211 0.086544 0.022951
0.997333 0.085801 0.022515
1.000000 0.085152 0.022392
0.000000 0.152155 0.030819
0.034766 0.151318 0.030475
0.082116 0.150444 0.029999
0.138039 0.149543 0.029432
0.202646 0.148617 0.028772
0.275410 0.147666 0.028026
0.355050 0.146695 0.027207
0.439532 0.145710 0.026336
0.526230 0.144720 0.025442
0.612227 0.143732 0.024555
0.694701 0.142758 0.023706
0.771278 0.141803 0.022919
0.840272 0.140873 0.022212
0.900769 0.139971 0.021596
0.952565 0.139098 0.021072
0.996015 0.138252 0.020637
1.000000 0.137496 0.020500
0.000198 0.214196 0.028577
0.033348 0.213265 0.028255
0.080356 0.212292 0.027786
0.135922 0.211293 0.027226
0.200178 0.210268 0.026574
0.272627 0.209219 0.025835
0.352020 0.208149 0.025022
0.436351 0.207064 0.024156
0.523014 0.205974 0.023266
0.609097 0.204886 0.022382
0.691766 0.203811 0.021534
0.768622 0.202755 0.020748
0.837949 0.201723 0.020042
0.898801 0.200720 0.019425
0.950950 0.199745 0.018901
0.994729 0.198798 0.018466
1.000000 0.197937 0.018316
0.000588 0.283819 0.026061
0.031987 0.282804 0.025761
0.078654 0.281742 0.025298
0.133862 0.280655 0.024746
0.197766 0.279541 0.024100
0.269898 0.278403 0.023368
0.349040 0.277243 0.022561
0.433217 0.276069 0.021700
0.519840 0.274888 0.020814
0.606003 0.273709 0.019932
0.688863 0.272542 0.019086
0.765996 0.271394 0.018300
0.835654 0.270270 0.017593
0.896863 0.269175 0.016976
0.949364 0.268107 0.016452
0.993474 0.267067 0.016016
1.000000 0.266109 0.015853
0.001014 0.359871 0.023312
0.030674 0.358791 0.023033
0.077002 0.357659 0.022577
0.131852 0.356502 0.022030
0.195404 0.355318 0.021392
0.267218 0.354108 0.020665
0.346106 0.352877 0.019863
0.430123 0.351631 0.019007
0.516702 0.350377 0.018124
0.602942 0.349126 0.017244
0.685987 0.347885 0.016398
0.763394 0.346662 0.015612
0.833383 0.345464 0.014904
0.894947 0.344293 0.014286
0.947802 0.343150 0.013761
0.992243 0.342034 0.013324
1.000000 0.341002 0.013152
0.001466 0.440537 0.020397
0.029402 0.439419 0.020138
0.075390 0.438243 0.019687
0.129884 0.437042 0.019146
0.193083 0.435814 0.018512
0.264576 0.434559 0.017790
0.343207 0.433283 0.016993
0.427061 0.431991 0.016140
0.513590 0.430691 0.015259
0.599901 0.429392 0.014380
0.683130 0.428103 0.013534
0.760807 0.426831 0.012747
0.831125 0.425584 0.012038
0.893044 0.424363 0.011418
0.946253 0.423170 0.010890
0.991027 0.422004 0.010452
1.000000 0.420923 0.010271
0.001931 0.523471 0.017399
0.028155 0.522346 0.017159
0.073806 0.521159 0.016712
0.127944 0.519945 0.016175
0.190790 0.518704 0.015546
0.261960 0.517437 0.014828
0.340331 0.516147 0.014034
0.424018 0.514840 0.013184
0.510493 0.513525 0.012304
0.596870 0.512210 0.011425
0.680277 0.510904 0.010577
0.758223 0.509615 0.009788
0.828868 0.508349 0.009076
0.891141 0.507110 0.008452
0.944705 0.505898 0.007922
0.989813 0.504713 0.007481
1.000000 0.503615 0.007289
0.002394 0.606048 0.014415
0.026920 0.604948 0.014192
0.072234 0.603783 0.013748
0.126017 0.602590 0.013214
0.188509 0.601370 0.012587
0.259354 0.600123 0.011873
0.337463 0.598853 0.011081
0.420978 0.597565 0.010231
0.507394 0.596268 0.009351
0.593834 0.594970 0.008471
0.677415 0.593681 0.007621
0.755626 0.592408 0.006828
0.826596 0.591158 0.006112
0.889224 0.589934 0.005485
0.943144 0.588736 0.004949
0.988588 0.587565 0.004504
1.000000 0.586483 0.004301
0.002840 0.685686 0.011537
0.025681 0.684643 0.011329
0.070661 0.683530 0.010887
0.124089 0.682390 0.010355
0.186226 0.681221 0.009731
0.256746 0.680025 0.009018
0.334589 0.678806 0.008227
0.417928 0.677568 0.007377
0.504281 0.676321 0.006496
0.590778 0.675071 0.005614
0.674529 0.673830 0.004760
0.753002 0.672605 0.003963
0.824296 0.671401 0.003241
0.887278 0.670223 0.002608
0.941554 0.669071 0.002068
0.987335 0.667945 0.001617
1.000000 0.666912 0.001401
0.003257 0.760162 0.008845
0.024427 0.759201 0.008653
0.069073 0.758165 0.008211
0.122147 0.757101 0.007680
0.183930 0.756009 0.007057
0.254122 0.754890 0.006344
0.331696 0.753746 0.005554
0.414855 0.752584 0.004704
0.501140 0.751411 0.003821
0.587689 0.750236 0.002935
0.671607 0.749068 0.002077
0.750339 0.747915 0.001274
0.821955 0.746784 0.000547
0.885291 0.745677 0.000000
0.939923 0.744597 0.000000
0.986042 0.743543 0.000000
1.000000 0.742582 0.000000
0.003636 0.827831 0.006399
0.023148 0.826968 0.006221
0.067462 0.826026 0.005780
0.120182 0.825056 0.005249
0.181610 0.824057 0.004627
0.251473 0.823031 0.003914
0.328775 0.821980 0.003123
0.411750 0.820910 0.002272
0.497962 0.819829 0.001386
0.584559 0.818745 0.000496
0.668639 0.817668 0.000000
0.747626 0.816606 0.000000
0.819563 0.815565 0.000000
0.883252 0.814548 0.000000
0.938241 0.813558 0.000000
0.984699 0.812593 0.000000
1.000000 0.811723 0.000000
0.003972 0.887725 0.004235
0.021838 0.886968 0.004070
0.065821 0.886127 0.003629
0.118188 0.885259 0.003099
0.179260 0.884362 0.002476
0.248793 0.883438 0.001763
0.325820 0.882488 0.000971
0.408607 0.881519 0.000119
0.494742 0.880539 0.000000
0.581381 0.879555 0.000000
0.665619 0.878578 0.000000
0.744859 0.877615 0.000000
0.817114 0.876673 0.000000
0.881155 0.875756 0.000000
0.936501 0.874864 0.000000
0.983300 0.873998 0.000000
1.000000 0.873228 0.000000
0.004262 0.939518 0.002363
0.020496 0.938868 0.002212
0.064149 0.938130 0.001770
0.116163 0.937364 0.001240
0.176880 0.936570 0.000618
0.246080 0.935747 0.000000
0.322830 0.934900 0.000000
0.405425 0.934033 0.000000
0.491477 0.933155 0.000000
0.578154 0.932273 0.000000
0.662545 0.931396 0.000000
0.742034 0.930534 0.000000
0.814606 0.929693 0.000000
0.878998 0.928876 0.000000
0.934702 0.928085 0.000000
0.981843 0.927319 0.000000
1.000000 0.926650 0.000000
0.004508 0.983415 0.000776
0.019123 0.982865 0.000639
0.062447 0.982224 0.000198
0.114109 0.981556 0.000000
0.174470 0.980859 0.000000
0.243335 0.980134 0.000000
0.319805 0.979385 0.000000
0.402204 0.978615 0.000000
0.488168 0.977833 0.000000
0.574879 0.977048 0.000000
0.659418 0.976268 0.000000
0.739154 0.975502 0.000000
0.812039 0.974757 0.000000
0.876782 0.974036 0.000000
0.932844 0.973341 0.000000
0.980327 0.972672 0.000000
1.000000 0.972098 0.000000
0.004736 1.000000 0.000000
0.017746 1.000000 0.000000
0.060746 1.000000 0.000000
0.112060 1.000000 0.000000
0.172067 1.000000 0.000000
0.240601 1.000000 0.000000
0.316791 1.000000 0.000000
0.398993 1.000000 0.000000
0.484869 1.000000 0.000000
0.571611 1.000000 0.000000
0.656299 1.000000 0.000000
0.736279 1.000000 0.000000
0.809481 1.000000 0.000000
0.874576 1.000000 0.000000
0.930999 1.000000 0.000000
0.978829 1.000000 0.000000
1.000000 1.000000 0.000000
0.000000 0.013695 0.074939
0.039208 0.013572 0.073994
0.087558 0.013421 0.072962
0.144522 0.013243 0.071839
0.210143 0.013037 0.070625
0.283810 0.012806 0.069327
0.364149 0.012554 0.067960
0.449044 0.012288 0.066545
0.535817 0.012016 0.065112
0.621541 0.011748 0.063691
0.703431 0.011491 0.062312
0.779184 0.011254 0.060999
0.847205 0.011040 0.059770
0.906670 0.010854 0.058632
0.957451 0.010695 0.057588
0.999956 0.010562 0.056633
1.000000 0.010529 0.056018
0.000000 0.051990 0.071810
0.037615 0.051343 0.070905
0.085617 0.050667 0.069899
0.142220 0.049965 0.068803
0.207491 0.049237 0.067616
0.280847 0.048485 0.066345
0.360947 0.047712 0.065003
0.445702 0.046926 0.063612
0.532452 0.046135 0.062202
0.618273 0.045349 0.060803
0.700367 0.044575 0.059444
0.776405 0.043821 0.058151
0.844761 0.043093 0.056941
0.904581 0.042392 0.055822
0.955710 0.041720 0.054797
0.998538 0.041075 0.053861
1.000000 0.040528 0.053251
0.000000 0.097934 0.068416
0.036081 0.097195 0.067538
0.083739 0.096422 0.066543
0.139984 0.095623 0.065458
0.204905 0.094799 0.064283
0.277951 0.093950 0.063022
0.357809 0.093081 0.061690
0.442423 0.092198 0.060309
0.529147 0.091310 0.058906
0.615063 0.090426 0.057514
0.697359 0.089554 0.056160
0.773682 0.088702 0.054872
0.842374 0.087876 0.053665
0.902551 0.087078 0.052550
0.954031 0.086308 0.051529
0.997186 0.085565 0.050597
1.000000 0.084916 0.049977
0.000000 0.151872 0.064746
0.034604 0.151036 0.063895
0.081920 0.150163 0.062912
0.137807 0.149263 0.061838
0.202378 0.148338 0.060674
0.275110 0.147389 0.059424
0.354725 0.146419 0.058103
0.439192 0.145435 0.056731
0.525886 0.144445 0.055336
0.611892 0.143459 0.053950
0.694386 0.142485 0.052603
0.770991 0.141531 0.051319
0.840018 0.140602 0.050116
0.900550 0.139701 0.049005
0.952382 0.138828 0.047987
0.995865 0.137983 0.047060
1.000000 0.137228 0.046431
0.000215 0.213881 0.060799
0.033187 0.212951 0.059974
0.080161 0.211979 0.059002
0.135690 0.210981 0.057940
0.199910 0.209957 0.056787
0.272327 0.208909 0.055548
0.351694 0.207840 0.054237
0.436010 0.206757 0.052874
0.522669 0.205667 0.051487
0.608760 0.204580 0.050108
0.691448 0.203506 0.048766
0.768332 0.202451 0.047487
0.837692 0.201420 0.046288
0.898581 0.200418 0.045181
0.950765 0.199444 0.044167
0.994577 0.198497 0.043243
1.000000 0.197636 0.042605
0.000604 0.283475 0.056590
0.031826 0.282462 0.055791
0.078458 0.281401 0.054830
0.133630 0.280314 0.053779
0.197498 0.279202 0.052637
0.269598 0.278064 0.051409
0.348715 0.276905 0.050108
0.432875 0.275732 0.048754
0.519494 0.274552 0.047375
0.605665 0.273374 0.046002
0.688543 0.272208 0.044665
0.765703 0.271061 0.043390
0.835395 0.269938 0.042196
0.896639 0.268843 0.041092
0.949176 0.267776 0.040081
0.993319 0.266737 0.039161
1.000000 0.265779 0.038514
0.001029 0.359505 0.052163
0.030514 0.358426 0.051389
0.076806 0.357296 0.050438
0.131621 0.356139 0.049397
0.195137 0.354955 0.048266
0.266918 0.353747 0.047048
0.345780 0.352517 0.045755
0.429781 0.351271 0.044410
0.516355 0.350019 0.043038
0.602601 0.348768 0.041671
0.685666 0.347528 0.040339
0.763099 0.346306 0.039067
0.833121 0.345108 0.037876
0.894721 0.343938 0.036775
0.947611 0.342795 0.035768
0.992086 0.341680 0.034851
1.000000 0.340649 0.034198
0.001480 0.440158 0.047582
0.029241 0.439041 0.046832
0.075195 0.437866 0.045890
0.129653 0.436665 0.044859
0.192816 0.435438 0.043737
0.264276 0.434184 0.042527
0.342881 0.432909 0.041244
0.426718 0.431617 0.039905
0.513242 0.430318 0.038540
0.599560 0.429019 0.037178
0.682806 0.427731 0.035849
0.760510 0.426460 0.034581
0.830861 0.425213 0.033391
0.892815 0.423993 0.032292
0.946060 0.422800 0.031287
0.990868 0.421635 0.030372
1.000000 0.420555 0.029714
0.001943 0.523090 0.042932
0.027995 0.521965 0.042205
0.073612 0.520778 0.041271
0.127714 0.519565 0.040248
0.190523 0.518325 0.039134
0.261660 0.517058 0.037932
0.340005 0.515769 0.036656
0.423674 0.514463 0.035324
0.510143 0.513148 0.033963
0.596527 0.511834 0.032605
0.679952 0.510528 0.031279
0.757923 0.509240 0.030012
0.828601 0.507975 0.028824
0.890910 0.506736 0.027726
0.944510 0.505524 0.026721
0.989652 0.504339 0.025808
1.000000 0.503242 0.025143
0.002405 0.605675 0.038308
0.026760 0.604576 0.037602
0.072041 0.603411 0.036674
0.125787 0.602219 0.035659
0.188243 0.600999 0.034552
0.259055 0.599753 0.033357
0.337137 0.598483 0.032086
0.420634 0.597196 0.030760
0.507044 0.595899 0.029403
0.593489 0.594602 0.028047
0.677088 0.593313 0.026723
0.755324 0.592041 0.025457
0.826328 0.590790 0.024268
0.888991 0.589566 0.023170
0.942946 0.588369 0.022165
0.988424 0.587198 0.021251
1.000000 0.586117 0.020579
0.002850 0.685332 0.033803
0.025522 0.684291 0.033117
0.070468 0.683178 0.032195
0.123860 0.682038 0.031185
0.185961 0.680869 0.030084
0.256448 0.679674 0.028895
0.334263 0.678455 0.027629
0.417584 0.677218 0.026306
0.503930 0.675970 0.024953
0.590432 0.674721 0.023599
0.674200 0.673480 0.022275
0.752699 0.672255 0.021008
0.824025 0.671051 0.019818
0.887043 0.669873 0.018718
0.941354 0.668722 0.017711
0.987169 0.667596 0.016796
1.000000 0.666562 0.016115
0.003267 0.759836 0.029498
0.024269 0.758876 0.028830
0.068881 0.757840 0.027913
0.121918 0.756777 0.026908
0.183665 0.755685 0.025812
0.253824 0.754566 0.024628
0.331370 0.753422 0.023366
0.414511 0.752260 0.022046
0.500788 0.751087 0.020695
0.587342 0.749912 0.019341
0.671276 0.748744 0.018017
0.750033 0.747592 0.016748
0.821682 0.746460 0.015556
0.885053 0.745354 0.014454
0.939721 0.744274 0.013445
0.985874 0.743220 0.012527
1.000000 0.742259 0.011835
0.003645 0.827539 0.025451
0.022990 0.826676 0.024802
0.067270 0.825734 0.023889
0.119954 0.824764 0.022888
0.181346 0.823766 0.021796
0.251175 0.822740 0.020616
0.328449 0.821689 0.019358
0.411406 0.820620 0.018041
0.497610 0.819538 0.016691
0.584211 0.818455 0.015337
0.668307 0.817378 0.014011
0.747319 0.816316 0.012741
0.819288 0.815274 0.011546
0.883012 0.814258 0.010441
0.938036 0.813267 0.009428
0.984529 0.812302 0.008508
1.000000 0.811432 0.007803
0.003980 0.887468 0.021699
0.021681 0.886712 0.021067
0.065630 0.885871 0.020158
0.117961 0.885003 0.019161
0.178997 0.884107 0.018074
0.248496 0.883182 0.016897
0.325495 0.882233 0.015642
0.408263 0.881264 0.014327
0.494389 0.880284 0.012978
0.581032 0.879300 0.011624
0.665285 0.878323 0.010297
0.744550 0.877360 0.009024
0.816837 0.876418 0.007827
0.880913 0.875500 0.006717
0.936295 0.874609 0.005701
0.983128 0.873743 0.004777
1.000000 0.872972 0.004060
0.004270 0.939298 0.018252
0.020339 0.938648 0.017638
0.063959 0.937910 0.016733
0.115937 0.937144 0.015740
0.176618 0.936350 0.014656
0.245784 0.935528 0.013484
0.322505 0.934681 0.012232
0.405080 0.933814 0.010919
0.491123 0.932936 0.009571
0.577804 0.932054 0.008217
0.662210 0.931178 0.006889
0.741724 0.930316 0.005613
0.814327 0.929474 0.004412
0.878754 0.928657 0.003300
0.934493 0.927866 0.002280
0.981668 0.927100 0.001353
1.000000 0.926430 0.000621
0.004515 0.983228 0.015104
0.018967 0.982679 0.014508
0.062257 0.982039 0.013607
0.113884 0.981370 0.012618
0.174208 0.980674 0.011538
0.243040 0.979949 0.010369
0.319480 0.979200 0.009121
0.401859 0.978431 0.007811
0.487814 0.977649 0.006464
0.574527 0.976864 0.005110
0.659082 0.976084 0.003780
0.738841 0.975318 0.002503
0.811758 0.974573 0.001299
0.876535 0.973852 0.000183
0.932633 0.973157 0.000000
0.980151 0.972487 0.000000
1.000000 0.971913 0.000000
0.004743 1.000000 0.012635
0.017592 1.000000 0.012041
0.060558 1.000000 0.011129
0.111836 1.000000 0.010131
0.171807 1.000000 0.009041
0.240307 1.000000 0.007862
0.316467 1.000000 0.006604
0.398649 1.000000 0.005282
0.484515 1.000000 0.003923
0.571259 1.000000 0.002555
0.655961 1.000000 0.001211
0.735966 1.000000 0.000000
0.809198 1.000000 0.000000
0.874329 1.000000 0.000000
0.930787 1.000000 0.000000
0.978652 1.000000 0.000000
1.000000 1.000000 0.000000
0.000000 0.013645 0.122341
0.039052 0.013522 0.121295
0.087367 0.013371 0.120159
0.144294 0.013193 0.118933
0.209881 0.012988 0.117616
0.283517 0.012757 0.116216
0.363832 0.012505 0.114745
0.448713 0.012239 0.113228
0.535484 0.011968 0.111691
0.621219 0.011699 0.110167
0.703130 0.011442 0.108685
0.778912 0.011205 0.107269
0.846967 0.010992 0.105936
0.906468 0.010805 0.104696
0.957284 0.010647 0.103549
0.999822 0.010514 0.102491
1.000000 0.010480 0.101771
0.000000 0.051761 0.118870
0.037459 0.051115 0.117864
0.085427 0.050439 0.116755
0.141993 0.049738 0.115556
0.207229 0.049010 0.114267
0.280554 0.048258 0.112892
0.360629 0.047487 0.111448
0.445370 0.046701 0.109954
0.532118 0.045911 0.108441
0.617949 0.045125 0.106939
0.700063 0.044351 0.105478
0.776130 0.043598 0.104082
0.844520 0.042870 0.102768
0.904376 0.042170 0.101547
0.955541 0.041498 0.100419
0.998401 0.040854 0.099380
1.000000 0.040306 0.098667
0.000000 0.097672 0.115130
0.035926 0.096934 0.114151
0.083549 0.096161 0.113053
0.139758 0.095363 0.111866
0.204644 0.094539 0.110588
0.277658 0.093691 0.109224
0.357492 0.092823 0.107790
0.442091 0.091940 0.106306
0.528813 0.091053 0.104801
0.614738 0.090169 0.103306
0.697054 0.089298 0.101850
0.773406 0.088447 0.100459
0.842132 0.087621 0.099150
0.902344 0.086823 0.097932
0.953860 0.086053 0.096808
0.997047 0.085311 0.095774
1.000000 0.084662 0.095051
0.000000 0.151575 0.111115
0.034450 0.150741 0.110163
0.081731 0.149868 0.109077
0.137582 0.148969 0.107901
0.202118 0.148045 0.106635
0.274818 0.147096 0.105283
0.354408 0.146126 0.103859
0.438860 0.145143 0.102385
0.525551 0.144154 0.100888
0.611566 0.143168 0.099400
0.694079 0.142195 0.097950
0.770712 0.141241 0.096564
0.839773 0.140312 0.095259
0.900342 0.139412 0.094046
0.952209 0.138540 0.092926
0.995725 0.137695 0.091896
1.000000 0.136940 0.091164
0.000239 0.213551 0.106823
0.033034 0.212622 0.105897
0.079973 0.211651 0.104823
0.135466 0.210654 0.103659
0.199651 0.209630 0.102404
0.272036 0.208583 0.101064
0.351378 0.207514 0.099650
0.435678 0.206431 0.098186
0.522333 0.205342 0.096697
0.608433 0.204256 0.095216
0.691140 0.203182 0.093772
0.768052 0.202127 0.092390
0.837446 0.201097 0.091090
0.898370 0.200095 0.089881
0.950590 0.199122 0.088765
0.994435 0.198175 0.087740
1.000000 0.197314 0.086998
0.000627 0.283115 0.102271
0.031674 0.282103 0.101372
0.078272 0.281042 0.100308
0.133407 0.279957 0.099156
0.197240 0.278844 0.097912
0.269308 0.277707 0.096582
0.348399 0.276549 0.095179
0.432543 0.275376 0.093724
0.519158 0.274197 0.092243
0.605337 0.273019 0.090769
0.688234 0.271854 0.089330
0.765422 0.270707 0.087953
0.835147 0.269584 0.086657
0.896427 0.268489 0.085452
0.949000 0.267423 0.084340
0.993176 0.266384 0.083318
1.000000 0.265427 0.082568
0.001052 0.359121 0.097501
0.030363 0.358043 0.096627
0.076621 0.356913 0.095574
0.131400 0.355757 0.094432
0.194880 0.354574 0.093199
0.266628 0.353366 0.091879
0.345465 0.352136 0.090486
0.429450 0.350891 0.089039
0.516018 0.349639 0.087566
0.602272 0.348388 0.086097
0.685355 0.347148 0.084664
0.762816 0.345927 0.083291
0.832872 0.344730 0.081998
0.894507 0.343559 0.080796
0.947433 0.342417 0.079687
0.991941 0.341303 0.078669
1.000000 0.340271 0.077914
0.001503 0.439760 0.092577
0.029091 0.438643 0.091728
0.075011 0.437469 0.090684
0.129433 0.436268 0.089552
0.192561 0.435041 0.088329
0.263988 0.433788 0.087018
0.342567 0.432513 0.085634
0.426387 0.431222 0.084194
0.512905 0.429922 0.082728
0.599230 0.428624 0.081265
0.682494 0.427336 0.079835
0.760226 0.426065 0.078465
0.830609 0.424819 0.077175
0.892600 0.423598 0.075975
0.945880 0.422406 0.074869
0.990721 0.421241 0.073853
1.000000 0.420161 0.073093
0.001966 0.522687 0.087586
0.027846 0.521563 0.086759
0.073429 0.520377 0.085724
0.127495 0.519164 0.084600
0.190269 0.517924 0.083385
0.261373 0.516658 0.082083
0.339691 0.515368 0.080706
0.423343 0.514063 0.079273
0.509806 0.512748 0.077812
0.596197 0.511433 0.076353
0.679639 0.510128 0.074926
0.757637 0.508840 0.073559
0.828348 0.507575 0.072270
0.890693 0.506336 0.071071
0.944328 0.505124 0.069966
0.989504 0.503939 0.068951
1.000000 0.502842 0.068186
0.002428 0.605280 0.082621
0.026612 0.604182 0.081815
0.071859 0.603017 0.080787
0.125570 0.601825 0.079671
0.187990 0.600605 0.078463
0.258769 0.599359 0.077168
0.336824 0.598089 0.075797
0.420303 0.596802 0.074370
0.506707 0.595505 0.072913
0.593158 0.594208 0.071457
0.676774 0.592919 0.070032
0.755037 0.591646 0.068665
0.826073 0.590396 0.067377
0.888772 0.589172 0.066178
0.942763 0.587974 0.065072
0.988274 0.586803 0.064058
1.000000 0.585721 0.063285
0.002873 0.684956 0.077775
0.025376 0.683914 0.076990
0.070288 0.682801 0.075968
0.123643 0.681661 0.074858
0.185709 0.680493 0.073656
0.256162 0.679297 0.072367
0.333951 0.678078 0.071002
0.417254 0.676841 0.069579
0.503593 0.675593 0.068125
0.590100 0.674344 0.066671
0.673885 0.673103 0.065247
0.752410 0.671877 0.063880
0.823769 0.670673 0.062590
0.886822 0.669495 0.061389
0.941169 0.668343 0.060283
0.987018 0.667217 0.059268
1.000000 0.666183 0.058485
0.003290 0.759485 0.073130
0.024123 0.758525 0.072364
0.068702 0.757489 0.071347
0.121704 0.756426 0.070242
0.183415 0.755334 0.069046
0.253540 0.754215 0.067762
0.331059 0.753071 0.066401
0.414181 0.751909 0.064981
0.500451 0.750736 0.063530
0.587010 0.749560 0.062076
0.670960 0.748392 0.060652
0.749743 0.747239 0.059284
0.821424 0.746108 0.057992
0.884831 0.745001 0.056790
0.939534 0.743921 0.055681
0.985722 0.742866 0.054664
1.000000 0.741905 0.053871
0.003668 0.827220 0.068745
0.022846 0.826358 0.067997
0.067093 0.825415 0.066985
0.119741 0.824445 0.065884
0.181097 0.823447 0.064693
0.250892 0.822421 0.063413
0.328139 0.821370 0.062056
0.411076 0.820300 0.060639
0.497272 0.819218 0.059189
0.583878 0.818134 0.057736
0.667990 0.817057 0.056311
0.747028 0.815994 0.054941
0.819029 0.814953 0.053647
0.882788 0.813936 0.052442
0.937849 0.812945 0.051330
0.984375 0.811979 0.050310
1.000000 0.811109 0.049506
0.004003 0.887184 0.064655
0.021538 0.886428 0.063925
0.065454 0.885587 0.062916
0.117749 0.884719 0.061820
0.178749 0.883822 0.060633
0.248214 0.882898 0.059358
0.325186 0.881948 0.058004
0.407934 0.880979 0.056590
0.494051 0.879998 0.055141
0.580699 0.879014 0.053689
0.664967 0.878037 0.052262
0.744257 0.877074 0.050890
0.816576 0.876131 0.049593
0.880688 0.875213 0.048385
0.936106 0.874321 0.047270
0.982973 0.873454 0.046247
1.000000 0.872683 0.045430
0.004292 0.939049 0.060871
0.020198 0.938398 0.060159
0.063784 0.937660 0.059155
0.115727 0.936895 0.058063
0.176371 0.936100 0.056881
0.245503 0.935278 0.055609
0.322197 0.934431 0.054258
0.404752 0.933564 0.052847
0.490786 0.932685 0.051400
0.577470 0.931803 0.049947
0.661891 0.930926 0.048520
0.741430 0.930064 0.047146
0.814065 0.929222 0.045846
0.878527 0.928404 0.044634
0.934303 0.927612 0.043516
0.981512 0.926847 0.042490
1.000000 0.926176 0.041659
0.004538 0.983012 0.057387
0.018827 0.982463 0.056694
0.062084 0.981822 0.055693
0.113675 0.981154 0.054606
0.173963 0.980457 0.053428
0.242761 0.979733 0.052161
0.319173 0.978983 0.050814
0.401532 0.978213 0.049405
0.487477 0.977431 0.047960
0.574193 0.976646 0.046507
0.658762 0.975866 0.045079
0.738546 0.975100 0.043703
0.811494 0.974354 0.042401
0.876307 0.973632 0.041186
0.932441 0.972937 0.040064
0.979993 0.972267 0.039035
1.000000 0.971692 0.038190
0.004767 1.000000 0.054578
0.017454 1.000000 0.053887
0.060388 1.000000 0.052877
0.111630 1.000000 0.051780
0.171565 1.000000 0.050593
0.240030 1.000000 0.049316
0.316162 1.000000 0.047959
0.398323 1.000000 0.046539
0.484179 1.000000 0.045082
0.570926 1.000000 0.043616
0.655642 1.000000 0.042173
0.735671 1.000000 0.040781
0.808934 1.000000 0.039462
0.874100 1.000000 0.038229
0.930595 1.000000 0.037090
0.978494 1.000000 0.036044
1.000000 1.000000 0.035168
0.000000 0.013585 0.178515
0.038901 0.013463 0.177363
0.087181 0.013312 0.176120
0.144072 0.013134 0.174787
0.209623 0.012929 0.173364
0.283228 0.012698 0.171856
0.363520 0.012447 0.170278
0.448388 0.012181 0.168654
0.535156 0.011909 0.167010
0.620901 0.011641 0.165379
0.702833 0.011384 0.163789
0.778644 0.011147 0.162266
0.846733 0.010934 0.160825
